;FLAVOR:Marlin
;TIME:466
;Filament used: 0.177832m
;Layer height: 0.15
;MINX:106.604
;MINY:106.598
;MINZ:0.15
;MAXX:128.398
;MAXY:128.401
;MAXZ:12
;TARGET_MACHINE.NAME:ELEGOO NEPTUNE 3 Pro
;Generated with Cura_SteamEngine 5.6.0
M140 S70
M105
M190 S70
M104 S215
M105
M109 S215
M82 ;absolute extrusion mode
;ELEGOO NEPTUNE 3 Pro
M220 S100 ;Set the feed speed to 100%
M221 S100 ;Set the flow rate to 100%
G90
G28 ;home
;M420 S1 Z10;Uncomment to enable progressive compensation height of 10mm
G92 E0 ;Reset Extruder
G1 Z0.45 F300
G1 X1.5 Y20 F5000.0 ;Move to start position
G1 Y120.0 F600.0 E15 ;Draw the first line
G1 X0.5 F1000.0 ;Move to side a little
G1 Y20 F600 E30 ;Draw the second line
G92 E0 ;Reset Extruder
G92 E0
G92 E0
G1 F1500 E-1
;LAYER_COUNT:80
;LAYER:0
M107
M204 S500
G0 F6000 X109.523 Y110.062 Z0.15
;TYPE:SKIRT
G1 F1500 E0
G1 F2100 X110.297 Y109.31 E0.03675
G1 X111.413 Y108.45 E0.08472
G1 X112.429 Y107.844 E0.125
G1 X113.646 Y107.299 E0.1704
G1 X114.681 Y106.966 E0.20743
G1 X116.019 Y106.697 E0.2539
G1 X117.26 Y106.598 E0.29629
G1 X118.432 Y106.637 E0.33622
G1 X119.76 Y106.834 E0.38193
G1 X120.814 Y107.115 E0.41907
G1 X122.065 Y107.602 E0.46478
G1 X123.208 Y108.211 E0.50888
G1 X124.121 Y108.84 E0.54663
G1 X125.093 Y109.683 E0.59044
G1 X125.992 Y110.668 E0.63585
G1 X126.706 Y111.665 E0.67761
G1 X127.319 Y112.77 E0.72063
G1 X127.763 Y113.831 E0.7598
G1 X128.127 Y115.077 E0.804
G1 X128.315 Y116.134 E0.84055
G1 X128.398 Y117.584 E0.89
G1 X128.319 Y118.811 E0.93187
G1 X128.109 Y120.002 E0.97305
G1 X127.753 Y121.192 E1.01534
G1 X127.234 Y122.4 E1.06011
G1 X126.702 Y123.34 E1.09689
G1 X125.869 Y124.485 E1.1451
G1 X125.091 Y125.322 E1.18401
G1 X124.087 Y126.187 E1.22914
G1 X123.109 Y126.847 E1.26931
G1 X121.987 Y127.434 E1.31243
G1 X120.776 Y127.898 E1.35659
G1 X119.764 Y128.165 E1.39222
G1 X118.354 Y128.37 E1.44074
G1 X117.253 Y128.401 E1.47824
G1 X115.87 Y128.282 E1.52551
G1 X114.769 Y128.056 E1.56378
G1 X113.46 Y127.629 E1.61066
G1 X112.346 Y127.111 E1.65249
G1 X111.288 Y126.465 E1.6947
G1 X110.329 Y125.718 E1.73609
G1 X109.411 Y124.818 E1.77987
G1 X108.727 Y123.982 E1.81665
G1 X108.039 Y122.931 E1.85942
G1 X107.429 Y121.69 E1.90651
G1 X107.027 Y120.557 E1.94744
G1 X106.745 Y119.335 E1.99014
G1 X106.604 Y118.021 E2.03514
G1 X106.613 Y116.791 E2.07703
G1 X106.732 Y115.742 E2.11297
G1 X107.038 Y114.413 E2.15941
G1 X107.472 Y113.204 E2.20315
G1 X108.037 Y112.071 E2.24626
G1 X108.604 Y111.187 E2.28202
G1 X109.523 Y110.062 E2.33148
G0 F6000 X109.903 Y110.454
G1 F2100 X110.677 Y109.702 E2.36823
G1 X111.693 Y108.919 E2.4119
G1 X112.709 Y108.313 E2.45218
G1 X113.813 Y107.819 E2.49337
G1 X114.848 Y107.486 E2.53039
G1 X116.064 Y107.241 E2.57262
G1 X117.244 Y107.144 E2.61294
G1 X118.353 Y107.177 E2.65072
G1 X119.621 Y107.362 E2.69435
G1 X120.617 Y107.624 E2.72942
G1 X121.809 Y108.084 E2.77292
G1 X122.898 Y108.661 E2.81489
G1 X123.811 Y109.29 E2.85264
G1 X124.691 Y110.052 E2.89227
G1 X125.549 Y110.987 E2.93548
G1 X126.229 Y111.931 E2.9751
G1 X126.815 Y112.981 E3.01604
G1 X127.259 Y114.042 E3.0552
G1 X127.589 Y115.173 E3.09532
G1 X127.777 Y116.23 E3.13188
G1 X127.853 Y117.55 E3.1769
G1 X127.781 Y118.716 E3.21668
G1 X127.571 Y119.907 E3.25785
G1 X127.251 Y120.978 E3.29591
G1 X126.759 Y122.131 E3.3386
G1 X126.227 Y123.071 E3.37538
G1 X125.468 Y124.114 E3.4193
G1 X124.733 Y124.909 E3.45617
G1 X123.78 Y125.735 E3.49911
G1 X122.854 Y126.364 E3.53722
G1 X121.79 Y126.925 E3.57818
G1 X120.637 Y127.37 E3.62026
G1 X119.625 Y127.637 E3.6559
G1 X118.337 Y127.824 E3.70022
G1 X117.298 Y127.857 E3.73561
G1 X115.98 Y127.747 E3.78065
G1 X114.879 Y127.521 E3.81892
G1 X113.689 Y127.133 E3.86154
G1 X112.629 Y126.644 E3.90129
G1 X111.624 Y126.034 E3.94132
G1 X110.665 Y125.287 E3.98271
G1 X109.834 Y124.472 E4.02234
G1 X109.15 Y123.636 E4.05912
G1 X108.497 Y122.633 E4.09987
G1 X107.944 Y121.507 E4.14259
G1 X107.542 Y120.374 E4.18352
G1 X107.288 Y119.275 E4.22193
G1 X107.15 Y118.024 E4.26478
G1 X107.156 Y116.853 E4.30466
G1 X107.275 Y115.804 E4.3406
G1 X107.552 Y114.596 E4.3828
G1 X107.961 Y113.447 E4.42433
G1 X108.497 Y112.366 E4.46542
G1 X109.064 Y111.482 E4.50118
G1 X109.903 Y110.454 E4.54636
G0 F6000 X110.283 Y110.846
G1 F2100 X111.057 Y110.094 E4.5831
G1 X111.974 Y109.387 E4.62253
G1 X112.934 Y108.811 E4.66065
G1 X113.98 Y108.339 E4.69973
G1 X115.015 Y108.006 E4.73675
G1 X116.11 Y107.785 E4.77478
G1 X117.228 Y107.69 E4.81299
G1 X118.337 Y107.723 E4.85077
G1 X119.482 Y107.89 E4.89017
G1 X120.478 Y108.152 E4.92523
G1 X121.555 Y108.567 E4.96453
G1 X122.588 Y109.111 E5.00429
G1 X123.501 Y109.74 E5.04204
G1 X124.29 Y110.422 E5.07755
G1 X125.107 Y111.307 E5.11856
G1 X125.753 Y112.198 E5.15604
G1 X126.312 Y113.193 E5.1949
G1 X126.735 Y114.196 E5.23196
G1 X127.051 Y115.269 E5.27005
G1 X127.239 Y116.326 E5.3066
G1 X127.308 Y117.518 E5.34726
G1 X127.243 Y118.623 E5.38495
G1 X127.047 Y119.752 E5.42397
G1 X126.748 Y120.765 E5.45993
G1 X126.284 Y121.862 E5.50049
G1 X125.752 Y122.802 E5.53727
G1 X125.067 Y123.743 E5.5769
G1 X124.332 Y124.538 E5.61376
G1 X123.473 Y125.283 E5.65248
G1 X122.547 Y125.912 E5.6906
G1 X121.592 Y126.416 E5.72737
G1 X120.498 Y126.842 E5.76734
G1 X119.486 Y127.109 E5.80298
G1 X118.32 Y127.278 E5.8431
G1 X117.281 Y127.311 E5.87849
G1 X116.09 Y127.212 E5.91918
G1 X114.989 Y126.986 E5.95746
G1 X113.916 Y126.637 E5.99588
G1 X112.911 Y126.177 E6.03351
G1 X111.958 Y125.602 E6.07141
G1 X111.046 Y124.896 E6.11068
G1 X110.256 Y124.125 E6.14827
G1 X109.608 Y123.338 E6.18298
G1 X108.955 Y122.335 E6.22373
G1 X108.458 Y121.323 E6.26212
G1 X108.074 Y120.249 E6.30096
G1 X107.831 Y119.213 E6.33719
G1 X107.696 Y118.025 E6.3779
G1 X107.699 Y116.915 E6.4157
G1 X107.818 Y115.866 E6.45165
G1 X108.084 Y114.719 E6.49174
G1 X108.451 Y113.688 E6.529
G1 X108.957 Y112.661 E6.56799
G1 X109.524 Y111.777 E6.60375
G1 X110.283 Y110.846 E6.64465
G0 F6000 X110.663 Y111.238
G1 F2100 X111.437 Y110.486 E6.68139
G1 X112.257 Y109.854 E6.71664
G1 X113.16 Y109.308 E6.75257
G1 X114.149 Y108.858 E6.78957
G1 X115.125 Y108.541 E6.82451
G1 X116.158 Y108.329 E6.86042
G1 X117.213 Y108.236 E6.89648
G1 X118.26 Y108.264 E6.93214
G1 X119.343 Y108.418 E6.96939
G1 X120.339 Y108.68 E7.00446
G1 X121.302 Y109.051 E7.0396
G1 X122.28 Y109.562 E7.07717
G1 X123.144 Y110.153 E7.11282
G1 X123.933 Y110.835 E7.14833
G1 X124.666 Y111.629 E7.18512
G1 X125.278 Y112.467 E7.22045
G1 X125.81 Y113.407 E7.25723
G1 X126.212 Y114.352 E7.2922
G1 X126.513 Y115.365 E7.32818
G1 X126.701 Y116.422 E7.36474
G1 X126.763 Y117.488 E7.4011
G1 X126.705 Y118.531 E7.43667
G1 X126.523 Y119.597 E7.47349
G1 X126.224 Y120.61 E7.50945
G1 X125.808 Y121.595 E7.54586
G1 X125.31 Y122.482 E7.5805
G1 X124.665 Y123.374 E7.61798
G1 X123.973 Y124.127 E7.6528
G1 X123.165 Y124.832 E7.68931
G1 X122.29 Y125.43 E7.7254
G1 X121.392 Y125.908 E7.76004
G1 X120.359 Y126.314 E7.79783
G1 X119.347 Y126.581 E7.83347
G1 X118.303 Y126.732 E7.86939
G1 X117.264 Y126.765 E7.90478
G1 X116.198 Y126.677 E7.94121
G1 X115.156 Y126.466 E7.97741
G1 X114.142 Y126.14 E8.01367
G1 X113.192 Y125.709 E8.04919
G1 X112.291 Y125.169 E8.08496
G1 X111.426 Y124.504 E8.12211
G1 X110.678 Y123.778 E8.15761
G1 X110.03 Y122.991 E8.19232
G1 X109.413 Y122.038 E8.23098
G1 X108.972 Y121.137 E8.26513
G1 X108.606 Y120.124 E8.30181
G1 X108.363 Y119.088 E8.33804
G1 X108.242 Y118.025 E8.37447
G1 X108.242 Y116.977 E8.41015
G1 X108.361 Y115.928 E8.4461
G1 X108.599 Y114.901 E8.482
G1 X108.942 Y113.928 E8.51713
G1 X109.417 Y112.956 E8.55396
G1 X109.984 Y112.072 E8.58972
G1 X110.663 Y111.238 E8.62634
G1 F1500 E7.62634
;MESH:driveshaft_front.STL
G0 F6000 X111.726 Y114.169
G0 X112.647 Y114.758
G0 X112.414 Y117.21
G0 X112.325 Y117.205
;TYPE:WALL-INNER
G1 F1500 E8.62634
G1 F2100 X112.325 Y117.795 E8.64643
G1 X112.392 Y118.381 E8.66652
G1 X112.529 Y118.971 E8.68714
G1 X112.72 Y119.506 E8.70648
G1 X112.986 Y120.045 E8.72695
G1 X113.3 Y120.536 E8.74679
G1 X113.691 Y121.012 E8.76777
G1 X114.095 Y121.406 E8.78698
G1 X114.583 Y121.783 E8.80798
G1 X115.074 Y122.079 E8.8275
G1 X115.613 Y122.325 E8.84768
G1 X116.174 Y122.507 E8.86776
G1 X116.772 Y122.628 E8.88853
G1 X117.341 Y122.677 E8.90798
G1 X117.945 Y122.659 E8.92855
G1 X118.511 Y122.578 E8.94802
G1 X119.101 Y122.422 E8.9688
G1 X119.647 Y122.211 E8.98873
G1 X120.173 Y121.932 E9.00901
G1 X120.652 Y121.605 E9.02876
G1 X121.099 Y121.219 E9.04887
G1 X121.516 Y120.763 E9.06991
G1 X121.846 Y120.309 E9.08902
G1 X122.145 Y119.78 E9.10971
G1 X122.374 Y119.239 E9.12971
G1 X122.537 Y118.682 E9.14947
G1 X122.64 Y118.088 E9.17
G1 X122.673 Y117.501 E9.19002
G1 X122.64 Y116.912 E9.21011
G1 X122.537 Y116.318 E9.23063
G1 X122.374 Y115.761 E9.2504
G1 X122.145 Y115.22 E9.2704
G1 X121.847 Y114.691 E9.29107
G1 X121.516 Y114.236 E9.31023
G1 X121.099 Y113.781 E9.33125
G1 X120.652 Y113.395 E9.35136
G1 X120.173 Y113.068 E9.3711
G1 X119.647 Y112.789 E9.39138
G1 X119.101 Y112.578 E9.41131
G1 X118.511 Y112.422 E9.43209
G1 X117.945 Y112.341 E9.45156
G1 X117.341 Y112.323 E9.47213
G1 X116.772 Y112.373 E9.49158
G1 X116.175 Y112.493 E9.51232
G1 X115.613 Y112.675 E9.53243
G1 X115.074 Y112.921 E9.55261
G1 X114.577 Y113.22 E9.57236
G1 X114.101 Y113.589 E9.59286
G1 X113.692 Y113.985 E9.61225
G1 X113.299 Y114.464 E9.63334
G1 X112.986 Y114.953 E9.65311
G1 X112.72 Y115.493 E9.67361
G1 X112.531 Y116.023 E9.69277
G1 X112.392 Y116.619 E9.71361
G1 X112.325 Y117.205 E9.73369
G0 F6000 X111.779 Y117.826
;TYPE:WALL-OUTER
G1 F1380 X111.853 Y118.474 E9.7559
G1 X112.004 Y119.125 E9.77865
G1 X112.216 Y119.72 E9.80016
G1 X112.51 Y120.314 E9.82273
G1 X112.858 Y120.858 E9.84472
G1 X113.288 Y121.382 E9.8678
G1 X113.737 Y121.819 E9.88913
G1 X114.274 Y122.234 E9.91224
G1 X114.819 Y122.563 E9.93392
G1 X115.415 Y122.835 E9.95623
G1 X116.036 Y123.036 E9.97845
G1 X116.694 Y123.169 E10.00131
G1 X117.325 Y123.224 E10.02288
G1 X117.992 Y123.204 E10.0456
G1 X118.62 Y123.114 E10.0672
G1 X119.269 Y122.942 E10.09006
G1 X119.874 Y122.709 E10.11214
G1 X120.456 Y122.4 E10.13457
G1 X120.986 Y122.038 E10.15643
G1 X121.48 Y121.611 E10.17866
G1 X121.94 Y121.109 E10.20185
G1 X122.306 Y120.605 E10.22305
G1 X122.636 Y120.022 E10.24587
G1 X122.889 Y119.423 E10.26801
G1 X123.07 Y118.806 E10.2899
G1 X123.184 Y118.15 E10.31257
G1 X123.22 Y117.501 E10.3347
G1 X123.184 Y116.85 E10.3569
G1 X123.07 Y116.194 E10.37958
G1 X122.889 Y115.577 E10.40147
G1 X122.636 Y114.978 E10.42361
G1 X122.307 Y114.395 E10.44641
G1 X121.94 Y113.89 E10.46766
G1 X121.48 Y113.389 E10.49082
G1 X120.986 Y112.962 E10.51305
G1 X120.456 Y112.6 E10.53491
G1 X119.874 Y112.291 E10.55735
G1 X119.269 Y112.058 E10.57942
G1 X118.62 Y111.886 E10.60228
G1 X117.992 Y111.796 E10.62388
G1 X117.325 Y111.776 E10.64661
G1 X116.694 Y111.831 E10.66817
G1 X116.036 Y111.964 E10.69103
G1 X115.415 Y112.165 E10.71326
G1 X114.819 Y112.437 E10.73556
G1 X114.268 Y112.769 E10.75747
G1 X113.743 Y113.176 E10.78009
G1 X113.29 Y113.615 E10.80157
G1 X112.857 Y114.142 E10.82479
G1 X112.51 Y114.685 E10.84673
G1 X112.216 Y115.28 E10.86933
G1 X112.006 Y115.869 E10.89062
G1 X111.853 Y116.526 E10.91359
G1 X111.779 Y117.174 E10.9358
G1 X111.779 Y117.826 E10.958
G0 F6000 X111.801 Y118.024
G0 X112.434 Y117.952
G0 X112.851 Y117.237
;TYPE:SKIN
G1 F2100 X112.91 Y116.715 E10.97589
G1 X113.041 Y116.154 E10.9955
G1 X113.203 Y115.702 E11.01185
G1 X113.445 Y115.213 E11.03043
G1 X113.729 Y114.769 E11.04838
G1 X114.081 Y114.343 E11.06719
G1 X114.437 Y113.995 E11.08415
G1 X114.886 Y113.648 E11.10347
G1 X115.313 Y113.39 E11.12045
G1 X115.804 Y113.165 E11.13884
G1 X116.305 Y113.004 E11.15676
G1 X116.861 Y112.892 E11.17608
G1 X117.348 Y112.849 E11.19272
G1 X117.907 Y112.866 E11.21176
G1 X118.408 Y112.938 E11.229
G1 X118.929 Y113.077 E11.24736
G1 X119.426 Y113.267 E11.26548
G1 X119.906 Y113.521 E11.28397
G1 X120.324 Y113.808 E11.30123
G1 X120.735 Y114.162 E11.3197
G1 X121.113 Y114.574 E11.33874
G1 X121.399 Y114.968 E11.35532
G1 X121.676 Y115.456 E11.37443
G1 X121.881 Y115.943 E11.39242
G1 X122.02 Y116.419 E11.4093
G1 X122.118 Y116.975 E11.42853
G1 X122.147 Y117.5 E11.44643
G1 X122.118 Y118.023 E11.46427
G1 X122.02 Y118.579 E11.48349
G1 X121.881 Y119.057 E11.50044
G1 X121.674 Y119.547 E11.51855
G1 X121.4 Y120.029 E11.53743
G1 X121.111 Y120.425 E11.55412
G1 X120.733 Y120.842 E11.57329
G1 X120.329 Y121.189 E11.59142
G1 X119.906 Y121.478 E11.60886
G1 X119.426 Y121.733 E11.62737
G1 X118.93 Y121.923 E11.64546
G1 X118.408 Y122.063 E11.66386
G1 X117.907 Y122.134 E11.68109
G1 X117.348 Y122.151 E11.70013
G1 X116.86 Y122.108 E11.71681
G1 X116.305 Y121.995 E11.7361
G1 X115.804 Y121.834 E11.75402
G1 X115.313 Y121.61 E11.77239
G1 X114.887 Y121.353 E11.78933
G1 X114.436 Y121.006 E11.80871
G1 X114.084 Y120.662 E11.82547
G1 X113.725 Y120.224 E11.84475
G1 X113.445 Y119.786 E11.86245
G1 X113.203 Y119.298 E11.881
G1 X113.035 Y118.829 E11.89796
G1 X112.91 Y118.289 E11.91684
G1 X112.851 Y117.763 E11.93486
G1 X112.851 Y117.237 E11.95277
G0 F6000 X112.48 Y117.195
G0 X112.601 Y118.344
G0 X112.917 Y119.423
G0 X113.726 Y120.814
G0 X114.226 Y120.404
G1 F2100 X114.638 Y120.816 E11.97261
G0 F6000 X114.242 Y121.328
G0 X116.101 Y122.322
G0 X116.3 Y121.705
G1 F2100 X113.282 Y118.687 E12.11794
G0 F6000 X113.125 Y117.758
G1 F2100 X117.232 Y121.865 E12.31571
G0 F6000 X117.985 Y121.846
G1 F2100 X113.151 Y117.012 E12.54848
G0 F6000 X113.272 Y116.361
G1 F2100 X118.63 Y121.719 E12.80649
G0 F6000 X119.206 Y121.523
G1 F2100 X113.467 Y115.783 E13.08287
G0 F6000 X113.728 Y115.273
G1 F2100 X119.72 Y121.265 E13.37141
G0 F6000 X120.181 Y120.953
G1 F2100 X114.043 Y114.815 E13.66698
G0 F6000 X114.406 Y114.406
G1 F2100 X120.591 Y120.591 E13.96481
G0 F6000 X120.958 Y120.186
G1 F2100 X114.817 Y114.045 E14.26053
G0 F6000 X115.276 Y113.731
G1 F2100 X121.262 Y119.718 E14.5488
G0 F6000 X121.521 Y119.205
G1 F2100 X115.788 Y113.472 E14.82487
G0 F6000 X116.362 Y113.273
G1 F2100 X121.719 Y118.631 E15.08286
G0 F6000 X121.846 Y117.985
G1 F2100 X117.014 Y113.153 E15.31554
G0 F6000 X117.767 Y113.134
G1 F2100 X121.857 Y117.224 E15.51249
G0 F6000 X121.698 Y116.293
G1 F2100 X118.705 Y113.3 E15.65661
G1 X118.631 Y113.226
G0 F6000 X118.783 Y112.652
G0 X119.82 Y113.136
G0 X120.908 Y113.817
G0 X120.484 Y114.307
G1 F2100 X120.637 Y114.46 E15.66398
G1 F1500 E14.66398
;MESH:NONMESH
G0 F600 X120.637 Y114.46 Z0.3
G0 F6000 X121.115 Y114.024
G0 X120.063 Y113.25
G0 X119.034 Y112.78
G0 X117.926 Y112.553
G0 X117.016 Y112.577
G0 X114.35 Y112.903
G0 X113.68 Y112.038
G0 X110.663 Y111.238
;TIME_ELAPSED:20.572059
;LAYER:1
M106 S86.4
;TYPE:SKIRT
G1 F1500 E15.66398
G1 F2100 X111.437 Y110.486 E15.69224
G1 X112.257 Y109.854 E15.71936
G1 X113.16 Y109.308 E15.747
G1 X114.149 Y108.858 E15.77546
G1 X115.125 Y108.541 E15.80234
G1 X116.158 Y108.329 E15.82996
G1 X117.213 Y108.236 E15.8577
G1 X118.26 Y108.264 E15.88513
G1 X119.343 Y108.418 E15.91378
G1 X120.339 Y108.68 E15.94076
G1 X121.302 Y109.051 E15.96779
G1 X122.28 Y109.562 E15.99669
G1 X123.144 Y110.153 E16.02411
G1 X123.933 Y110.835 E16.05142
G1 X124.666 Y111.629 E16.07973
G1 X125.278 Y112.467 E16.10691
G1 X125.81 Y113.407 E16.1352
G1 X126.212 Y114.352 E16.1621
G1 X126.513 Y115.365 E16.18978
G1 X126.701 Y116.422 E16.2179
G1 X126.763 Y117.488 E16.24586
G1 X126.705 Y118.531 E16.27323
G1 X126.523 Y119.597 E16.30155
G1 X126.224 Y120.61 E16.32921
G1 X125.808 Y121.595 E16.35722
G1 X125.31 Y122.482 E16.38386
G1 X124.665 Y123.374 E16.4127
G1 X123.973 Y124.127 E16.43948
G1 X123.165 Y124.832 E16.46757
G1 X122.29 Y125.43 E16.49533
G1 X121.392 Y125.908 E16.52197
G1 X120.359 Y126.314 E16.55105
G1 X119.347 Y126.581 E16.57846
G1 X118.303 Y126.732 E16.60609
G1 X117.264 Y126.765 E16.63332
G1 X116.198 Y126.677 E16.66133
