;FLAVOR:Marlin
;TIME:22343
;Filament used: 23.032m
;Layer height: 0.15
;MINX:17.872
;MINY:54.227
;MINZ:0.15
;MAXX:217.128
;MAXY:180.773
;MAXZ:4.05
;TARGET_MACHINE.NAME:ELEGOO NEPTUNE 3 Pro
;Generated with Cura_SteamEngine 5.6.0
M140 S70
M105
M190 S70
M104 S215
M105
M109 S215
M82 ;absolute extrusion mode
;ELEGOO NEPTUNE 3 Pro
M220 S100 ;Set the feed speed to 100%
M221 S100 ;Set the flow rate to 100%
G90
G28 ;home
;M420 S1 Z10;Uncomment to enable progressive compensation height of 10mm
G92 E0 ;Reset Extruder
G1 Z0.45 F300
G1 X1.5 Y20 F5000.0 ;Move to start position
G1 Y120.0 F600.0 E15 ;Draw the first line
G1 X0.5 F1000.0 ;Move to side a little
G1 Y20 F600 E30 ;Draw the second line
G92 E0 ;Reset Extruder
G92 E0
G92 E0
G1 F1500 E-1
;LAYER_COUNT:27
;LAYER:0
M107
M204 S500
G0 F6000 X30.846 Y66.121 Z0.15
;TYPE:SKIRT
G1 F1500 E0
G1 F2100 X33.269 Y64.947 E0.09168
G1 X35.712 Y63.676 E0.18545
G1 X38.115 Y62.338 E0.2791
G1 X40.442 Y60.954 E0.37129
G1 X42.776 Y59.476 E0.46535
G1 X45.026 Y57.961 E0.55772
G1 X47.299 Y56.334 E0.6529
G1 X48.551 Y55.397 E0.70614
G1 X48.983 Y55.123 E0.72356
G1 X49.687 Y54.85 E0.74927
G1 X50.63 Y54.605 E0.78245
G1 X51.471 Y54.407 E0.81187
G1 X52.605 Y54.3 E0.85065
G1 X53.663 Y54.234 E0.88675
G1 X54.243 Y54.227 E0.9065
G1 X105.78 Y54.227 E2.66133
G1 X106.729 Y54.248 E2.69366
G1 X107.68 Y54.319 E2.72613
G1 X108.631 Y54.412 E2.75866
G1 X109.888 Y54.718 E2.80271
G1 X110.712 Y54.945 E2.83182
G1 X111.547 Y55.222 E2.86177
G1 X114.146 Y56.043 E2.95458
G1 X116.787 Y56.795 E3.04808
G1 X119.437 Y57.471 E3.1412
G1 X122.152 Y58.079 E3.23594
G1 X124.772 Y58.59 E3.32683
G1 X127.484 Y59.04 E3.42044
G1 X130.214 Y59.415 E3.51427
G1 X132.908 Y59.706 E3.60653
G1 X135.649 Y59.924 E3.70016
G1 X138.397 Y60.065 E3.79385
G1 X141.108 Y60.128 E3.88618
G1 X143.856 Y60.113 E3.97975
G1 X146.569 Y60.022 E4.07218
G1 X149.317 Y59.852 E4.16593
G1 X152.05 Y59.605 E4.25937
G1 X154.745 Y59.285 E4.35178
G1 X157.477 Y58.881 E4.44582
G1 X160.136 Y58.411 E4.53776
G1 X162.841 Y57.853 E4.6318
G1 X165.49 Y57.229 E4.72447
G1 X168.143 Y56.524 E4.81794
G1 X170.775 Y55.744 E4.91141
G1 X173.515 Y54.855 E5.0095
G1 X174.443 Y54.615 E5.04214
G1 X175.372 Y54.399 E5.07461
G1 X176.494 Y54.297 E5.11297
G1 X177.582 Y54.233 E5.15008
G1 X184.092 Y54.227 E5.37175
G1 X185.152 Y54.251 E5.40785
G1 X185.981 Y54.312 E5.43616
G1 X187.039 Y54.414 E5.47235
G1 X188.832 Y54.869 E5.53534
G1 X189.329 Y55.038 E5.55321
G1 X190.99 Y55.759 E5.61487
G1 X191.948 Y56.353 E5.65325
G1 X192.798 Y56.91 E5.68785
G1 X193.418 Y57.443 E5.71569
G1 X194.395 Y58.329 E5.7606
G1 X195.103 Y59.18 E5.79829
G1 X195.753 Y60.004 E5.83403
G1 X196.375 Y61.064 E5.87588
G1 X196.835 Y61.914 E5.90879
G1 X200.408 Y69.491 E6.19403
G1 X201.622 Y71.978 E6.28826
G1 X202.9 Y74.42 E6.38211
G1 X204.237 Y76.806 E6.47524
G1 X205.636 Y79.147 E6.5681
G1 X207.109 Y81.46 E6.66147
G1 X208.636 Y83.713 E6.75415
G1 X210.253 Y85.961 E6.84844
G1 X211.798 Y87.988 E6.93522
G1 X212.602 Y89.015 E6.97963
G1 X212.931 Y89.494 E6.99942
G1 X214.113 Y91.42 E7.07636
G1 X214.585 Y92.213 E7.10779
G1 X214.87 Y92.864 E7.13198
G1 X215.63 Y94.7 E7.19964
G1 X215.905 Y95.389 E7.2249
G1 X216.07 Y95.883 E7.24264
G1 X216.635 Y98.242 E7.32523
G1 X216.835 Y99.125 E7.35606
G1 X216.906 Y99.832 E7.38026
G1 X217.064 Y101.849 E7.44915
G1 X217.124 Y102.946 E7.48655
G1 X217.128 Y131.555 E8.46069
G1 X217.112 Y132.417 E8.49005
G1 X217.071 Y133.07 E8.51233
G1 X216.923 Y134.956 E8.57674
G1 X216.858 Y135.649 E8.60044
G1 X216.782 Y136.146 E8.61756
G1 X216.215 Y138.505 E8.70018
G1 X215.961 Y139.498 E8.73508
G1 X214.961 Y141.915 E8.82414
G1 X214.671 Y142.588 E8.84909
G1 X214.446 Y143.039 E8.86625
G1 X213.188 Y145.091 E8.94821
G1 X212.706 Y145.852 E8.97888
G1 X210.892 Y148.175 E9.07924
G1 X209.269 Y150.378 E9.17241
G1 X207.73 Y152.598 E9.26439
G1 X206.221 Y154.908 E9.35834
G1 X204.793 Y157.239 E9.45142
G1 X203.428 Y159.615 E9.54473
G1 X202.13 Y162.029 E9.63805
G1 X200.429 Y165.464 E9.76857
G1 X197.078 Y172.586 E10.03657
G1 X196.651 Y173.442 E10.06915
G1 X196.227 Y174.193 E10.09851
G1 X195.737 Y175.017 E10.13116
G1 X195.077 Y175.852 E10.1674
G1 X194.389 Y176.676 E10.20395
G1 X193.486 Y177.495 E10.24546
G1 X192.784 Y178.1 E10.27701
G1 X191.869 Y178.697 E10.31421
G1 X190.979 Y179.247 E10.34984
G1 X189.959 Y179.695 E10.38777
G1 X188.963 Y180.106 E10.42446
G1 X187.773 Y180.405 E10.46624
G1 X186.934 Y180.599 E10.49556
G1 X185.741 Y180.707 E10.53635
G1 X184.71 Y180.767 E10.57151
G1 X178.204 Y180.773 E10.79304
G1 X177.13 Y180.749 E10.82962
G1 X176.251 Y180.683 E10.85964
G1 X175.342 Y180.595 E10.89073
G1 X174.165 Y180.316 E10.93192
G1 X173.314 Y180.085 E10.96195
G1 X171.857 Y179.608 E11.01415
G1 X169.171 Y178.779 E11.10986
G1 X166.58 Y178.059 E11.20143
G1 X163.9 Y177.394 E11.29545
G1 X161.194 Y176.804 E11.38975
G1 X158.557 Y176.308 E11.48112
G1 X155.83 Y175.872 E11.57515
G1 X153.139 Y175.521 E11.66756
G1 X150.41 Y175.244 E11.76096
G1 X147.699 Y175.045 E11.85352
G1 X144.951 Y174.92 E11.94718
G1 X142.205 Y174.875 E12.0407
G1 X139.456 Y174.907 E12.13431
G1 X136.743 Y175.015 E12.22676
G1 X134.036 Y175.2 E12.31915
G1 X131.302 Y175.464 E12.41267
G1 X128.568 Y175.808 E12.5065
G1 X125.85 Y176.226 E12.60013
G1 X123.182 Y176.715 E12.69249
G1 X120.504 Y177.286 E12.78573
G1 X117.9 Y177.915 E12.87695
G1 X115.214 Y178.648 E12.97175
G1 X111.867 Y179.677 E13.09098
G1 X110.418 Y180.142 E13.1428
G1 X109.588 Y180.359 E13.17201
G1 X108.621 Y180.591 E13.20587
G1 X107.509 Y180.695 E13.2439
G1 X106.442 Y180.765 E13.28031
G1 X105.796 Y180.773 E13.3023
G1 X54.289 Y180.773 E15.05612
G1 X53.484 Y180.759 E15.08354
G1 X52.44 Y180.686 E15.11917
G1 X51.573 Y180.6 E15.14884
G1 X51.07 Y180.51 E15.16624
G1 X50.586 Y180.343 E15.18367
G1 X49.973 Y179.992 E15.20772
G1 X49.189 Y179.422 E15.24073
G1 X48.422 Y178.847 E15.27337
G1 X46.186 Y177.271 E15.36651
G1 X43.891 Y175.747 E15.46032
G1 X41.591 Y174.313 E15.55261
G1 X39.229 Y172.931 E15.64579
G1 X36.81 Y171.605 E15.73972
G1 X34.387 Y170.365 E15.8324
G1 X31.933 Y169.195 E15.92497
G1 X29.394 Y168.074 E16.01948
G1 X26.88 Y167.045 E16.11197
G1 X24.313 Y166.079 E16.20536
G1 X22.881 Y165.574 E16.25706
G1 X22.413 Y165.367 E16.27449
G1 X21.984 Y165.09 E16.29188
G1 X21.483 Y164.616 E16.31536
G1 X20.956 Y164 E16.34296
G1 X20.398 Y163.312 E16.37313
G1 X19.734 Y162.258 E16.41554
G1 X19.329 Y161.565 E16.44287
G1 X18.669 Y160.031 E16.49974
G1 X18.494 Y159.489 E16.51913
G1 X18.125 Y158.047 E16.56981
G1 X18.038 Y157.498 E16.58874
G1 X17.935 Y156.452 E16.62453
G1 X17.881 Y155.584 E16.65414
G1 X17.872 Y155.053 E16.67222
G1 X17.873 Y80.1 E19.22438
G1 X17.902 Y78.974 E19.26273
G1 X18.02 Y77.539 E19.31176
G1 X18.308 Y76.206 E19.35819
G1 X18.478 Y75.526 E19.38206
G1 X19.082 Y73.956 E19.43934
G1 X19.332 Y73.455 E19.4584
G1 X20.071 Y72.168 E19.50894
G1 X20.399 Y71.705 E19.52826
G1 X21.113 Y70.815 E19.56711
G1 X21.49 Y70.377 E19.58679
G1 X21.853 Y70.017 E19.60419
G1 X22.268 Y69.717 E19.62163
G1 X22.802 Y69.455 E19.64188
G1 X25.81 Y68.305 E19.75154
G1 X28.323 Y67.258 E19.84423
G1 X30.846 Y66.121 E19.93846
G1 F1500 E18.93846
;MESH:chasis wro final.stl
G0 F6000 X30.846 Y71.837
G0 X30.846 Y72.932
G0 X24.453 Y73.537
G0 X23.835 Y74.272
G0 X23.129 Y75.445
G0 X22.608 Y76.728
G0 X22.055 Y79.505
G0 X21.964 Y79.505
;TYPE:WALL-INNER
G1 F1500 E19.93846
G1 F2100 X21.965 Y155.495 E22.52593
G1 X22.077 Y156.954 E22.57575
G1 X22.405 Y158.338 E22.62418
G1 X22.938 Y159.651 E22.67243
G1 X23.661 Y160.852 E22.72017
G1 X24.351 Y161.679 E22.75684
G1 X51.974 Y161.68 E23.6974
G1 X52.292 Y161.802 E23.709
G1 X52.434 Y161.914 E23.71516
G1 X52.606 Y162.162 E23.72544
G1 X52.676 Y162.454 E23.73566
G1 X52.678 Y176.6 E24.21733
G1 X53.662 Y176.681 E24.25095
G1 X106.41 Y176.681 E26.04702
G1 X107.943 Y176.553 E26.0994
G1 X109.427 Y176.176 E26.15154
G1 X110.811 Y175.567 E26.20302
G1 X112.109 Y174.715 E26.25589
G1 X138.416 Y154.167 E27.39251
G1 X140.656 Y152.696 E27.48376
G1 X143.171 Y151.575 E27.57752
G1 X145.815 Y150.88 E27.6706
G1 X148.56 Y150.624 E27.76448
G1 X151.311 Y150.826 E27.8584
G1 X153.966 Y151.463 E27.95137
G1 X156.477 Y152.516 E28.04408
G1 X158.805 Y153.975 E28.13763
G1 X160.849 Y155.775 E28.23037
G1 X162.592 Y157.911 E28.32424
G1 X163.946 Y160.275 E28.41701
G1 X169.167 Y171.368 E28.83447
G1 X169.926 Y172.692 E28.88643
G1 X170.859 Y173.842 E28.93686
G1 X171.972 Y174.83 E28.98753
G1 X173.211 Y175.615 E29.03747
G1 X174.586 Y176.204 E29.08841
G1 X176.024 Y176.559 E29.13884
G1 X177.517 Y176.681 E29.18985
G1 X184.779 Y176.681 E29.43712
G1 X186.273 Y176.56 E29.48816
G1 X187.711 Y176.204 E29.5386
G1 X189.087 Y175.616 E29.58955
G1 X190.325 Y174.83 E29.63948
G1 X191.437 Y173.842 E29.69013
G1 X192.371 Y172.691 E29.7406
G1 X193.13 Y171.368 E29.79254
G1 X201.665 Y153.238 E30.47485
G1 X203.421 Y150.216 E30.59386
G1 X205.747 Y147.446 E30.71702
G1 X207.404 Y145.791 E30.79677
G1 X209.366 Y143.495 E30.8996
G1 X210.945 Y140.914 E31.00263
G1 X212.095 Y138.143 E31.10478
G1 X212.798 Y135.213 E31.20738
G1 X213.036 Y132.196 E31.31043
G1 X213.036 Y102.804 E32.31123
G1 X212.798 Y99.787 E32.41428
G1 X212.095 Y96.857 E32.51688
G1 X210.946 Y94.086 E32.61902
G1 X209.366 Y91.505 E32.72206
G1 X207.404 Y89.209 E32.8249
G1 X205.699 Y87.501 E32.90707
G1 X203.426 Y84.796 E33.02738
G1 X201.632 Y81.699 E33.14924
G1 X193.131 Y63.632 E33.82912
G1 X192.371 Y62.309 E33.88108
G1 X191.437 Y61.159 E33.93152
G1 X190.325 Y60.17 E33.98219
G1 X189.087 Y59.385 E34.03211
G1 X187.711 Y58.796 E34.08307
G1 X186.273 Y58.441 E34.13351
G1 X184.779 Y58.32 E34.18454
G1 X177.517 Y58.32 E34.43182
G1 X176.024 Y58.441 E34.48282
G1 X174.586 Y58.796 E34.53325
G1 X173.211 Y59.384 E34.58417
G1 X171.972 Y60.17 E34.63413
G1 X170.859 Y61.159 E34.68483
G1 X169.926 Y62.308 E34.73523
G1 X169.166 Y63.632 E34.78721
G1 X163.916 Y74.782 E35.20685
G1 X162.593 Y77.083 E35.29723
G1 X160.842 Y79.228 E35.39151
G1 X158.805 Y81.025 E35.484
G1 X156.477 Y82.484 E35.57755
G1 X153.982 Y83.531 E35.66968
G1 X151.314 Y84.173 E35.76312
G1 X148.56 Y84.376 E35.85715
G1 X145.827 Y84.119 E35.95062
G1 X143.207 Y83.437 E36.0428
G1 X140.696 Y82.326 E36.1363
G1 X138.377 Y80.805 E36.23073
G1 X112.108 Y60.284 E37.36576
G1 X110.811 Y59.433 E37.41858
G1 X109.427 Y58.824 E37.47007
G1 X107.943 Y58.447 E37.5222
G1 X106.41 Y58.32 E37.57458
G1 X53.662 Y58.319 E39.37065
G1 X52.155 Y58.442 E39.42214
G1 X51.321 Y58.65 E39.45141
G1 X51.32 Y72.546 E39.92456
G1 X51.261 Y72.812 E39.93384
G1 X51.082 Y73.082 E39.94487
G1 X50.77 Y73.277 E39.9574
G1 X50.571 Y73.319 E39.96433
G1 X24.351 Y73.321 E40.85712
G1 X23.661 Y74.148 E40.89379
G1 X22.938 Y75.349 E40.94152
G1 X22.405 Y76.662 E40.98978
G1 X22.077 Y78.046 E41.03821
G1 X21.964 Y79.505 E41.08803
G1 F1500 E40.08803
G0 F6000 X22.055 Y79.505
G0 X22.216 Y87.617
G0 X29.37 Y86.994
G0 X30.009 Y87.617
G0 X30.077 Y87.559
G1 F1500 E41.08803
G1 F2100 X29.765 Y87.187 E41.10457
G1 X29.513 Y86.757 E41.12154
G1 X29.337 Y86.292 E41.13847
G1 X29.257 Y85.919 E41.15146
G1 X29.229 Y85.417 E41.16858
G1 X29.279 Y84.961 E41.18419
G1 X29.411 Y84.485 E41.20101
G1 X29.654 Y83.968 E41.22047
G1 X29.994 Y83.532 E41.23929
G1 X30.358 Y83.192 E41.25625
G1 X30.787 Y82.918 E41.27358
G1 X31.24 Y82.727 E41.29032
G1 X31.645 Y82.624 E41.30455
G1 X32.145 Y82.58 E41.32164
G1 X32.576 Y82.615 E41.33637
G1 X33.178 Y82.772 E41.35755
G1 X33.622 Y82.984 E41.37431
G1 X33.954 Y83.207 E41.38792
G1 X34.333 Y83.567 E41.40572
G1 X34.619 Y83.948 E41.42194
G1 X34.842 Y84.381 E41.43853
G1 X34.99 Y84.847 E41.45518
G1 X35.058 Y85.322 E41.47151
G1 X35.034 Y85.912 E41.49162
G1 X34.924 Y86.392 E41.50839
G1 X34.74 Y86.839 E41.52485
G1 X34.521 Y87.196 E41.53911
G1 X34.2 Y87.574 E41.55599
G1 X33.812 Y87.896 E41.57316
G1 X33.391 Y88.14 E41.58973
G1 X32.864 Y88.329 E41.6088
G1 X32.374 Y88.41 E41.62571
G1 X31.903 Y88.409 E41.64174
G1 X31.413 Y88.326 E41.65867
G1 X30.947 Y88.163 E41.67548
G1 X30.455 Y87.879 E41.69482
G1 X30.077 Y87.559 E41.71168
G1 F1500 E40.71168
G0 F6000 X30.009 Y87.617
G0 X30.93 Y88.191
G0 X31.902 Y88.441
G0 X32.888 Y88.357
G0 X34.718 Y87.32
G0 X39.277 Y87.069
G0 X39.771 Y87.355
G1 F1500 E41.71168
G1 F2100 X39.521 Y87.02 E41.72592
G1 X39.264 Y86.516 E41.74518
G1 X39.125 Y86.022 E41.76265
G1 X39.083 Y85.675 E41.77456
G1 X39.095 Y85.188 E41.79114
G1 X39.19 Y84.713 E41.80764
G1 X39.364 Y84.257 E41.82426
G1 X39.616 Y83.842 E41.84079
G1 X39.975 Y83.434 E41.85929
G1 X40.297 Y83.178 E41.8733
G1 X40.67 Y82.963 E41.88796
G1 X41.116 Y82.793 E41.90421
G1 X41.584 Y82.699 E41.92046
G1 X42.065 Y82.688 E41.93685
G1 X42.54 Y82.757 E41.95319
G1 X42.993 Y82.906 E41.96943
G1 X43.406 Y83.122 E41.9853
G1 X43.794 Y83.418 E42.00191
G1 X44.158 Y83.817 E42.0203
G1 X44.412 Y84.228 E42.03676
G1 X44.567 Y84.605 E42.05064
G1 X44.684 Y85.095 E42.06779
G1 X44.713 Y85.576 E42.0842
G1 X44.661 Y86.044 E42.10023
G1 X44.502 Y86.575 E42.1191
G1 X44.307 Y86.963 E42.13389
G1 X44.038 Y87.331 E42.14941
G1 X43.674 Y87.688 E42.16677
G1 X43.291 Y87.95 E42.18257
G1 X42.813 Y88.166 E42.20043
G1 X42.386 Y88.276 E42.21545
G1 X41.939 Y88.318 E42.23073
G1 X41.382 Y88.272 E42.24976
G1 X40.999 Y88.173 E42.26323
G1 X40.548 Y87.977 E42.27998
G1 X40.094 Y87.669 E42.29866
G1 X39.771 Y87.355 E42.314
G1 F1500 E41.314
G0 F6000 X39.698 Y87.408
G0 X40.851 Y88.369
G0 X40.599 Y146.738
G0 X39.538 Y147.793
G0 X39.616 Y147.842
G1 F1500 E42.314
G1 F2100 X39.975 Y147.434 E42.3325
G1 X40.319 Y147.163 E42.34741
G1 X40.762 Y146.919 E42.36463
G1 X41.168 Y146.776 E42.37929
G1 X41.691 Y146.688 E42.39735
G1 X42.18 Y146.695 E42.414
G1 X42.589 Y146.767 E42.42814
G1 X43.054 Y146.93 E42.44492
G1 X43.451 Y147.149 E42.46036
G1 X43.832 Y147.45 E42.47689
G1 X44.174 Y147.838 E42.4945
G1 X44.404 Y148.213 E42.50948
G1 X44.597 Y148.693 E42.5271
G1 X44.692 Y149.149 E42.54296
G1 X44.713 Y149.579 E42.55762
G1 X44.646 Y150.116 E42.57604
G1 X44.523 Y150.521 E42.59046
G1 X44.26 Y151.033 E42.61006
G1 X43.97 Y151.405 E42.62612
G1 X43.611 Y151.735 E42.64272
G1 X43.214 Y151.99 E42.65879
G1 X42.769 Y152.179 E42.67525
G1 X42.373 Y152.278 E42.68915
G1 X41.966 Y152.317 E42.70307
G1 X41.347 Y152.263 E42.72423
G1 X40.897 Y152.135 E42.74016
G1 X40.457 Y151.924 E42.75677
G1 X40.094 Y151.669 E42.77188
G1 X39.771 Y151.355 E42.78722
G1 X39.521 Y151.02 E42.80145
G1 X39.264 Y150.516 E42.82071
G1 X39.125 Y150.022 E42.83819
G1 X39.083 Y149.675 E42.85009
G1 X39.095 Y149.188 E42.86668
G1 X39.19 Y148.713 E42.88317
G1 X39.364 Y148.257 E42.89979
G1 X39.616 Y147.842 E42.91632
G1 F1500 E41.91632
G0 F6000 X39.538 Y147.793
G0 X38.964 Y148.659
G0 X35.214 Y148.783
G0 X34.363 Y147.551
G0 X33.577 Y146.92
G0 X32.643 Y146.59
G0 X31.646 Y146.59
G0 X30.792 Y146.883
G0 X29.834 Y147.578
G0 X29.904 Y147.631
G1 F1500 E42.91632
G1 F2100 X30.357 Y147.194 E42.93775
G1 X30.722 Y146.949 E42.95272
G1 X31.114 Y146.771 E42.96738
G1 X31.648 Y146.623 E42.98625
G1 X32.149 Y146.58 E43.00337
G1 X32.669 Y146.628 E43.02115
G1 X33.09 Y146.738 E43.03597
G1 X33.534 Y146.933 E43.05248
G1 X33.969 Y147.219 E43.07021
G1 X34.333 Y147.567 E43.08735
G1 X34.619 Y147.948 E43.10357
G1 X34.842 Y148.381 E43.12016
G1 X34.99 Y148.847 E43.13681
G1 X35.058 Y149.322 E43.15315
G1 X35.034 Y149.912 E43.17325
G1 X34.924 Y150.392 E43.19002
G1 X34.74 Y150.839 E43.20648
G1 X34.521 Y151.196 E43.22074
G1 X34.2 Y151.574 E43.23763
G1 X33.814 Y151.895 E43.25472
G1 X33.408 Y152.131 E43.27071
G1 X32.947 Y152.305 E43.28749
G1 X32.464 Y152.4 E43.30425
G1 X31.826 Y152.4 E43.32597
G1 X31.343 Y152.305 E43.34273
G1 X30.882 Y152.13 E43.35952
G1 X30.501 Y151.913 E43.37445
G1 X30.148 Y151.631 E43.38984
G1 X29.846 Y151.296 E43.4052
G1 X29.575 Y150.88 E43.4221
G1 X29.379 Y150.427 E43.43891
G1 X29.257 Y149.919 E43.4567
