;FLAVOR:Marlin
;TIME:2685
;Filament used: 1.58989m
;Layer height: 0.15
;MINX:101.694
;MINY:101.138
;MINZ:0.15
;MAXX:134.836
;MAXY:133.863
;MAXZ:25.95
;TARGET_MACHINE.NAME:ELEGOO NEPTUNE 3 Pro
;Generated with Cura_SteamEngine 5.6.0
M140 S70
M105
M190 S70
M104 S215
M105
M109 S215
M82 ;absolute extrusion mode
;ELEGOO NEPTUNE 3 Pro
M220 S100 ;Set the feed speed to 100%
M221 S100 ;Set the flow rate to 100%
G90
G28 ;home
;M420 S1 Z10;Uncomment to enable progressive compensation height of 10mm
G92 E0 ;Reset Extruder
G1 Z0.45 F300
G1 X1.5 Y20 F5000.0 ;Move to start position
G1 Y120.0 F600.0 E15 ;Draw the first line
G1 X0.5 F1000.0 ;Move to side a little
G1 Y20 F600 E30 ;Draw the second line
G92 E0 ;Reset Extruder
G92 E0
G92 E0
G1 F1500 E-1
;LAYER_COUNT:173
;LAYER:0
M107
M204 S500
G0 F6000 X103.255 Y109.539 Z0.15
;TYPE:SKIRT
G1 F1500 E0
G1 F2100 X103.864 Y109.077 E0.02603
G1 X104.507 Y108.727 E0.05096
G1 X107.142 Y107.502 E0.1499
G1 X109.535 Y106.307 E0.24098
G1 X111.95 Y105.013 E0.33427
G1 X114.284 Y103.677 E0.42584
G1 X116.109 Y102.568 E0.49855
G1 X117.34 Y101.805 E0.54787
G1 X118.026 Y101.463 E0.57397
G1 X118.615 Y101.267 E0.59511
G1 X119.516 Y101.154 E0.62602
G1 X120.45 Y101.138 E0.65783
G1 X124.678 Y101.14 E0.8018
G1 X125.465 Y101.155 E0.8286
G1 X125.974 Y101.203 E0.84601
G1 X126.722 Y101.38 E0.87218
G1 X127.435 Y101.694 E0.89871
G1 X127.947 Y101.992 E0.91888
G1 X128.48 Y102.418 E0.94211
G1 X128.96 Y102.931 E0.96603
G1 X129.472 Y103.791 E1.00011
G1 X130.539 Y106.127 E1.08756
G1 X131.747 Y108.599 E1.18124
G1 X133.008 Y111.005 E1.27374
G1 X133.392 Y111.714 E1.30119
G1 X133.866 Y112.708 E1.33869
G1 X134.259 Y113.776 E1.37744
G1 X134.573 Y114.959 E1.41911
G1 X134.764 Y116.154 E1.46032
G1 X134.836 Y117.297 E1.49932
G1 X134.793 Y118.544 E1.5418
G1 X134.657 Y119.593 E1.57782
G1 X134.377 Y120.836 E1.62121
G1 X133.991 Y121.99 E1.66264
G1 X133.544 Y122.995 E1.70009
G1 X132.196 Y125.507 E1.79716
G1 X130.973 Y127.952 E1.89025
G1 X129.775 Y130.531 E1.98708
G1 X129.45 Y131.254 E2.01407
G1 X129.16 Y131.775 E2.03437
G1 X128.693 Y132.374 E2.06023
G1 X128.261 Y132.778 E2.08037
G1 X127.694 Y133.179 E2.10402
G1 X127.001 Y133.502 E2.13005
G1 X126.293 Y133.741 E2.1555
G1 X125.471 Y133.845 E2.18371
G1 X124.593 Y133.863 E2.21361
G1 X120.326 Y133.862 E2.3589
G1 X119.503 Y133.847 E2.38693
G1 X118.994 Y133.799 E2.40434
G1 X118.234 Y133.619 E2.43093
G1 X117.492 Y133.273 E2.45881
G1 X116.689 Y132.792 E2.49068
G1 X115.366 Y131.962 E2.54386
G1 X113.049 Y130.597 E2.63543
G1 X110.647 Y129.272 E2.72884
G1 X108.272 Y128.048 E2.81981
G1 X105.86 Y126.893 E2.91087
G1 X104.78 Y126.405 E2.95123
G1 X104.095 Y126.053 E2.97745
G1 X103.527 Y125.687 E3.00046
G1 X103.065 Y125.29 E3.0212
G1 X102.433 Y124.5 E3.05565
G1 X102.031 Y123.705 E3.08598
G1 X101.823 Y123.061 E3.10902
G1 X101.705 Y122.391 E3.13219
G1 X101.694 Y120.565 E3.19437
G1 X101.718 Y118.895 E3.25123
G1 X101.719 Y116.217 E3.34242
G1 X101.694 Y114.28 E3.40838
G1 X101.706 Y112.893 E3.45561
G1 X101.78 Y112.174 E3.48022
G1 X101.925 Y111.584 E3.50091
G1 X102.319 Y110.706 E3.53368
G1 X102.811 Y109.999 E3.56301
G1 X103.255 Y109.539 E3.58478
G0 F6000 X103.648 Y109.918
G1 F2100 X104.125 Y109.557 E3.60514
G1 X104.768 Y109.207 E3.63007
G1 X107.372 Y107.997 E3.72784
G1 X109.793 Y106.788 E3.81999
G1 X112.22 Y105.488 E3.91373
G1 X114.568 Y104.144 E4.00585
G1 X116.393 Y103.035 E4.07857
G1 X117.628 Y102.269 E4.12805
G1 X118.198 Y101.981 E4.1498
G1 X118.734 Y101.803 E4.16903
G1 X119.584 Y101.696 E4.1982
G1 X120.45 Y101.684 E4.22769
G1 X124.668 Y101.686 E4.37131
G1 X125.414 Y101.699 E4.39672
G1 X125.923 Y101.747 E4.41413
G1 X126.544 Y101.899 E4.4359
G1 X127.165 Y102.169 E4.45895
G1 X127.61 Y102.422 E4.47638
G1 X128.081 Y102.791 E4.49676
G1 X128.522 Y103.262 E4.51873
G1 X128.975 Y104.018 E4.54874
G1 X130.048 Y106.367 E4.63667
G1 X131.256 Y108.839 E4.73035
G1 X132.528 Y111.266 E4.82366
G1 X132.899 Y111.949 E4.85012
G1 X133.373 Y112.943 E4.88762
G1 X133.732 Y113.917 E4.92296
G1 X134.034 Y115.046 E4.96276
G1 X134.219 Y116.19 E5.00222
G1 X134.29 Y117.279 E5.03938
G1 X134.251 Y118.475 E5.08012
G1 X134.124 Y119.474 E5.11441
G1 X133.859 Y120.664 E5.15592
G1 X133.492 Y121.769 E5.19557
G1 X133.063 Y122.737 E5.23162
G1 X131.715 Y125.249 E5.32869
G1 X130.485 Y127.708 E5.42231
G1 X129.28 Y130.301 E5.51967
G1 X128.973 Y130.988 E5.54529
G1 X128.683 Y131.509 E5.5656
G1 X128.316 Y131.979 E5.5859
G1 X127.946 Y132.332 E5.60331
G1 X127.42 Y132.704 E5.62525
G1 X126.77 Y133.007 E5.64967
G1 X126.172 Y133.206 E5.67113
G1 X125.403 Y133.303 E5.69752
G1 X124.593 Y133.317 E5.72511
G1 X120.335 Y133.316 E5.87009
G1 X119.554 Y133.303 E5.89669
G1 X119.045 Y133.255 E5.9141
G1 X118.418 Y133.102 E5.93607
G1 X117.723 Y132.778 E5.96218
G1 X116.979 Y132.329 E5.99177
G1 X115.656 Y131.499 E6.04495
G1 X113.313 Y130.119 E6.13754
G1 X110.911 Y128.794 E6.23095
G1 X108.508 Y127.556 E6.32299
G1 X106.085 Y126.395 E6.41448
G1 X105.005 Y125.907 E6.45483
G1 X104.387 Y125.592 E6.47845
G1 X103.883 Y125.273 E6.49876
G1 X103.458 Y124.908 E6.51783
G1 X102.894 Y124.203 E6.54858
G1 X102.549 Y123.533 E6.57424
G1 X102.361 Y122.967 E6.59454
G1 X102.251 Y122.341 E6.61619
G1 X102.24 Y120.573 E6.67639
G1 X102.264 Y118.903 E6.73326
G1 X102.265 Y116.217 E6.82472
G1 X102.24 Y114.285 E6.89051
G1 X102.252 Y112.898 E6.93773
G1 X102.31 Y112.305 E6.95802
G1 X102.444 Y111.761 E6.9771
G1 X102.795 Y110.977 E7.00635
G1 X103.234 Y110.347 E7.03249
G1 X103.648 Y109.918 E7.05279
G0 F6000 X103.982 Y110.35
G1 F2100 X104.386 Y110.037 E7.0702
G1 X105.029 Y109.687 E7.09512
G1 X107.602 Y108.492 E7.19172
G1 X110.051 Y107.269 E7.28493
G1 X112.49 Y105.963 E7.37914
G1 X114.839 Y104.618 E7.4713
G1 X116.676 Y103.502 E7.54449
G1 X117.916 Y102.733 E7.59417
G1 X118.37 Y102.499 E7.61156
G1 X118.856 Y102.338 E7.629
G1 X119.592 Y102.242 E7.65427
G1 X120.45 Y102.23 E7.68349
G1 X124.659 Y102.232 E7.8268
G1 X125.363 Y102.243 E7.85078
G1 X125.872 Y102.291 E7.86819
G1 X126.368 Y102.418 E7.88562
G1 X126.895 Y102.644 E7.90515
G1 X127.34 Y102.897 E7.92258
G1 X127.739 Y103.217 E7.93999
G1 X128.084 Y103.594 E7.95739
G1 X128.478 Y104.245 E7.9833
G1 X129.557 Y106.607 E8.07172
G1 X130.765 Y109.079 E8.16541
G1 X132.044 Y111.519 E8.25921
G1 X132.407 Y112.185 E8.28504
G1 X132.861 Y113.132 E8.3208
G1 X133.22 Y114.106 E8.35614
G1 X133.495 Y115.134 E8.39238
G1 X133.674 Y116.227 E8.43009
G1 X133.744 Y117.262 E8.46541
G1 X133.709 Y118.406 E8.50438
G1 X133.582 Y119.405 E8.53867
G1 X133.34 Y120.493 E8.57663
G1 X132.992 Y121.549 E8.61448
G1 X132.582 Y122.479 E8.64909
G1 X131.234 Y124.991 E8.74616
G1 X129.997 Y127.464 E8.84032
G1 X128.785 Y130.071 E8.93821
G1 X128.493 Y130.728 E8.96269
G1 X128.249 Y131.178 E8.98012
G1 X127.939 Y131.584 E8.99751
G1 X127.569 Y131.937 E9.01492
G1 X127.148 Y132.228 E9.03235
G1 X126.539 Y132.512 E9.05523
G1 X126.053 Y132.67 E9.07263
G1 X125.334 Y132.761 E9.09731
G1 X124.593 Y132.771 E9.12254
G1 X120.343 Y132.77 E9.26726
G1 X119.605 Y132.759 E9.29239
G1 X119.096 Y132.711 E9.3098
G1 X118.601 Y132.585 E9.32719
G1 X117.954 Y132.283 E9.3515
G1 X117.269 Y131.866 E9.37881
G1 X115.946 Y131.036 E9.43199
G1 X113.577 Y129.641 E9.5256
G1 X111.175 Y128.316 E9.619
G1 X108.744 Y127.064 E9.71211
G1 X106.31 Y125.897 E9.80402
G1 X105.23 Y125.409 E9.84438
G1 X104.674 Y125.128 E9.86559
G1 X104.239 Y124.859 E9.88301
G1 X103.851 Y124.526 E9.90042
G1 X103.354 Y123.905 E9.9275
G1 X103.065 Y123.356 E9.94862
G1 X102.899 Y122.873 E9.96601
G1 X102.797 Y122.291 E9.98613
G1 X102.786 Y120.581 E10.04436
G1 X102.81 Y118.911 E10.10123
G1 X102.811 Y116.217 E10.19296
G1 X102.786 Y114.289 E10.25861
G1 X102.796 Y112.945 E10.30438
G1 X102.84 Y112.435 E10.32181
G1 X102.962 Y111.939 E10.3392
G1 X103.271 Y111.249 E10.36494
G1 X103.631 Y110.722 E10.38668
G1 X103.982 Y110.35 E10.40409
G1 F1500 E9.40409
;MESH:Hub_front.STL
G0 F6000 X106.594 Y112.316
G0 X107.297 Y113.201
G0 X107.782 Y114.357
G0 X107.776 Y114.357
;TYPE:WALL-INNER
G1 F1500 E10.40409
G1 F1585.9 X113.896 Y114.359 E10.68003
G1 F1797.2 X114.472 Y114.709 E10.70685
G1 F2100 X114.771 Y114.969 E10.72034
G1 X115.161 Y115.489 E10.74247
G1 F2096.2 X115.355 Y116.099 E10.76431
G1 F2088.5 X115.384 Y116.379 E10.77395
G1 X115.673 Y115.22 E10.81484
G1 F2096.2 X116.125 Y114.158 E10.85421
G1 F2100 X116.742 Y113.187 E10.89339
G1 X116.79 Y113.127 E10.896
G1 F1834.6 X117.088 Y112.672 E10.9172
G1 X116.591 Y112.89 E10.93835
G1 F2100 X116.42 Y112.987 E10.94505
G1 X115.863 Y113.233 E10.96578
G1 X115.259 Y113.419 E10.9873
G1 X114.756 Y113.513 E11.00473
G1 F2022.2 X114.35 Y113.564 E11.01919
G1 F1719 X114.05 Y113.657 E11.03226
G1 F1568.5 X113.663 Y113.643 E11.04991
G1 F1601.4 X107.775 Y113.642 E11.31282
G1 X107.776 Y114.357 E11.34475
G1 F1500 E10.34475
G0 F6000 X107.782 Y114.357
G0 X113.796 Y114.414
G0 X114.866 Y115.014
G0 X115.372 Y116.005
G0 X115.415 Y118.646
G0 X115.189 Y119.516
G0 X114.398 Y120.397
G0 X107.775 Y120.649
G0 X107.776 Y120.642
G1 F1500 E11.34475
G1 F1601.4 X107.776 Y121.358 E11.37672
G1 F1590.3 X113.883 Y121.353 E11.65131
G1 F1802.8 X114.341 Y121.455 E11.66992
G1 F2100 X114.755 Y121.487 E11.68406
G1 X115.356 Y121.605 E11.70492
G1 X115.953 Y121.802 E11.72632
G1 X116.466 Y122.036 E11.74552
G1 X116.591 Y122.11 E11.75047
G1 F1831.6 X117.088 Y122.33 E11.77168
G1 X116.79 Y121.873 E11.79298
G1 F2100 X116.712 Y121.77 E11.79738
G1 X116.123 Y120.84 E11.83487
G1 F2084.7 X115.673 Y119.78 E11.87436
G1 F2054.8 X115.389 Y118.641 E11.91521
G1 F2062.2 X115.357 Y118.902 E11.92433
G1 F2092.3 X115.196 Y119.407 E11.94244
G1 F2100 X114.907 Y119.877 E11.96123
G1 X114.388 Y120.348 E11.9851
G1 F1811.4 X113.809 Y120.64 E12.01069
G1 F1596.9 X107.776 Y120.642 E12.28083
G1 F1500 E11.28083
G0 F6000 X107.775 Y120.649
G0 X113.791 Y120.585
G0 X114.867 Y119.987
G0 X115.402 Y118.848
G0 X115.389 Y118.641
G1 F1500 E12.28083
G1 F2096.2 X115.313 Y117.455 E12.32137
G1 F2107.7 X115.387 Y116.405 E12.35708
G0 F6000 X115.401 Y116.155
G0 X115.645 Y115.212
G0 X116.014 Y114.344
G0 X117.08 Y112.664
G0 X117.088 Y112.672
G1 F1729.4 X117.464 Y112.311 E12.37863
G1 F1766.7 X117.924 Y111.892 E12.40382
G1 F1876.6 X118.448 Y111.557 E12.42751
G1 F2100 X119.414 Y110.996 E12.46555
G1 X120.504 Y110.588 E12.50518
G1 X121.628 Y110.356 E12.54426
G1 X122.8 Y110.31 E12.5842
G1 X123.944 Y110.448 E12.62343
G1 X125.061 Y110.773 E12.66304
G1 X126.12 Y111.283 E12.70307
G1 X127.019 Y111.901 E12.74021
G1 X126.453 Y110.888 E12.77972
G1 X126.063 Y110.062 E12.81083
G1 X125.743 Y109.263 E12.84013
G1 X124.706 Y106.422 E12.94311
G1 X120.292 Y106.424 E13.09341
G1 X119.252 Y109.275 E13.19674
G1 X118.942 Y110.05 E13.22517
G1 X118.613 Y110.755 E13.25166
G1 X118.276 Y111.331 E13.27438
G1 X118.187 Y111.449 E13.27941
G1 F1876.6 X117.924 Y111.892 E13.29904
G1 F1500 E12.29904
G0 F6000 X117.908 Y111.871
G0 X116.722 Y113.158
G0 X116.1 Y114.141
G0 X115.645 Y115.212
G0 X115.367 Y116.341
G0 X115.272 Y117.5
G0 X115.367 Y118.659
G0 X115.645 Y119.788
G0 X116.014 Y120.656
G0 X117.08 Y122.336
G0 X117.088 Y122.33
G1 F1500 E13.29904
G1 F1719 X117.438 Y122.665 E13.31919
G1 F1753.2 X117.965 Y123.144 E13.34824
G1 F1870.5 X118.577 Y124.177 E13.39414
G1 F2100 X118.959 Y124.987 E13.42463
G1 X119.26 Y125.747 E13.45247
G1 X120.293 Y128.578 E13.55508
G1 X124.706 Y128.575 E13.70534
G1 X125.76 Y125.69 E13.80993
G1 X126.083 Y124.893 E13.83921
G1 X126.453 Y124.112 E13.86864
G1 X127.019 Y123.099 E13.90815
G1 X126.12 Y123.717 E13.94529
G1 X125.055 Y124.23 E13.98555
G1 X123.945 Y124.552 E14.0249
G1 X122.792 Y124.691 E14.06444
G1 X121.626 Y124.644 E14.10418
G1 X120.481 Y124.405 E14.14401
G1 X119.411 Y124.003 E14.18293
G1 X118.448 Y123.443 E14.22086
G1 F1870.5 X117.965 Y123.144 E14.24257
G1 F1500 E13.24257
G0 F6000 X117.949 Y123.162
G0 X116.722 Y121.842
G0 X116.1 Y120.859
G0 X115.645 Y119.788
G0 X115.367 Y118.659
G0 X115.272 Y117.5
G0 X115.367 Y116.341
G0 X115.851 Y117.477
;TYPE:WALL-OUTER
G1 F1500 E14.24257
G1 F1380 X115.943 Y116.407 E14.27914
G1 X116.2 Y115.378 E14.31525
G1 X116.623 Y114.391 E14.35182
G1 X117.184 Y113.509 E14.38741
G1 X117.908 Y112.693 E14.42456
G1 X118.744 Y112.016 E14.46118
G1 X119.669 Y111.484 E14.49752
G1 X120.654 Y111.113 E14.53336
G1 X121.717 Y110.899 E14.57028
G1 X122.79 Y110.859 E14.60684
G1 X123.853 Y110.991 E14.64331
G1 X124.879 Y111.292 E14.67972
G1 X125.841 Y111.753 E14.71604
G1 X126.694 Y112.341 E14.75132
G1 X127.147 Y112.771 E14.77259
G1 F1205.6 X127.515 Y113.014 E14.78978
G1 F1077.9 X128.167 Y113.888 E14.83731
G1 F1088.8 X128.651 Y114.779 E14.88107
G1 F1092 X129.034 Y115.887 E14.93151
G1 F1090.4 X129.195 Y116.932 E14.97708
G1 F1088.8 X129.221 Y117.5 E15.00161
G1 F1090.4 X129.198 Y118.068 E15.02611
G1 F1093.6 X129.034 Y119.114 E15.0716
G1 F1095.2 X128.649 Y120.228 E15.12217
G1 F1092 X128.167 Y121.112 E15.1655
G1 F1079.5 X127.515 Y121.986 E15.21296
G1 F1205.6 X127.148 Y122.228 E15.2301
G1 F1380 X126.694 Y122.659 E15.25141
G1 X125.83 Y123.254 E15.28714
G1 X124.837 Y123.724 E15.32454
G1 X123.81 Y124.018 E15.36092
G1 X122.79 Y124.141 E15.3959
G1 X121.673 Y124.096 E15.43396
G1 X120.647 Y123.885 E15.46963
G1 X119.629 Y123.497 E15.50673
G1 X118.736 Y122.979 E15.54188
G1 X117.877 Y122.276 E15.57967
G1 X117.174 Y121.477 E15.61591
G1 X116.602 Y120.57 E15.65242
G1 X116.186 Y119.581 E15.68896
G1 X115.938 Y118.565 E15.72457
G1 X115.851 Y117.477 E15.76173
G0 F6000 X115.868 Y117.278
G1 F1500 E14.76173
G0 F6000 X115.401 Y116.155
G0 X115.415 Y118.646
G0 X115.189 Y119.516
G0 X114.398 Y120.397
G0 X107.752 Y120.619
G0 X107.145 Y120.076
G1 F1500 E15.76173
G1 F1380 X107.146 Y121.924 E15.82466
G1 X107.522 Y121.989 E15.83765
G1 F1382.5 X114.109 Y121.989 E16.06153
G1 X114.655 Y122.024 E16.08012
G1 F1380 X115.19 Y122.126 E16.09867
G1 X115.697 Y122.287 E16.11678
G1 X116.21 Y122.518 E16.13594
G1 X116.696 Y122.819 E16.1554
G1 X117.125 Y123.166 E16.17419
G1 X117.5 Y123.548 E16.19242
G1 X117.843 Y124.005 E16.21187
G1 X118.118 Y124.476 E16.23044
G1 X118.451 Y125.189 E16.25724
G1 X118.747 Y125.934 E16.28453
G1 X119.911 Y129.125 E16.40019
G1 X125.089 Y129.121 E16.5765
G1 X126.267 Y125.894 E16.69347
G1 X126.577 Y125.127 E16.72164
G1 X126.956 Y124.329 E16.75172
G1 X127.382 Y123.571 E16.78133
G1 X127.852 Y122.844 E16.81081
G1 F1205.6 X128.044 Y122.448 E16.82796
G1 F1077.9 X128.714 Y121.54 E16.87715
G1 F1081 X129.078 Y120.907 E16.90889
G1 F1079.5 X129.374 Y120.271 E16.93943
G1 F1081 X129.611 Y119.587 E16.97089
G1 F1077.9 X129.774 Y118.912 E17.00116
G1 F1081 X129.878 Y118.218 E17.03167
G1 F1087.3 X129.914 Y117.5 E17.06273
G1 F1085.7 X129.875 Y116.759 E17.09485
G1 F1077.9 X129.771 Y116.073 E17.12509
G1 F1076.4 X129.606 Y115.397 E17.15547
G1 F1079.5 X129.374 Y114.729 E17.18625
G1 F1077.9 X129.076 Y114.089 E17.21703
G1 F1079.5 X128.702 Y113.441 E17.24959
G1 F1076.4 X128.043 Y112.551 E17.29794
G1 F1205.6 X127.851 Y112.155 E17.31509
G1 F1380 X127.373 Y111.415 E17.34509
G1 X126.947 Y110.654 E17.37478
G1 X126.57 Y109.858 E17.40477
G1 X126.256 Y109.075 E17.4335
G1 X125.082 Y105.875 E17.54956
G1 X119.91 Y105.879 E17.72567
G1 X118.744 Y109.073 E17.84144
G1 X118.447 Y109.819 E17.86878
G1 X118.106 Y110.547 E17.89616
G1 X117.843 Y110.995 E17.91385
G1 X117.488 Y111.464 E17.93387
G1 X117.123 Y111.835 E17.9516
G1 X116.696 Y112.182 E17.97033
G1 X116.21 Y112.482 E17.98978
G1 X115.697 Y112.713 E18.00893
G1 X115.158 Y112.882 E18.02817
G1 X114.656 Y112.976 E18.04556
G1 F1382.5 X114.092 Y113.01 E18.06476
G1 X107.522 Y113.012 E18.28806
G1 F1380 X107.145 Y113.076 E18.30108
G1 X107.146 Y114.925 E18.36404
G1 X107.519 Y114.988 E18.37692
G1 X113.709 Y114.99 E18.58769
G1 X114.113 Y115.124 E18.60218
G1 X114.455 Y115.43 E18.61781
G1 X114.681 Y115.779 E18.63197
G1 X114.812 Y116.165 E18.64585
