;FLAVOR:Marlin
;TIME:1223
;Filament used: 0.669974m
;Layer height: 0.2
;MINX:104.419
;MINY:106.521
;MINZ:0.2
;MAXX:130.58
;MAXY:128.578
;MAXZ:18.2
;TARGET_MACHINE.NAME:ELEGOO NEPTUNE 3 Pro
;Generated with Cura_SteamEngine 5.7.2
M140 S105
M105
M190 S105
M104 S250
M105
M109 S250
M82 ;absolute extrusion mode
;ELEGOO NEPTUNE 3 Pro
M220 S100 ;Set the feed speed to 100%
M221 S100 ;Set the flow rate to 100%
G90
G28 ;home
;M420 S1 Z10;Uncomment to enable progressive compensation height of 10mm
G92 E0 ;Reset Extruder
G1 Z0.45 F300
G1 X1.5 Y20 F5000.0 ;Move to start position
G1 Y120.0 F600.0 E15 ;Draw the first line
G1 X0.5 F1000.0 ;Move to side a little
G1 Y20 F600 E30 ;Draw the second line
G92 E0 ;Reset Extruder
G92 E0
G92 E0
G1 F1200 E-1
;LAYER_COUNT:91
;LAYER:0
M106 S38.2
M204 S500
G0 F6000 X105.675 Y107.845 Z0.2
;TYPE:SKIRT
G1 F1200 E0
G1 F600 X106.187 Y107.397 E0.03089
G1 X106.801 Y107.01 E0.06384
G1 X107.474 Y106.728 E0.09697
G1 X108.206 Y106.571 E0.13095
G1 X108.702 Y106.526 E0.15357
G1 X124.465 Y106.521 E0.86921
G1 X125.222 Y106.535 E0.90358
G1 X125.876 Y106.597 E0.93341
G1 X126.877 Y106.882 E0.98066
G1 X127.49 Y107.129 E1.01066
G1 X128.276 Y107.611 E1.05252
G1 X128.961 Y108.2 E1.09354
G1 X129.603 Y109.011 E1.1405
G1 X129.99 Y109.654 E1.17457
G1 X130.28 Y110.355 E1.20901
G1 X130.561 Y111.488 E1.26201
G1 X130.58 Y112.679 E1.31608
G1 X130.58 Y122.453 E1.75982
G1 X130.562 Y123.275 E1.79715
G1 X130.445 Y124.198 E1.83939
G1 X130.181 Y125 E1.87772
G1 X129.815 Y125.742 E1.91529
G1 X129.286 Y126.549 E1.95909
G1 X128.371 Y127.423 E2.01654
G1 X127.577 Y127.931 E2.05934
G1 X126.659 Y128.316 E2.10453
G1 X125.585 Y128.561 E2.15454
G1 X124.441 Y128.578 E2.20649
G1 X109.427 Y128.578 E2.88812
G1 X108.644 Y128.564 E2.92368
G1 X108.057 Y128.503 E2.95047
G1 X107.393 Y128.342 E2.98149
G1 X106.842 Y128.105 E3.00872
G1 X106.119 Y127.651 E3.04748
G1 X105.734 Y127.314 E3.07071
G1 X105.292 Y126.805 E3.10131
G1 X104.907 Y126.192 E3.13418
G1 X104.625 Y125.519 E3.16731
G1 X104.468 Y124.785 E3.20138
G1 X104.424 Y124.284 E3.22422
G1 X104.419 Y111.506 E3.80434
G1 X104.432 Y110.751 E3.83862
G1 X104.492 Y110.163 E3.86546
G1 X104.653 Y109.5 E3.89643
G1 X104.89 Y108.946 E3.92379
G1 X105.239 Y108.367 E3.95448
G1 X105.675 Y107.845 E3.98536
G0 F6000 X106.091 Y108.199
G1 F600 X106.543 Y107.811 E4.0124
G1 X107.051 Y107.498 E4.03949
G1 X107.641 Y107.251 E4.06853
G1 X108.255 Y107.115 E4.09708
G1 X108.751 Y107.07 E4.11969
G1 X124.456 Y107.067 E4.8327
G1 X125.171 Y107.079 E4.86517
G1 X125.777 Y107.136 E4.8928
G1 X126.727 Y107.407 E4.93765
G1 X127.241 Y107.617 E4.96286
G1 X127.954 Y108.054 E5.00083
G1 X128.565 Y108.58 E5.03743
G1 X129.175 Y109.35 E5.08203
G1 X129.485 Y109.863 E5.10924
G1 X129.775 Y110.564 E5.14368
G1 X130.016 Y111.56 E5.1902
G1 X130.034 Y112.688 E5.24142
G1 X130.034 Y122.443 E5.6843
G1 X130.02 Y123.207 E5.71899
G1 X129.91 Y124.078 E5.75885
G1 X129.69 Y124.761 E5.79143
G1 X129.358 Y125.443 E5.82586
G1 X128.863 Y126.198 E5.86685
G1 X128.032 Y126.992 E5.91903
G1 X127.325 Y127.444 E5.95713
G1 X126.488 Y127.795 E5.99833
G1 X125.521 Y128.016 E6.04337
G1 X124.433 Y128.032 E6.09277
G1 X109.436 Y128.032 E6.77363
G1 X108.695 Y128.02 E6.80728
G1 X108.186 Y127.972 E6.83049
G1 X107.565 Y127.821 E6.8595
G1 X107.057 Y127.603 E6.8846
G1 X106.479 Y127.24 E6.91559
G1 X106.094 Y126.903 E6.93882
G1 X105.707 Y126.45 E6.96587
G1 X105.395 Y125.942 E6.99293
G1 X105.148 Y125.352 E7.02197
G1 X105.012 Y124.737 E7.05057
G1 X104.968 Y124.236 E7.0734
G1 X104.965 Y111.514 E7.65098
G1 X104.976 Y110.801 E7.68335
G1 X105.023 Y110.292 E7.70656
G1 X105.174 Y109.671 E7.73558
G1 X105.392 Y109.161 E7.76076
G1 X105.704 Y108.653 E7.78782
G1 X106.091 Y108.199 E7.81491
G0 F6000 X106.502 Y108.558
G1 F600 X106.894 Y108.229 E7.83814
G1 X107.332 Y107.966 E7.86134
G1 X107.806 Y107.774 E7.88455
G1 X108.304 Y107.659 E7.90776
G1 X108.8 Y107.614 E7.93037
G1 X124.447 Y107.613 E8.64074
G1 X125.162 Y107.625 E8.67321
G1 X125.671 Y107.674 E8.69642
G1 X126.521 Y107.913 E8.73651
G1 X126.994 Y108.106 E8.7597
G1 X127.629 Y108.495 E8.79351
G1 X128.173 Y108.964 E8.82612
G1 X128.711 Y109.637 E8.86524
G1 X128.98 Y110.072 E8.88846
G1 X129.27 Y110.773 E8.9229
G1 X129.471 Y111.627 E8.96273
G1 X129.488 Y112.697 E9.01132
G1 X129.488 Y122.435 E9.45342
G1 X129.478 Y123.138 E9.48534
G1 X129.374 Y123.96 E9.52296
G1 X129.17 Y124.594 E9.55319
G1 X128.901 Y125.144 E9.58099
G1 X128.44 Y125.847 E9.61916
G1 X127.693 Y126.561 E9.66607
G1 X127.068 Y126.96 E9.69974
G1 X126.322 Y127.273 E9.73646
G1 X125.457 Y127.471 E9.77675
G1 X124.425 Y127.486 E9.82361
G1 X109.444 Y127.486 E10.50375
G1 X108.746 Y127.476 E10.53544
G1 X108.237 Y127.428 E10.55865
G1 X107.741 Y127.302 E10.58189
G1 X107.272 Y127.101 E10.60505
G1 X106.839 Y126.829 E10.62827
G1 X106.454 Y126.492 E10.6515
G1 X106.126 Y126.1 E10.6747
G1 X105.863 Y125.661 E10.69793
G1 X105.671 Y125.187 E10.72115
G1 X105.556 Y124.689 E10.74436
G1 X105.512 Y124.188 E10.76719
G1 X105.511 Y111.521 E11.34227
G1 X105.52 Y110.851 E11.37269
G1 X105.567 Y110.342 E11.3959
G1 X105.693 Y109.846 E11.41913
G1 X105.894 Y109.376 E11.44234
G1 X106.166 Y108.943 E11.46556
G1 X106.502 Y108.558 E11.48876
G1 F1200 E10.48876
;MESH:pixy basis.stl
G0 F6000 X109.208 Y110.221
G0 X109.208 Y111.31
G0 X109.603 Y111.796
G0 X109.603 Y111.703
;TYPE:WALL-INNER
G1 F1200 E11.48876
G1 F600 X109.603 Y123.393 E12.01948
G1 F592.4 X122.685 Y123.386 E12.62102
G1 F600 X123.272 Y123.4 E12.64768
G1 F535.3 X124.115 Y123.366 E12.69061
G1 F455.6 X125.066 Y123.239 E12.74797
G1 F423.8 X125.189 Y123.151 E12.75769
G1 F409.5 X125.266 Y122.985 E12.76987
G1 X125.266 Y121.855 E12.84503
G1 X124.918 Y122.306 E12.88293
G1 X124.646 Y122.533 E12.90649
G1 F470.7 X124.041 Y122.772 E12.94414
G1 F582.9 X123.272 Y122.868 E12.98035
G1 F600 X122.716 Y122.826 E13.00567
G1 F592.4 X122.054 Y122.563 E13.03842
G1 F600 X121.51 Y122.131 E13.06996
G1 X121.245 Y121.796 E13.08935
G1 X120.982 Y121.198 E13.11901
G1 X120.927 Y120.962 E13.13001
G1 X120.899 Y120.313 E13.15951
G1 X120.981 Y119.92 E13.17773
G1 X121.199 Y119.368 E13.20468
G1 X121.662 Y118.811 E13.23756
G1 X122.255 Y118.423 E13.26973
G1 X122.977 Y118.246 E13.30348
G1 X123.533 Y118.262 E13.32874
G1 X123.932 Y118.349 E13.34728
G1 X124.603 Y118.681 E13.38126
G1 X124.961 Y119.039 E13.40425
G1 X125.221 Y119.407 E13.42471
G1 X125.393 Y119.819 E13.44498
G1 X125.393 Y115.275 E13.65127
G1 X125.226 Y115.679 E13.67112
G1 X124.834 Y116.199 E13.70069
G1 X124.524 Y116.447 E13.71871
G1 X124.004 Y116.735 E13.7457
G1 X123.309 Y116.87 E13.77784
G1 X122.707 Y116.806 E13.80532
G1 X122.486 Y116.746 E13.81572
G1 X121.94 Y116.498 E13.84295
G1 X121.462 Y116.073 E13.87198
G1 X121.163 Y115.642 E13.8958
G1 X120.948 Y115.081 E13.92308
G1 X120.881 Y114.391 E13.95455
G1 X120.981 Y113.908 E13.97694
G1 X121.279 Y113.259 E14.00936
G1 X121.76 Y112.733 E14.04172
G1 X122.372 Y112.381 E14.07378
G1 X122.887 Y112.245 E14.09796
G1 F595.6 X123.627 Y112.25 E14.1318
G1 F545.1 X124.126 Y112.361 E14.15735
G1 F453.7 X124.646 Y112.559 E14.19075
G1 F410.5 X124.928 Y112.799 E14.21532
G1 X125.267 Y113.243 E14.25239
G1 X125.267 Y112.136 E14.32584
G1 X125.226 Y112.01 E14.33464
G1 F431.1 X125.079 Y111.856 E14.34809
G1 F478.9 X124.278 Y111.753 E14.39402
G1 F548.7 X123.533 Y111.703 E14.43109
G1 F600 X109.603 Y111.703 E15.06351
G0 F6000 X109.057 Y111.157
;TYPE:WALL-OUTER
G1 F600 X109.057 Y123.939 E15.64382
G1 X125.068 Y123.939 E16.37072
G1 X125.398 Y123.829 E16.38651
G1 X125.743 Y123.546 E16.40677
G1 X125.894 Y123.252 E16.42177
G1 X125.939 Y123.063 E16.43059
G1 X125.939 Y121.472 E16.50282
G1 F500.2 X125.83 Y120.916 E16.53368
G1 F429.9 X125.832 Y120.316 E16.5717
G1 F426 X125.823 Y120.078 E16.58693
G1 F494.9 X125.939 Y119.62 E16.61293
G1 F600 X125.939 Y115.46 E16.8018
G1 F500.2 X125.83 Y114.904 E16.83266
G1 F429.9 X125.832 Y114.304 E16.87067
G1 F426 X125.823 Y114.066 E16.8859
G1 F494.9 X125.939 Y113.608 E16.91191
G1 F600 X125.939 Y112.031 E16.98351
G1 X125.833 Y111.702 E16.9992
G1 X125.647 Y111.447 E17.01353
G1 X125.409 Y111.271 E17.02697
G1 X125.057 Y111.157 E17.04376
G1 X109.057 Y111.157 E17.77017
G0 F6000 X109.057 Y111.357
G1 F1200 E16.77017
G0 F6000 X109.664 Y111.766
G0 X123.072 Y111.919
G0 X121.406 Y112.769
G0 X120.813 Y114.294
G0 X121.438 Y114.388
G1 F1200 E17.77017
G1 F600 X121.489 Y114.108 E17.78309
G1 X121.701 Y113.606 E17.80783
G1 X122.058 Y113.191 E17.83268
G1 X122.516 Y112.908 E17.85712
G1 X122.981 Y112.783 E17.87898
G1 X123.541 Y112.796 E17.90441
G1 X123.845 Y112.887 E17.91882
G1 X124.272 Y113.117 E17.94084
G1 X124.476 Y113.297 E17.95319
G1 X124.775 Y113.71 E17.97634
G1 F497.1 X125.072 Y114.2 E18.00774
G1 F426.6 X125.07 Y114.838 E18.04848
G1 F443.9 X125.031 Y114.878 E18.05191
G1 F520.8 X124.78 Y115.365 E18.08056
G1 F600 X124.473 Y115.789 E18.10433
G1 X124.258 Y115.971 E18.11712
G1 X123.795 Y116.22 E18.14098
G1 X123.262 Y116.317 E18.16558
G1 X122.7 Y116.244 E18.19131
G1 X122.22 Y116.017 E18.21542
G1 X121.855 Y115.694 E18.23754
G1 X121.668 Y115.433 E18.25212
G1 X121.478 Y114.95 E18.27568
G1 X121.438 Y114.388 E18.30126
G0 F6000 X121.473 Y114.192
G1 F1200 E17.30126
G0 F6000 X120.843 Y114.097
G0 X120.998 Y115.8
G0 X122.4 Y116.941
G0 X124.082 Y116.935
G0 X125.108 Y116.221
G0 X125.174 Y118.845
G0 X123.668 Y118.052
G0 X122.073 Y118.284
G0 X121.055 Y119.426
G0 X120.813 Y120.306
G0 X121.438 Y120.4
G1 F1200 E18.30126
G1 F600 X121.489 Y120.12 E18.31418
G1 X121.668 Y119.667 E18.3363
G1 X122.011 Y119.242 E18.36109
G1 X122.474 Y118.931 E18.38642
G1 X123.011 Y118.791 E18.41161
G1 X123.568 Y118.816 E18.43692
G1 X123.832 Y118.892 E18.4494
G1 X124.304 Y119.153 E18.47388
G1 X124.515 Y119.354 E18.48711
G1 X124.775 Y119.722 E18.50757
G1 F497.1 X125.072 Y120.212 E18.53897
G1 F426.6 X125.07 Y120.85 E18.57971
G1 F443.9 X125.031 Y120.89 E18.58314
G1 F520.8 X124.78 Y121.377 E18.61179
G1 F600 X124.473 Y121.801 E18.63556
G1 X124.258 Y121.983 E18.64835
G1 X123.858 Y122.207 E18.66916
G1 X123.32 Y122.325 E18.69417
G1 X122.777 Y122.276 E18.71892
G1 X122.243 Y122.05 E18.74524
G1 X121.829 Y121.675 E18.7706
G1 X121.658 Y121.421 E18.78451
G1 X121.471 Y120.918 E18.80887
G1 X121.438 Y120.4 E18.83243
G0 F6000 X121.473 Y120.204
G1 F1200 E17.83243
G0 F6000 X120.843 Y120.109
G0 X120.785 Y121.278
G0 X121.968 Y122.757
G0 X122.743 Y123.073
G0 X109.827 Y123.17
G0 X109.827 Y111.927
G0 X110.125 Y112.225
;TYPE:SKIN
G1 F1200 E18.83243
G1 F600 X121.577 Y112.226 E19.35236
G1 X121.195 Y112.539 E19.37478
G1 X120.873 Y112.921 E19.39746
G1 X120.676 Y113.254 E19.41502
G1 X120.49 Y113.715 E19.43759
G1 X120.381 Y114.197 E19.46003
G1 X120.368 Y114.553 E19.4762
G1 X120.443 Y115.254 E19.50821
G1 X120.729 Y115.957 E19.54267
G1 X121.059 Y116.41 E19.56811
G1 X121.649 Y116.944 E19.60424
G1 X122.311 Y117.24 E19.63716
G1 F604.4 X122.604 Y117.316 E19.6508
G1 F667.2 X123.354 Y117.344 E19.68144
G1 F694.1 X123.775 Y117.29 E19.6981
G1 F559 X124.277 Y117.262 E19.7226
G1 F483.9 X124.799 Y116.974 E19.75616
G1 F480.4 X124.799 Y118.116 E19.82092
G1 X124.313 Y117.859 E19.8521
G1 F495.6 X124.264 Y117.862 E19.8548
G1 F574.7 X123.747 Y117.773 E19.87966
G1 F675.5 X122.906 Y117.767 E19.91358
G1 F644.9 X122.226 Y117.886 E19.94274
G1 F600 X121.931 Y118.009 E19.95725
G1 X121.308 Y118.413 E19.99096
G1 X120.874 Y118.932 E20.02167
G1 X120.68 Y119.244 E20.03835
G1 X120.49 Y119.727 E20.06192
G1 X120.373 Y120.248 E20.08616
G1 X120.41 Y121.047 E20.12247
G1 X120.498 Y121.399 E20.13895
G1 X120.804 Y122.088 E20.17317
G1 X121.163 Y122.526 E20.19888
G1 X121.549 Y122.86 E20.22206
G1 X110.125 Y122.866 E20.74071
G1 X110.125 Y112.225 E21.22381
G1 F1200 E20.22381
G0 F6000 X110.125 Y111.855
G0 X109.827 Y123.17
G0 X111.01 Y123.242
G0 X111.01 Y122.593
G1 F1200 E21.22381
G1 F600 X110.398 Y121.98 E21.26314
G0 F6000 X110.398 Y121.208
G1 F600 X111.782 Y122.593 E21.35203
G0 F6000 X112.554 Y122.592
G1 F600 X110.398 Y120.436 E21.49046
G0 F6000 X110.398 Y119.664
G1 F600 X113.326 Y122.592 E21.67845
G0 F6000 X114.098 Y122.592
G1 F600 X110.398 Y118.892 E21.91601
G0 F6000 X110.398 Y118.119
G1 F600 X114.869 Y122.591 E22.2031
G0 F6000 X115.642 Y122.591
G1 F600 X110.398 Y117.347 E22.5398
G0 F6000 X110.398 Y116.575
G1 F600 X116.414 Y122.591 E22.92606
G0 F6000 X117.185 Y122.59
G1 F600 X110.398 Y115.803 E23.36182
G0 F6000 X110.398 Y115.031
G1 F600 X117.957 Y122.59 E23.84715
G0 F6000 X118.73 Y122.59
G1 F600 X110.398 Y114.259 E24.38208
G0 F6000 X110.398 Y113.486
G1 F600 X119.501 Y122.59 E24.96657
G0 F6000 X120.273 Y122.59
G1 F600 X110.398 Y112.714 E25.60063
G0 F6000 X110.954 Y112.498
G1 F600 X120.475 Y122.02 E26.21196
G1 X120.549 Y122.094
G0 F6000 X121.106 Y121.845
G0 X120.773 Y120.875
G0 X120.125 Y120.898
G1 F600 X111.726 Y112.498 E26.75126
G0 F6000 X112.498 Y112.498
G1 F600 X120.132 Y120.132 E27.2414
G0 F6000 X120.286 Y119.514
G1 F600 X113.27 Y112.498 E27.69187
G0 F6000 X114.042 Y112.498
G1 F600 X120.526 Y118.982 E28.10817
G0 F6000 X120.852 Y118.535
G1 F600 X114.814 Y112.498 E28.49581
G0 F6000 X115.587 Y112.498
G1 F600 X121.228 Y118.139 E28.858
G0 F6000 X121.693 Y117.832
G1 F600 X116.359 Y112.498 E29.20047
G0 F6000 X117.131 Y112.498
G1 F600 X120.327 Y115.694 E29.40567
G0 F6000 X120.926 Y115.455
G0 X120.753 Y114.638
G0 X120.111 Y114.705
G1 F600 X117.903 Y112.498 E29.5474
G0 F6000 X118.675 Y112.498
G1 F600 X120.151 Y113.974 E29.64217
G0 F6000 X120.331 Y113.382
G1 F600 X119.447 Y112.498 E29.69893
G0 F6000 X120.219 Y112.498
G1 F600 X120.586 Y112.865 E29.72249
G0 F6000 X121.144 Y113.193
G0 X120.857 Y114.404
G0 X120.91 Y115.081
G0 X121.166 Y115.723
G0 X122.331 Y116.843
G0 X122.064 Y117.431
G1 F600 X122.24 Y117.607 E29.73379
G1 F1200 E28.73379
;MESH:NONMESH
G0 F600 X122.24 Y117.607 Z0.4
G0 F6000 X122.388 Y118.234
G0 X125.108 Y118.873
G0 X125.174 Y116.249
G0 X121.823 Y116.68
G0 X120.785 Y113.827
G0 X123.072 Y112.015
G0 X109.208 Y111.31
G0 X109.208 Y110.221
G0 X106.502 Y108.558
;TIME_ELAPSED:76.332200
;LAYER:1
M106 S46.8
;TYPE:SKIRT
G1 F1200 E29.73379
G1 F600 X106.894 Y108.229 E29.75166
G1 X107.332 Y107.966 E29.7695
G1 X107.806 Y107.774 E29.78736
G1 X108.304 Y107.659 E29.80521
G1 X108.8 Y107.614 E29.82261
G1 X124.447 Y107.613 E30.36905
G1 X125.162 Y107.625 E30.39402
G1 X125.671 Y107.674 E30.41188
G1 X126.521 Y107.913 E30.44272
G1 X126.994 Y108.106 E30.46056
G1 X127.629 Y108.495 E30.48656
G1 X128.173 Y108.964 E30.51165
G1 X128.711 Y109.637 E30.54174
G1 X128.98 Y110.072 E30.5596
G1 X129.27 Y110.773 E30.58609
G1 X129.471 Y111.627 E30.61673
G1 X129.488 Y112.697 E30.6541
G1 X129.488 Y122.435 E30.99419
G1 X129.478 Y123.138 E31.01874
G1 X129.374 Y123.96 E31.04768
G1 X129.17 Y124.594 E31.07093
G1 X128.901 Y125.144 E31.09232
G1 X128.44 Y125.847 E31.12168
G1 X127.693 Y126.561 E31.15776
G1 X127.068 Y126.96 E31.18366
G1 X126.322 Y127.273 E31.21191
G1 X125.457 Y127.471 E31.2429
G1 X124.425 Y127.486 E31.27895
G1 X109.444 Y127.486 E31.80213
G1 X108.746 Y127.476 E31.82651
G1 X108.237 Y127.428 E31.84436
G1 X107.741 Y127.302 E31.86224
G1 X107.272 Y127.101 E31.88006
G1 X106.839 Y126.829 E31.89791
G1 X106.454 Y126.492 E31.91578
G1 X106.126 Y126.1 E31.93363
G1 X105.863 Y125.661 E31.9515
G1 X105.671 Y125.187 E31.96936
G1 X105.556 Y124.689 E31.98721
G1 X105.512 Y124.188 E32.00478
G1 X105.511 Y111.521 E32.44715
G1 X105.52 Y110.851 E32.47055
G1 X105.567 Y110.342 E32.4884
G1 X105.693 Y109.846 E32.50627
G1 X105.894 Y109.376 E32.52412
G1 X106.166 Y108.943 E32.54198
G1 X106.502 Y108.558 E32.55983
M204 S625
G1 F1200 E31.55983
;MESH:pixy basis.stl
G0 F6300 X109.208 Y110.221
G0 X109.208 Y111.31
G0 X109.664 Y111.766
G0 X109.414 Y111.514
;TYPE:WALL-INNER
G1 F1200 E32.55983
G1 F1575 X109.414 Y123.582 E32.98128
G1 X125.002 Y123.582 E33.52566
