;FLAVOR:Marlin
;TIME:13762
;Filament used: 18.7339m
;Layer height: 0.2
;MINX:48.704
;MINY:59.117
;MINZ:0.2
;MAXX:186.292
;MAXY:175.883
;MAXZ:36
;TARGET_MACHINE.NAME:ELEGOO NEPTUNE 3 Pro
;Generated with Cura_SteamEngine 5.7.2
M140 S105
M105
M190 S105
M104 S250
M105
M109 S250
M82 ;absolute extrusion mode
;ELEGOO NEPTUNE 3 Pro
M220 S100 ;Set the feed speed to 100%
M221 S100 ;Set the flow rate to 100%
G90
G28 ;home
;M420 S1 Z10;Uncomment to enable progressive compensation height of 10mm
G92 E0 ;Reset Extruder
G1 Z0.45 F300
G1 X1.5 Y20 F5000.0 ;Move to start position
G1 Y120.0 F600.0 E15 ;Draw the first line
G1 X0.5 F1000.0 ;Move to side a little
G1 Y20 F600 E30 ;Draw the second line
G92 E0 ;Reset Extruder
G92 E0
G92 E0
G1 F1200 E-1
;LAYER_COUNT:180
;LAYER:0
M106 S38.2
M204 S500
G0 F6000 X63.613 Y62.674 Z0.2
;TYPE:SKIRT
G1 F1200 E0
G1 F600 X64.546 Y61.911 E0.05472
G1 X65.16 Y61.439 E0.08988
G1 X66.193 Y60.824 E0.14446
G1 X66.872 Y60.447 E0.17972
G1 X67.982 Y59.993 E0.23417
G1 X68.705 Y59.723 E0.2692
G1 X69.868 Y59.44 E0.32355
G1 X70.628 Y59.279 E0.35881
G1 X71.853 Y59.168 E0.41466
G1 X72.913 Y59.118 E0.46284
G1 X162.318 Y59.117 E4.52183
G1 X163.109 Y59.128 E4.55775
G1 X164.543 Y59.195 E4.62292
G1 X165.426 Y59.253 E4.66309
G1 X166.964 Y59.484 E4.7337
G1 X167.881 Y59.645 E4.77597
G1 X169.391 Y60.04 E4.84683
G1 X170.07 Y60.232 E4.87887
G1 X170.843 Y60.505 E4.91609
G1 X172.324 Y61.086 E4.98831
G1 X172.801 Y61.303 E5.0121
G1 X173.905 Y61.862 E5.06828
G1 X174.653 Y62.257 E5.10669
G1 X175.989 Y63.113 E5.17872
G1 X176.675 Y63.572 E5.2162
G1 X177.933 Y64.575 E5.28924
G1 X178.603 Y65.135 E5.32889
G1 X179.69 Y66.208 E5.39823
G1 X180.404 Y66.951 E5.44501
G1 X181.286 Y68.034 E5.50842
G1 X181.842 Y68.74 E5.54922
G1 X182.698 Y70.04 E5.61989
G1 X183.092 Y70.666 E5.65347
G1 X183.35 Y71.124 E5.67733
G1 X183.885 Y72.169 E5.73063
G1 X184.274 Y72.955 E5.77045
G1 X184.841 Y74.403 E5.84105
G1 X185.15 Y75.243 E5.88168
G1 X185.568 Y76.768 E5.95347
G1 X185.789 Y77.669 E5.99559
G1 X185.888 Y78.214 E6.02074
G1 X186.136 Y79.841 E6.09546
G1 X186.2 Y80.583 E6.12927
G1 X186.254 Y81.608 E6.17587
G1 X186.284 Y82.41 E6.21231
G1 X186.292 Y151.908 E9.36752
G1 X186.281 Y152.716 E9.40421
G1 X186.211 Y154.196 E9.47147
G1 X186.14 Y155.177 E9.51613
G1 X185.911 Y156.637 E9.58322
G1 X185.774 Y157.422 E9.6194
G1 X185.372 Y158.967 E9.69188
G1 X185.142 Y159.78 E9.73024
G1 X184.567 Y161.309 E9.8044
G1 X184.318 Y161.93 E9.83478
G1 X183.952 Y162.701 E9.87352
G1 X183.161 Y164.228 E9.9516
G1 X182.283 Y165.6 E10.02555
G1 X181.835 Y166.271 E10.06218
G1 X180.873 Y167.475 E10.13215
G1 X180.178 Y168.299 E10.18109
G1 X179.148 Y169.332 E10.24731
G1 X178.57 Y169.892 E10.28385
G1 X177.33 Y170.911 E10.35672
G1 X176.667 Y171.433 E10.39503
G1 X175.374 Y172.285 E10.46533
G1 X174.737 Y172.686 E10.4995
G1 X174.093 Y173.04 E10.53287
G1 X172.474 Y173.853 E10.61512
G1 X171.849 Y174.107 E10.64574
G1 X170.15 Y174.746 E10.72815
G1 X168.663 Y175.154 E10.79816
G1 X167.651 Y175.403 E10.84547
G1 X166.213 Y175.633 E10.91159
G1 X165.545 Y175.729 E10.94223
G1 X165.043 Y175.776 E10.96512
G1 X163.78 Y175.844 E11.02254
G1 X162.957 Y175.876 E11.05993
G1 X162.376 Y175.883 E11.08631
G1 X73.315 Y175.883 E15.12969
G1 X72.452 Y175.867 E15.16888
G1 X71.635 Y175.816 E15.20604
G1 X70.734 Y175.737 E15.2471
G1 X69.603 Y175.499 E15.29958
G1 X68.811 Y175.307 E15.33657
G1 X67.692 Y174.892 E15.39076
G1 X66.974 Y174.6 E15.42595
G1 X66.028 Y174.08 E15.47496
G1 X65.252 Y173.621 E15.51589
G1 X64.304 Y172.897 E15.57004
G1 X63.697 Y172.403 E15.60558
G1 X62.955 Y171.638 E15.65396
G1 X62.345 Y170.971 E15.695
G1 X61.649 Y169.995 E15.74942
G1 X61.216 Y169.347 E15.7848
G1 X60.678 Y168.293 E15.83853
G1 X60.344 Y167.585 E15.87407
G1 X59.96 Y166.432 E15.92924
G1 X59.658 Y165.384 E15.97876
G1 X49.215 Y121.212 E18.03945
G1 X49.04 Y120.414 E18.07654
G1 X48.914 Y119.744 E18.10749
G1 X48.804 Y119.065 E18.13872
G1 X48.704 Y117.682 E18.20167
G1 X48.744 Y116.754 E18.24384
G1 X48.798 Y115.991 E18.27857
G1 X48.98 Y114.859 E18.33062
G1 X49.225 Y113.744 E18.38245
G1 X59.569 Y69.989 E20.42369
G1 X59.867 Y68.858 E20.47679
G1 X60.294 Y67.537 E20.53982
G1 X60.801 Y66.456 E20.59402
G1 X61.166 Y65.737 E20.63063
G1 X61.812 Y64.767 E20.68354
G1 X62.274 Y64.117 E20.71975
G1 X63.091 Y63.216 E20.77497
G1 X63.613 Y62.674 E20.80913
G1 F1200 E19.80913
G0 F6000 X67.711 Y113.99
G1 F1200 E20.80913
G1 F600 X68.485 Y113.645 E20.8476
G1 X69.31 Y113.47 E20.88589
G1 X70.163 Y113.47 E20.92462
G1 X70.988 Y113.645 E20.9629
G1 X71.766 Y113.992 E21.00158
G1 X72.445 Y114.484 E21.03965
G1 X73.014 Y115.116 E21.07826
G1 X73.435 Y115.848 E21.11659
G1 X73.7 Y116.66 E21.15537
G1 X73.788 Y117.5 E21.19372
G1 X73.7 Y118.339 E21.23202
G1 X73.435 Y119.151 E21.2708
G1 X73.014 Y119.883 E21.30913
G1 X72.445 Y120.515 E21.34774
G1 X71.766 Y121.007 E21.38581
G1 X70.988 Y121.354 E21.42448
G1 X70.163 Y121.529 E21.46277
G1 X69.31 Y121.529 E21.5015
G1 X68.485 Y121.354 E21.53979
G1 X67.711 Y121.009 E21.57826
G1 X67.025 Y120.511 E21.61675
G1 X66.459 Y119.883 E21.65513
G1 X66.038 Y119.151 E21.69347
G1 X65.772 Y118.334 E21.73247
G1 X65.683 Y117.5 E21.77055
G1 X65.772 Y116.665 E21.80868
G1 X66.038 Y115.848 E21.84768
G1 X66.459 Y115.116 E21.88602
G1 X67.025 Y114.488 E21.9244
G1 X67.711 Y113.99 E21.96289
G0 F6000 X67.986 Y114.465
G1 F600 X68.656 Y114.167 E21.99618
G1 X69.366 Y114.016 E22.02914
G1 X70.107 Y114.016 E22.06278
G1 X70.817 Y114.167 E22.09573
G1 X71.491 Y114.468 E22.12925
G1 X72.079 Y114.893 E22.16218
G1 X72.57 Y115.439 E22.19552
G1 X72.934 Y116.071 E22.22863
G1 X73.163 Y116.773 E22.26216
G1 X73.239 Y117.5 E22.29534
G1 X73.163 Y118.226 E22.32848
G1 X72.934 Y118.928 E22.36201
G1 X72.57 Y119.56 E22.39512
G1 X72.079 Y120.106 E22.42845
G1 X71.491 Y120.531 E22.46139
G1 X70.817 Y120.832 E22.49491
G1 X70.107 Y120.983 E22.52786
G1 X69.366 Y120.983 E22.5615
G1 X68.656 Y120.832 E22.59446
G1 X67.986 Y120.534 E22.62775
G1 X67.389 Y120.1 E22.66126
G1 X66.904 Y119.563 E22.69411
G1 X66.539 Y118.928 E22.72736
G1 X66.308 Y118.22 E22.76117
G1 X66.232 Y117.5 E22.79404
G1 X66.308 Y116.779 E22.82696
G1 X66.539 Y116.071 E22.86077
G1 X66.904 Y115.436 E22.89402
G1 X67.389 Y114.899 E22.92687
G1 X67.986 Y114.465 E22.96038
G1 F1200 E21.96038
G0 F6000 X112.092 Y71.813
G1 F1200 E22.96038
G1 F600 X111.522 Y71.181 E22.99902
G1 X111.102 Y70.45 E23.03729
G1 X110.837 Y69.637 E23.07612
G1 X110.749 Y68.799 E23.11437
G1 X110.837 Y67.956 E23.15285
G1 X111.099 Y67.155 E23.19111
G1 X111.522 Y66.42 E23.22961
G1 X112.095 Y65.783 E23.26851
G1 X112.77 Y65.294 E23.30635
G1 X113.552 Y64.945 E23.34523
G1 X114.376 Y64.77 E23.38347
G1 X115.226 Y64.77 E23.42206
G1 X116.05 Y64.945 E23.46031
G1 X116.832 Y65.294 E23.49919
G1 X117.507 Y65.783 E23.53703
G1 X118.08 Y66.42 E23.57593
G1 X118.503 Y67.155 E23.61443
G1 X118.765 Y67.956 E23.65269
G1 X118.853 Y68.799 E23.69117
G1 X118.765 Y69.637 E23.72942
G1 X118.5 Y70.45 E23.76825
G1 X118.08 Y71.181 E23.80652
G1 X117.51 Y71.813 E23.84516
G1 X116.826 Y72.31 E23.88354
G1 X116.053 Y72.654 E23.92196
G1 X115.228 Y72.829 E23.96025
G1 X114.374 Y72.829 E23.99902
G1 X113.549 Y72.654 E24.03731
G1 X112.776 Y72.31 E24.07572
G1 X112.092 Y71.813 E24.1141
G0 F6000 X112.458 Y71.404
G1 F600 X111.966 Y70.858 E24.14747
G1 X111.603 Y70.228 E24.18048
G1 X111.374 Y69.524 E24.21409
G1 X111.298 Y68.799 E24.24719
G1 X111.374 Y68.07 E24.28046
G1 X111.601 Y67.377 E24.31357
G1 X111.966 Y66.743 E24.34678
G1 X112.463 Y66.19 E24.38054
G1 X113.042 Y65.771 E24.41299
G1 X113.722 Y65.467 E24.4468
G1 X114.433 Y65.316 E24.4798
G1 X115.169 Y65.316 E24.51322
G1 X115.88 Y65.467 E24.54622
G1 X116.56 Y65.771 E24.58003
G1 X117.139 Y66.19 E24.61248
G1 X117.636 Y66.743 E24.64624
G1 X118.001 Y67.377 E24.67945
G1 X118.228 Y68.07 E24.71256
G1 X118.304 Y68.799 E24.74583
G1 X118.228 Y69.524 E24.77893
G1 X117.999 Y70.228 E24.81254
G1 X117.636 Y70.858 E24.84555
G1 X117.144 Y71.404 E24.87892
G1 X116.551 Y71.835 E24.9122
G1 X115.882 Y72.133 E24.94545
G1 X115.172 Y72.283 E24.97839
G1 X114.43 Y72.283 E25.01208
G1 X113.72 Y72.133 E25.04503
G1 X113.051 Y71.835 E25.07828
G1 X112.458 Y71.404 E25.11156
G1 F1200 E24.11156
G0 F6000 X114.428 Y161.932
G1 F1200 E25.11156
G1 F600 X115.276 Y161.932 E25.15006
G1 X116.103 Y162.108 E25.18844
G1 X116.88 Y162.454 E25.22706
G1 X117.559 Y162.947 E25.26515
G1 X118.131 Y163.582 E25.30395
G1 X118.554 Y164.317 E25.34246
G1 X118.816 Y165.118 E25.38072
G1 X118.904 Y165.962 E25.41924
G1 X118.816 Y166.801 E25.45754
G1 X118.551 Y167.613 E25.49632
G1 X118.131 Y168.343 E25.53456
G1 X117.559 Y168.978 E25.57336
G1 X116.88 Y169.471 E25.61145
G1 X116.105 Y169.817 E25.64998
G1 X115.277 Y169.992 E25.68841
G1 X114.427 Y169.992 E25.727
G1 X113.6 Y169.817 E25.76537
G1 X112.827 Y169.472 E25.8038
G1 X112.141 Y168.974 E25.84229
G1 X111.575 Y168.346 E25.88067
G1 X111.15 Y167.607 E25.91938
G1 X110.888 Y166.806 E25.95764
G1 X110.8 Y165.962 E25.99616
G1 X110.888 Y165.118 E26.03469
G1 X111.15 Y164.317 E26.07295
G1 X111.575 Y163.579 E26.11161
G1 X112.141 Y162.951 E26.15
G1 X112.827 Y162.453 E26.18848
G1 X113.601 Y162.108 E26.22695
G1 X114.428 Y161.932 E26.26534
G0 F6000 X114.486 Y162.478
G1 F600 X115.218 Y162.478 E26.29857
G1 X115.933 Y162.63 E26.33176
G1 X116.605 Y162.93 E26.36517
G1 X117.195 Y163.358 E26.39826
G1 X117.686 Y163.902 E26.43153
G1 X118.052 Y164.539 E26.46489
G1 X118.279 Y165.232 E26.49799
G1 X118.355 Y165.962 E26.53131
G1 X118.279 Y166.688 E26.56446
G1 X118.05 Y167.39 E26.59798
G1 X117.686 Y168.023 E26.63113
G1 X117.195 Y168.567 E26.6644
G1 X116.605 Y168.996 E26.69752
G1 X115.934 Y169.295 E26.73087
G1 X115.221 Y169.446 E26.76396
G1 X114.483 Y169.446 E26.79746
G1 X113.771 Y169.295 E26.83051
G1 X113.102 Y168.997 E26.86376
G1 X112.505 Y168.563 E26.89726
G1 X112.02 Y168.026 E26.93012
G1 X111.652 Y167.385 E26.96367
G1 X111.425 Y166.692 E26.99678
G1 X111.349 Y165.962 E27.0301
G1 X111.425 Y165.232 E27.06342
G1 X111.651 Y164.541 E27.09643
G1 X112.022 Y163.898 E27.13013
G1 X112.505 Y163.362 E27.16289
G1 X113.102 Y162.928 E27.1964
G1 X113.771 Y162.63 E27.22965
G1 X114.486 Y162.478 E27.26283
G0 F6000 X114.531 Y162.958
;TYPE:SUPPORT
G1 F780 X115.169 Y162.958 E27.284
G1 X115.77 Y163.089 E27.30441
G1 X116.37 Y163.355 E27.32618
G1 X116.862 Y163.714 E27.34639
G1 X117.296 Y164.192 E27.36781
G1 X117.603 Y164.73 E27.38836
G1 X117.805 Y165.341 E27.40971
G1 X117.868 Y165.961 E27.43039
G1 X117.805 Y166.583 E27.45113
G1 X117.603 Y167.194 E27.47248
G1 X117.296 Y167.732 E27.49303
G1 X116.866 Y168.206 E27.51426
G1 X116.362 Y168.573 E27.53495
G1 X115.774 Y168.835 E27.5563
G1 X115.174 Y168.962 E27.57665
G1 X114.526 Y168.962 E27.59815
G1 X113.926 Y168.835 E27.6185
G1 X113.342 Y168.573 E27.63973
G1 X112.83 Y168.203 E27.66069
G1 X112.412 Y167.736 E27.68148
G1 X112.098 Y167.19 E27.70238
G1 X111.899 Y166.579 E27.7237
G1 X111.832 Y165.96 E27.74436
G1 X111.899 Y165.341 E27.76501
G1 X112.097 Y164.73 E27.78632
G1 X112.411 Y164.185 E27.80719
G1 X112.83 Y163.721 E27.82793
G1 X113.338 Y163.351 E27.84878
G1 X113.93 Y163.089 E27.87026
G1 X114.531 Y162.958 E27.89067
G0 F6000 X114.715 Y163.168
G1 F600 X117.087 Y164.274 E28.00355
G0 F6000 X116.688 Y163.848
G1 F600 X114.414 Y168.724 E28.23559
G1 F1200 E27.23559
G0 F6000 X113.132 Y168.161
G1 F1200 E28.23559
G1 F600 X115.431 Y163.23 E28.47025
G1 F1200 E27.47025
G0 F6000 X113.823 Y163.367
G1 F1200 E28.47025
G1 F600 X112.204 Y166.837 E28.6354
G1 X112.124 Y166.594
G1 X116.112 Y168.454 E28.82519
G1 X116.077 Y168.47
G1 X117.564 Y165.282 E28.97691
G0 F6000 X117.645 Y166.079
G1 F600 X112.957 Y163.893 E29.2
G1 F1200 E28.2
G0 F6000 X112.202 Y165.086
G1 F1200 E29.2
G1 F600 X117.227 Y167.429 E29.43913
G1 F1200 E28.43913
G0 F6000 X71.754 Y119.743
G1 F1200 E29.43913
G1 F780 X71.25 Y120.108 E29.45978
G1 X70.655 Y120.371 E29.48136
G1 X70.057 Y120.498 E29.50165
G1 X69.411 Y120.498 E29.52308
G1 X68.814 Y120.371 E29.54333
G1 X68.222 Y120.109 E29.56481
G1 X67.718 Y119.739 E29.58555
G1 X67.295 Y119.271 E29.60648
G1 X66.981 Y118.726 E29.62735
G1 X66.783 Y118.119 E29.64853
G1 X66.716 Y117.499 E29.66922
G1 X66.783 Y116.877 E29.68997
G1 X66.981 Y116.271 E29.71112
G1 X67.295 Y115.725 E29.73202
G1 X67.718 Y115.257 E29.75295
G1 X68.222 Y114.887 E29.77369
G1 X68.814 Y114.625 E29.79517
G1 X69.411 Y114.498 E29.81542
G1 X70.057 Y114.498 E29.83685
G1 X70.655 Y114.625 E29.85714
G1 X71.25 Y114.888 E29.87872
G1 X71.754 Y115.253 E29.89937
G1 X72.173 Y115.72 E29.92018
G1 X72.491 Y116.271 E29.94129
G1 X72.689 Y116.876 E29.96241
G1 X72.752 Y117.499 E29.98318
G1 X72.689 Y118.12 E30.00389
G1 X72.491 Y118.725 E30.02501
G1 X72.173 Y119.276 E30.04612
G1 X71.754 Y119.743 E30.06693
G0 F6000 X71.35 Y119.776
G1 F600 X66.95 Y117.724 E30.27633
G0 F6000 X66.986 Y118.05
G1 F600 X68.388 Y115.043 E30.41942
G0 F6000 X68.155 Y115.197
G1 F600 X72.515 Y117.23 E30.62691
G0 F6000 X72.344 Y116.498
G1 F600 X70.642 Y120.147 E30.80057
G1 F1200 E29.80057
G0 F6000 X69.068 Y120.21
G1 F1200 E30.80057
G1 F600 X71.384 Y115.245 E31.03686
G1 F1200 E30.03686
G0 F6000 X70.084 Y114.718
G1 F1200 E31.03686
G1 F600 X67.831 Y119.551 E31.26685
G0 F6000 X68.274 Y119.886
G1 F600 X68.884 Y120.171 E31.29588
G1 F1200 E30.29588
G0 F6000 X72.282 Y118.666
G1 F1200 E31.29588
G1 F600 X67.208 Y116.299 E31.53737
G1 F1200 E30.53737
G0 F6000 X112.778 Y71.039
G1 F1200 E31.53737
G1 F780 X112.36 Y70.572 E31.55816
G1 X112.045 Y70.026 E31.57907
G1 X111.847 Y69.42 E31.60023
G1 X111.784 Y68.797 E31.621
G1 X111.847 Y68.176 E31.64171
G1 X112.045 Y67.566 E31.66299
G1 X112.355 Y67.029 E31.68356
G1 X112.786 Y66.554 E31.70484
G1 X113.29 Y66.187 E31.72552
G1 X113.874 Y65.925 E31.74676
G1 X114.478 Y65.798 E31.76723
G1 X115.122 Y65.798 E31.7886
G1 X115.722 Y65.925 E31.80895
G1 X116.31 Y66.187 E31.8303
G1 X116.814 Y66.554 E31.85099
G1 X117.245 Y67.029 E31.87227
G1 X117.555 Y67.566 E31.89284
G1 X117.753 Y68.176 E31.91412
G1 X117.816 Y68.797 E31.93483
G1 X117.753 Y69.42 E31.9556
G1 X117.554 Y70.026 E31.97676
G1 X117.24 Y70.571 E31.99763
G1 X116.818 Y71.039 E32.01854
G1 X116.306 Y71.413 E32.03957
G1 X115.723 Y71.671 E32.06072
G1 X115.125 Y71.798 E32.08101
G1 X114.475 Y71.798 E32.10257
G1 X113.877 Y71.671 E32.12285
G1 X113.294 Y71.412 E32.14402
G1 X112.778 Y71.039 E32.16514
G0 F6000 X113.511 Y71.279
G1 F600 X115.87 Y66.221 E32.40585
G0 F6000 X115.053 Y66.008
G1 F600 X116.755 Y66.801 E32.48684
G0 F6000 X117.011 Y67.086
G1 F600 X114.912 Y71.588 E32.70108
G1 F1200 E31.70108
G0 F6000 X116.244 Y71.197
G1 F1200 E32.70108
G1 F600 X112.039 Y69.237 E32.90117
G1 F1200 E31.90117
G0 F6000 X112.433 Y70.278
G1 F1200 E32.90117
G1 F600 X114.416 Y66.026 E33.10353
G1 F1200 E32.10353
G0 F6000 X113.053 Y66.62
G1 F1200 E33.10353
G1 F600 X117.599 Y68.74 E33.31987
G0 F6000 X117.561 Y69.219
G1 F600 X116.903 Y70.631 E33.38706
G0 F6000 X117.254 Y70.124
G1 F600 X112.2 Y67.767 E33.62757
G1 F1200 E32.62757
;MESH:chassis fourth floor p1.stl
G0 F6000 X70.364 Y111.465
G0 X67.924 Y111.922
G0 X66.804 Y112.422
G0 X65.813 Y113.142
G0 X64.992 Y114.053
G0 X64.38 Y115.114
G0 X64.072 Y116.057
G0 X63.812 Y117.5
G0 X63.9 Y117.497
;TYPE:WALL-INNER
G1 F1200 E33.62757
G1 F600 X64.038 Y116.267 E33.68377
G1 X64.407 Y115.126 E33.73821
G1 X65.022 Y114.068 E33.79377
G1 X65.836 Y113.166 E33.84893
G1 X66.819 Y112.45 E33.90414
G1 X67.923 Y111.952 E33.95913
G1 X69.117 Y111.698 E34.01455
G1 X70.346 Y111.698 E34.07034
G1 X71.53 Y111.949 E34.12529
G1 X72.66 Y112.454 E34.18148
G1 X73.636 Y113.161 E34.2362
G1 X74.459 Y114.073 E34.29197
G1 X75.06 Y115.124 E34.34694
G1 X75.439 Y116.278 E34.40208
G1 X75.567 Y117.497 E34.45773
G1 X75.44 Y118.713 E34.51323
G1 X75.066 Y119.868 E34.56835
G1 X74.45 Y120.934 E34.62425
G1 X73.644 Y121.827 E34.67886
