;FLAVOR:Marlin
;TIME:2098
;Filament used: 1.18418m
;Layer height: 0.1
;MINX:104.453
;MINY:80.987
;MINZ:0.3
;MAXX:130.547
;MAXY:154.013
;MAXZ:4
;TARGET_MACHINE.NAME:ELEGOO NEPTUNE 3 Pro
;Generated with Cura_SteamEngine 5.7.2
M140 S105
M105
M190 S105
M104 S250
M105
M109 S250
M82 ;absolute extrusion mode
;ELEGOO NEPTUNE 3 Pro
M220 S100 ;Set the feed speed to 100%
M221 S100 ;Set the flow rate to 100%
G90
G28 ;home
;M420 S1 Z10;Uncomment to enable progressive compensation height of 10mm
G92 E0 ;Reset Extruder
G1 Z0.45 F300
G1 X1.5 Y20 F5000.0 ;Move to start position
G1 Y120.0 F600.0 E15 ;Draw the first line
G1 X0.5 F1000.0 ;Move to side a little
G1 Y20 F600 E30 ;Draw the second line
G92 E0 ;Reset Extruder
G92 E0
G92 E0
G1 F1200 E-6
;LAYER_COUNT:38
;LAYER:0
M106 S38.2
M204 S500
G0 F6000 X112.188 Y84.84 Z0.3
;TYPE:SKIRT
G1 F1200 E0
G1 F600 X112.95 Y83.992 E0.07764
G1 X113.818 Y83.22 E0.15675
G1 X114.766 Y82.55 E0.2358
G1 X115.82 Y81.976 E0.31753
G1 X116.843 Y81.559 E0.39276
G1 X117.871 Y81.259 E0.46569
G1 X119.12 Y81.046 E0.55198
G1 X120.253 Y80.987 E0.62924
G1 X121.439 Y81.058 E0.71015
G1 X122.6 Y81.263 E0.79044
G1 X123.678 Y81.582 E0.867
G1 X124.663 Y81.99 E0.9396
G1 X125.606 Y82.508 E1.01287
G1 X126.161 Y82.875 E1.05818
G1 X126.697 Y83.27 E1.10353
G1 X127.551 Y84.038 E1.18174
G1 X128.263 Y84.834 E1.25447
G1 X128.967 Y85.824 E1.3372
G1 X129.547 Y86.883 E1.41942
G1 X129.977 Y87.932 E1.49663
G1 X130.291 Y89.033 E1.5746
G1 X130.478 Y90.165 E1.65273
G1 X130.538 Y91.246 E1.72646
G1 X130.547 Y91.907 E1.77148
G1 X130.547 Y143.047 E5.25412
G1 X130.531 Y143.934 E5.31453
G1 X130.481 Y144.815 E5.37463
G1 X130.275 Y146.031 E5.45862
G1 X129.945 Y147.155 E5.53839
G1 X129.452 Y148.327 E5.62498
G1 X128.871 Y149.323 E5.7035
G1 X128.308 Y150.11 E5.7694
G1 X127.487 Y151.025 E5.85312
G1 X126.67 Y151.753 E5.92764
G1 X125.671 Y152.461 E6.01102
G1 X124.636 Y153.024 E6.09126
G1 X123.562 Y153.459 E6.17017
G1 X122.583 Y153.742 E6.23957
G1 X121.339 Y153.954 E6.32551
G1 X120.187 Y154.013 E6.40406
G1 X118.998 Y153.94 E6.48519
G1 X117.91 Y153.75 E6.5604
G1 X116.722 Y153.398 E6.64478
G1 X115.792 Y153.01 E6.7134
G1 X114.849 Y152.492 E6.78667
G1 X114.294 Y152.125 E6.83199
G1 X113.758 Y151.73 E6.87733
G1 X112.916 Y150.973 E6.95444
G1 X112.138 Y150.097 E7.03422
G1 X111.478 Y149.16 E7.11227
G1 X110.911 Y148.124 E7.1927
G1 X110.473 Y147.05 E7.27169
G1 X110.184 Y146.019 E7.3446
G1 X109.614 Y143.517 E7.51936
G1 X108.57 Y139.56 E7.79805
G1 X107.596 Y136.158 E8.03903
G1 X107.334 Y135.178 E8.10812
G1 X107.24 Y134.561 E8.15062
G1 X106.906 Y131.471 E8.36227
G1 X106.538 Y128.801 E8.54582
G1 X106.092 Y126.128 E8.73037
G1 X105.563 Y123.433 E8.9174
G1 X104.959 Y120.763 E9.10382
G1 X104.563 Y119.151 E9.21686
G1 X104.463 Y118.337 E9.27271
G1 X104.453 Y117.342 E9.34048
G1 X104.465 Y116.632 E9.38884
G1 X104.575 Y115.787 E9.44687
G1 X104.87 Y114.583 E9.53128
G1 X105.48 Y111.937 E9.7162
G1 X106.021 Y109.237 E9.90373
G1 X106.476 Y106.581 E10.08724
G1 X106.86 Y103.887 E10.27255
G1 X107.244 Y100.406 E10.51105
G1 X107.39 Y99.607 E10.56636
G1 X107.62 Y98.759 E10.6262
G1 X108.567 Y95.453 E10.86039
G1 X109.287 Y92.797 E11.04779
G1 X110.244 Y88.739 E11.33172
G1 X110.485 Y87.917 E11.39006
G1 X110.94 Y86.815 E11.47125
G1 X111.513 Y85.784 E11.55157
G1 X112.188 Y84.84 E11.6306
G0 F6000 X112.595 Y85.204
G1 F600 X113.314 Y84.399 E11.70411
G1 X114.135 Y83.665 E11.7791
G1 X115.028 Y83.029 E11.85377
G1 X116.026 Y82.482 E11.93127
G1 X117.049 Y82.065 E12.0065
G1 X118.022 Y81.784 E12.07547
G1 X119.15 Y81.591 E12.1534
G1 X120.222 Y81.532 E12.22652
G1 X121.346 Y81.596 E12.30318
G1 X122.445 Y81.787 E12.37915
G1 X123.523 Y82.106 E12.45571
G1 X124.453 Y82.494 E12.52433
G1 X125.305 Y82.963 E12.59056
G1 X125.837 Y83.315 E12.634
G1 X126.373 Y83.71 E12.67935
G1 X127.144 Y84.402 E12.7499
G1 X127.856 Y85.198 E12.82263
G1 X128.489 Y86.088 E12.897
G1 X129.042 Y87.091 E12.975
G1 X129.452 Y88.084 E13.04816
G1 X129.752 Y89.122 E13.12174
G1 X129.939 Y90.254 E13.19988
G1 X129.992 Y91.253 E13.26801
G1 X130.001 Y91.914 E13.31302
G1 X130.001 Y143.038 E16.79457
G1 X129.986 Y143.903 E16.85349
G1 X129.936 Y144.784 E16.91358
G1 X129.751 Y145.879 E16.98921
G1 X129.441 Y146.945 E17.06481
G1 X128.98 Y148.053 E17.14654
G1 X128.427 Y149.005 E17.22151
G1 X127.864 Y149.792 E17.28741
G1 X127.124 Y150.617 E17.36288
G1 X126.307 Y151.345 E17.4374
G1 X125.409 Y151.982 E17.51238
G1 X124.43 Y152.518 E17.58839
G1 X123.41 Y152.934 E17.66341
G1 X122.431 Y153.217 E17.73281
G1 X121.31 Y153.409 E17.81026
G1 X120.219 Y153.468 E17.88466
G1 X119.092 Y153.402 E17.96154
G1 X118.004 Y153.212 E18.03676
G1 X116.932 Y152.894 E18.1129
G1 X116.002 Y152.506 E18.18153
G1 X115.15 Y152.037 E18.24776
G1 X114.618 Y151.685 E18.2912
G1 X114.082 Y151.29 E18.33654
G1 X113.323 Y150.609 E18.40599
G1 X112.583 Y149.781 E18.48161
G1 X111.956 Y148.897 E18.55542
G1 X111.416 Y147.916 E18.63168
G1 X110.999 Y146.903 E18.70628
G1 X110.71 Y145.872 E18.7792
G1 X110.142 Y143.378 E18.95339
G1 X109.098 Y139.421 E19.23208
G1 X108.123 Y136.016 E19.47328
G1 X107.874 Y135.095 E19.53825
G1 X107.783 Y134.502 E19.57911
G1 X107.449 Y131.412 E19.79076
G1 X107.077 Y128.711 E19.97644
G1 X106.631 Y126.038 E20.16099
G1 X106.099 Y123.328 E20.34906
G1 X105.492 Y120.643 E20.53652
G1 X105.105 Y119.082 E20.64605
G1 X105.009 Y118.331 E20.69761
G1 X104.999 Y117.351 E20.76435
G1 X105.011 Y116.641 E20.8127
G1 X105.105 Y115.917 E20.86242
G1 X105.4 Y114.713 E20.94684
G1 X106.012 Y112.06 E21.13226
G1 X106.556 Y109.344 E21.32089
G1 X107.017 Y106.658 E21.50648
G1 X107.401 Y103.964 E21.6918
G1 X107.787 Y100.466 E21.93146
G1 X107.917 Y99.75 E21.98101
G1 X108.145 Y98.909 E22.04035
G1 X109.092 Y95.603 E22.27455
G1 X109.814 Y92.94 E22.46244
G1 X110.768 Y88.893 E22.7456
G1 X111.009 Y88.071 E22.80393
G1 X111.444 Y87.025 E22.88108
G1 X111.958 Y86.1 E22.95315
G1 X112.595 Y85.204 E23.02801
G1 F1200 E17.02801
;MESH:flexible wings.stl
G0 F6000 X117.604 Y90.643
G0 X117.716 Y91.779
G0 X117.803 Y91.77
;TYPE:WALL-INNER
G1 F1200 E23.02801
G1 F600 X117.758 Y91.255 E23.06322
G1 X117.814 Y90.734 E23.0989
G1 X118.023 Y90.183 E23.13903
G1 X118.301 Y89.741 E23.17459
G1 X118.717 Y89.342 E23.21385
G1 X119.198 Y89.051 E23.25213
G1 X119.687 Y88.88 E23.28741
G1 X120.27 Y88.829 E23.32726
G1 X120.727 Y88.879 E23.35857
G1 X121.258 Y89.054 E23.39665
G1 X121.76 Y89.357 E23.43658
G1 X122.184 Y89.792 E23.47794
G1 X122.469 Y90.266 E23.51561
G1 X122.644 Y90.796 E23.55362
G1 X122.694 Y91.25 E23.58472
G1 X122.644 Y91.806 E23.62274
G1 X122.485 Y92.289 E23.65737
G1 X122.162 Y92.846 E23.70122
G1 X121.692 Y93.28 E23.74478
G1 X121.384 Y93.476 E23.76964
G1 X120.865 Y93.681 E23.80764
G1 X120.231 Y93.768 E23.85123
G1 X119.644 Y93.7 E23.89147
G1 X119.074 Y93.481 E23.93305
G1 X118.616 Y93.168 E23.97083
G1 X118.356 Y92.908 E23.99587
G1 X117.995 Y92.376 E24.03965
G1 X117.803 Y91.77 E24.08294
G1 F1200 E18.08294
G0 F6000 X117.716 Y91.779
G0 X118.195 Y93.075
G0 X118.205 Y115.834
G0 X117.765 Y117.582
G0 X117.856 Y117.572
G1 F1200 E24.08294
G1 F600 X117.913 Y116.956 E24.12507
G1 X118.091 Y116.449 E24.16166
G1 X118.386 Y115.98 E24.1994
G1 X118.736 Y115.631 E24.23306
G1 X119.21 Y115.316 E24.27181
G1 X119.736 Y115.14 E24.30959
G1 X120.232 Y115.081 E24.3436
G1 X120.72 Y115.125 E24.37697
G1 X121.325 Y115.308 E24.42001
G1 X121.852 Y115.668 E24.46348
G1 X122.104 Y115.92 E24.48775
G1 X122.407 Y116.365 E24.52441
G1 X122.606 Y116.874 E24.56163
G1 X122.692 Y117.5 E24.60466
G1 X122.64 Y117.994 E24.63848
G1 X122.407 Y118.632 E24.68474
G1 X122.104 Y119.076 E24.72135
G1 X121.71 Y119.441 E24.75792
G1 X121.241 Y119.713 E24.79484
G1 X120.72 Y119.874 E24.83198
G1 X120.282 Y119.919 E24.86196
G1 X119.736 Y119.86 E24.89936
G1 X119.265 Y119.698 E24.93328
G1 X118.769 Y119.396 E24.97283
G1 X118.385 Y119.014 E25.00971
G1 X118.135 Y118.63 E25.04092
G1 X117.913 Y118.039 E25.08391
G1 X117.856 Y117.572 E25.11595
G1 F1200 E19.11595
G0 F6000 X117.765 Y117.582
G0 X115.391 Y117.5
G0 X114.944 Y118.564
G0 X114.653 Y119.03
G0 X114.262 Y119.419
G0 X113.798 Y119.712
G0 X113.278 Y119.894
G0 X112.733 Y119.955
G0 X112.188 Y119.894
G0 X111.667 Y119.713
G0 X111.202 Y119.419
G0 X110.814 Y119.03
G0 X110.52 Y118.564
G0 X110.218 Y117.5
G0 X110.313 Y117.5
G1 F1200 E25.11595
G1 F600 X110.364 Y117.01 E25.1495
G1 X110.529 Y116.501 E25.18594
G1 X110.835 Y115.981 E25.22703
G1 X111.294 Y115.555 E25.26967
G1 X111.771 Y115.28 E25.30717
G1 X112.111 Y115.164 E25.33163
G1 X112.64 Y115.086 E25.36805
G1 X113.297 Y115.147 E25.41298
G1 X113.766 Y115.309 E25.44677
G1 X114.213 Y115.587 E25.48262
G1 X114.618 Y115.98 E25.52105
G1 X114.913 Y116.449 E25.55878
G1 X115.091 Y116.956 E25.59538
G1 X115.147 Y117.409 E25.62646
G1 X115.091 Y118.039 E25.66953
G1 X114.869 Y118.63 E25.71252
G1 X114.619 Y119.014 E25.74373
G1 X114.21 Y119.415 E25.78274
G1 X113.765 Y119.687 E25.81825
G1 X113.296 Y119.853 E25.85213
G1 X112.824 Y119.915 E25.88455
G1 X112.188 Y119.867 E25.92799
G1 X111.598 Y119.633 E25.97121
G1 X111.294 Y119.441 E25.9957
G1 X110.864 Y119.037 E26.03588
G1 X110.518 Y118.467 E26.08129
G1 X110.363 Y117.984 E26.11583
G1 X110.313 Y117.5 E26.14897
G1 F1200 E20.14897
G0 F6000 X110.218 Y117.5
G0 X110.134 Y118.021
G0 X109.479 Y118.419
G0 X109.091 Y118.188
G1 F1200 E26.14897
G1 F600 X109.131 Y118.331 E26.15908
G1 X112.107 Y123.223 E26.54903
G1 X112.355 Y123.516 E26.57517
G1 X113.02 Y123.99 E26.63078
G1 X113.566 Y124.486 E26.68102
G1 X114.043 Y125.048 E26.73121
G1 X114.43 Y125.635 E26.7791
G1 X114.766 Y126.318 E26.83093
G1 X114.99 Y126.968 E26.87775
G1 X115.13 Y127.622 E26.9233
G1 X115.204 Y128.412 E26.97733
G1 X115.181 Y129.115 E27.02523
G1 X115.048 Y129.868 E27.07731
G1 X114.84 Y130.562 E27.12664
G1 X114.548 Y131.221 E27.17573
G1 X114.222 Y131.778 E27.21968
G1 X113.79 Y132.341 E27.26801
G1 X113.258 Y132.886 E27.31987
G1 X112.653 Y133.349 E27.37175
G1 X112.021 Y133.732 E27.42208
G1 X111.882 Y133.913 E27.43762
G1 X111.843 Y134.141 E27.45337
G1 X114.54 Y143.558 E28.12046
G1 X114.583 Y144.332 E28.17325
G1 X114.692 Y144.964 E28.21692
G1 X114.871 Y145.585 E28.26093
G1 X115.108 Y146.16 E28.30329
G1 X115.415 Y146.716 E28.34654
G1 X115.787 Y147.242 E28.39041
G1 X116.208 Y147.714 E28.43348
G1 X116.683 Y148.134 E28.47666
G1 X117.214 Y148.513 E28.52109
G1 X117.764 Y148.816 E28.56385
G1 X118.336 Y149.053 E28.60602
G1 X118.963 Y149.235 E28.65048
G1 X119.591 Y149.34 E28.69384
G1 X120.228 Y149.375 E28.73728
G1 X120.861 Y149.34 E28.78046
G1 X121.49 Y149.236 E28.82387
G1 X122.116 Y149.054 E28.86827
G1 X122.688 Y148.816 E28.91046
G1 X123.238 Y148.513 E28.95322
G1 X123.769 Y148.134 E28.99765
G1 X124.244 Y147.714 E29.04083
G1 X124.665 Y147.242 E29.0839
G1 X125.036 Y146.716 E29.12774
G1 X125.348 Y146.152 E29.17163
G1 X125.581 Y145.589 E29.21312
G1 X125.764 Y144.957 E29.25793
G1 X125.868 Y144.332 E29.30108
G1 X125.905 Y143.692 E29.34474
G1 X125.908 Y91.333 E32.91039
G1 X125.869 Y90.665 E32.95596
G1 X125.764 Y90.038 E32.99925
G1 X125.581 Y89.408 E33.04393
G1 X125.345 Y88.837 E33.086
G1 X125.037 Y88.282 E33.12923
G1 X124.666 Y87.759 E33.1729
G1 X124.243 Y87.285 E33.21616
G1 X123.767 Y86.861 E33.25957
G1 X123.246 Y86.486 E33.30329
G1 X122.681 Y86.176 E33.34717
G1 X122.116 Y85.943 E33.38879
G1 X121.489 Y85.761 E33.43326
G1 X120.861 Y85.656 E33.47662
G1 X120.228 Y85.621 E33.51979
G1 X119.591 Y85.655 E33.56323
G1 X118.963 Y85.761 E33.6066
G1 X118.336 Y85.943 E33.65106
G1 X117.771 Y86.176 E33.69268
G1 X117.206 Y86.487 E33.7366
G1 X116.685 Y86.861 E33.78028
G1 X116.208 Y87.284 E33.8237
G1 X115.786 Y87.759 E33.86697
G1 X115.415 Y88.282 E33.91063
G1 X115.107 Y88.837 E33.95386
G1 X114.871 Y89.408 E33.99593
G1 X114.692 Y90.027 E34.03982
G1 X114.584 Y90.664 E34.08381
G1 X114.539 Y91.441 E34.13682
G1 X111.841 Y100.851 E34.80346
G1 X111.883 Y101.089 E34.81992
G1 X112.015 Y101.26 E34.83463
G1 X112.735 Y101.704 E34.89223
G1 X113.296 Y102.152 E34.94112
G1 X113.767 Y102.623 E34.98649
G1 X114.198 Y103.187 E35.03483
G1 X114.592 Y103.866 E35.08829
G1 X114.875 Y104.535 E35.13775
G1 X115.068 Y105.218 E35.18609
G1 X115.181 Y105.884 E35.23209
G1 X115.204 Y106.588 E35.28006
G1 X115.136 Y107.35 E35.33216
G1 X114.983 Y108.051 E35.38102
G1 X114.766 Y108.682 E35.42646
G1 X114.435 Y109.357 E35.47766
G1 X114.039 Y109.955 E35.5265
G1 X113.571 Y110.508 E35.57584
G1 X113.016 Y111.012 E35.62689
G1 X112.325 Y111.502 E35.68458
G1 X112.19 Y111.639 E35.69768
G1 X109.132 Y116.66 E36.09803
G1 X109.091 Y116.807 E36.10842
G1 X109.091 Y118.188 E36.20247
G1 F1200 E30.20247
G0 F6000 X109.179 Y118.164
G0 X113.302 Y124.747
G0 X113.741 Y125.26
G0 X114.113 Y125.824
G0 X114.413 Y126.43
G0 X114.636 Y127.068
G0 X114.777 Y127.728
G0 X114.836 Y128.401
G0 X114.811 Y129.075
G0 X114.704 Y129.741
G0 X114.513 Y130.39
G0 X114.245 Y131.009
G0 X113.902 Y131.591
G0 X113.233 Y132.379
G0 X113.43 Y133.07
G0 X118.232 Y141.956
G0 X117.767 Y143.222
G0 X117.856 Y143.232
G1 F1200 E36.20247
G1 F600 X118.037 Y142.641 E36.24456
G1 X118.396 Y142.12 E36.28765
G1 X118.79 Y141.755 E36.32423
G1 X119.182 Y141.515 E36.35553
G1 X119.75 Y141.33 E36.39621
G1 X120.236 Y141.28 E36.42948
G1 X120.673 Y141.326 E36.4594
G1 X121.284 Y141.508 E36.50282
G1 X121.795 Y141.864 E36.54523
G1 X122.171 Y142.266 E36.58272
G1 X122.364 Y142.574 E36.60747
G1 X122.559 Y143.061 E36.64319
G1 X122.646 Y143.746 E36.69022
G1 X122.576 Y144.284 E36.72716
G1 X122.426 Y144.706 E36.75766
G1 X122.146 Y145.169 E36.79451
G1 X121.763 Y145.567 E36.83213
G1 X121.32 Y145.858 E36.86822
G1 X120.765 Y146.063 E36.90851
G1 X120.183 Y146.118 E36.94832
G1 X119.643 Y146.047 E36.98541
G1 X119.177 Y145.879 E37.01915
G1 X118.751 Y145.615 E37.05328
G1 X118.336 Y145.209 E37.09281
G1 X118.026 Y144.709 E37.13288
G1 X117.86 Y144.191 E37.16992
G1 X117.81 Y143.653 E37.20672
G1 X117.856 Y143.232 E37.23556
G0 F6000 X118.397 Y143.306
;TYPE:WALL-OUTER
G1 F600 X118.554 Y142.852 E37.26827
G1 X118.782 Y142.506 E37.29649
G1 X119.034 Y142.254 E37.32076
G1 X119.415 Y142.009 E37.35161
G1 X119.806 Y141.875 E37.37975
G1 X120.231 Y141.826 E37.40889
G1 X120.668 Y141.881 E37.43888
G1 X121.073 Y142.026 E37.46818
G1 X121.369 Y142.218 E37.49221
G1 X121.708 Y142.555 E37.52476
G1 X121.925 Y142.915 E37.55338
G1 X122.06 Y143.309 E37.58175
G1 X122.101 Y143.716 E37.6096
G1 X122.058 Y144.102 E37.63605
G1 X121.921 Y144.497 E37.66452
G1 X121.7 Y144.854 E37.69312
G1 X121.392 Y145.165 E37.72292
G1 X121.029 Y145.393 E37.75212
G1 X120.657 Y145.523 E37.77895
G1 X120.244 Y145.573 E37.80728
G1 X119.795 Y145.523 E37.83805
G1 X119.413 Y145.387 E37.86566
G1 X119.069 Y145.171 E37.89332
G1 X118.762 Y144.867 E37.92275
G1 X118.537 Y144.515 E37.9512
G1 X118.401 Y144.114 E37.98003
G1 X118.355 Y143.716 E38.00732
G1 X118.397 Y143.306 E38.03538
G0 F6000 X118.462 Y143.117
G1 F1200 E32.03538
G0 F6000 X117.858 Y142.906
G0 X118.232 Y141.956
G0 X118.203 Y119.16
G0 X117.765 Y117.43
G0 X118.399 Y117.501
G1 F1200 E38.03538
G1 F600 X118.445 Y117.078 E38.06436
G1 X118.582 Y116.688 E38.09251
G1 X118.808 Y116.326 E38.12157
G1 X119.096 Y116.042 E38.14912
G1 X119.471 Y115.803 E38.1794
G1 X119.871 Y115.67 E38.20811
G1 X120.276 Y115.627 E38.23584
G1 X120.717 Y115.681 E38.2661
G1 X121.114 Y115.825 E38.29486
G1 X121.466 Y116.054 E38.32346
G1 X121.718 Y116.306 E38.34773
G1 X121.944 Y116.655 E38.37604
G1 X122.104 Y117.113 E38.40908
G1 X122.146 Y117.5 E38.43559
G1 X122.102 Y117.9 E38.46299
G1 X121.944 Y118.342 E38.49496
G1 X121.718 Y118.69 E38.52322
G1 X121.466 Y118.942 E38.54749
G1 X121.059 Y119.198 E38.58023
G1 X120.659 Y119.332 E38.60896
G1 X120.258 Y119.373 E38.63641
G1 X119.871 Y119.33 E38.66293
G1 X119.472 Y119.193 E38.69165
G1 X119.082 Y118.946 E38.72309
G1 X118.808 Y118.669 E38.74962
