;FLAVOR:Marlin
;TIME:13754
;Filament used: 17.6497m
;Layer height: 0.2
;MINX:30.617
;MINY:59.165
;MINZ:0.2
;MAXX:204.38
;MAXY:175.834
;MAXZ:26
;TARGET_MACHINE.NAME:ELEGOO NEPTUNE 3 Pro
;Generated with Cura_SteamEngine 5.7.2
M140 S105
M105
M190 S105
M104 S250
M105
M109 S250
M82 ;absolute extrusion mode
;ELEGOO NEPTUNE 3 Pro
M220 S100 ;Set the feed speed to 100%
M221 S100 ;Set the flow rate to 100%
G90
G28 ;home
;M420 S1 Z10;Uncomment to enable progressive compensation height of 10mm
G92 E0 ;Reset Extruder
G1 Z0.45 F300
G1 X1.5 Y20 F5000.0 ;Move to start position
G1 Y120.0 F600.0 E15 ;Draw the first line
G1 X0.5 F1000.0 ;Move to side a little
G1 Y20 F600 E30 ;Draw the second line
G92 E0 ;Reset Extruder
G92 E0
G92 E0
G1 F1200 E-1
;LAYER_COUNT:130
;LAYER:0
M106 S38.2
M204 S500
G0 F6000 X32.815 Y83.452 Z0.2
;TYPE:SKIRT
G1 F1200 E0
G1 F600 X33.43 Y83.252 E0.02936
G1 X34.65 Y83.12 E0.08507
G1 X35.916 Y82.999 E0.14281
G1 X38.651 Y82.659 E0.26794
G1 X41.329 Y82.249 E0.39093
G1 X44.036 Y81.756 E0.51585
G1 X46.714 Y81.189 E0.64013
G1 X49.361 Y80.552 E0.76373
G1 X52.002 Y79.834 E0.88799
G1 X54.621 Y79.043 E1.0122
G1 X57.213 Y78.179 E1.13624
G1 X59.802 Y77.234 E1.26136
G1 X62.336 Y76.228 E1.38514
G1 X64.846 Y75.146 E1.50923
G1 X67.332 Y73.992 E1.63367
G1 X69.767 Y72.777 E1.75721
G1 X72.216 Y71.466 E1.88333
G1 X74.559 Y70.125 E2.00589
G1 X76.898 Y68.698 E2.13028
G1 X79.206 Y67.199 E2.25523
G1 X81.443 Y65.653 E2.37868
G1 X83.648 Y64.035 E2.50285
G1 X85.823 Y62.344 E2.62792
G1 X87.183 Y61.235 E2.70759
G1 X88.168 Y60.417 E2.76572
G1 X88.914 Y59.913 E2.8066
G1 X89.571 Y59.592 E2.8398
G1 X90.05 Y59.422 E2.86287
G1 X90.769 Y59.256 E2.89637
G1 X91.441 Y59.178 E2.92709
G1 X92.337 Y59.165 E2.96777
G1 X173.442 Y59.165 E6.64994
G1 X174.211 Y59.176 E6.68486
G1 X174.986 Y59.258 E6.72024
G1 X175.549 Y59.362 E6.74623
G1 X176.382 Y59.658 E6.78637
G1 X176.956 Y59.914 E6.8149
G1 X177.642 Y60.399 E6.85304
G1 X178.19 Y60.887 E6.88636
G1 X178.551 Y61.29 E6.91092
G1 X178.972 Y61.881 E6.94386
G1 X179.867 Y63.487 E7.02733
G1 X181.252 Y65.89 E7.15325
G1 X182.691 Y68.23 E7.27797
G1 X184.188 Y70.517 E7.40207
G1 X185.754 Y72.767 E7.52652
G1 X187.37 Y74.957 E7.65009
G1 X189.076 Y77.136 E7.77573
G1 X190.796 Y79.208 E7.89798
G1 X192.605 Y81.266 E8.02238
G1 X194.477 Y83.278 E8.14715
G1 X196.391 Y85.223 E8.27104
G1 X198.379 Y87.132 E8.39617
G1 X200.407 Y88.971 E8.52046
G1 X201.499 Y89.906 E8.58573
G1 X201.564 Y89.971 E8.5899
G1 X202.561 Y90.827 E8.64956
G1 X202.969 Y91.236 E8.67579
G1 X203.449 Y91.901 E8.71302
G1 X203.759 Y92.41 E8.74008
G1 X204.062 Y93.179 E8.7776
G1 X204.234 Y93.738 E8.80415
G1 X204.357 Y94.683 E8.84742
G1 X204.38 Y96.003 E8.90736
G1 X204.367 Y103.165 E9.23251
G1 X204.367 Y139.287 E10.87245
G1 X204.357 Y140.057 E10.90742
G1 X204.255 Y140.988 E10.94994
G1 X204.137 Y141.613 E10.97881
G1 X203.804 Y142.424 E11.01861
G1 X203.434 Y143.092 E11.05328
G1 X203.082 Y143.582 E11.08067
G1 X202.708 Y144.025 E11.107
G1 X200.199 Y146.195 E11.2576
G1 X198.221 Y147.999 E11.37914
G1 X196.232 Y149.919 E11.50465
G1 X194.318 Y151.874 E11.62886
G1 X192.464 Y153.877 E11.75277
G1 X190.67 Y155.929 E11.87652
G1 X188.929 Y158.037 E12.00064
G1 X187.228 Y160.22 E12.12628
G1 X185.62 Y162.411 E12.24967
G1 X184.077 Y164.642 E12.37282
G1 X182.559 Y166.973 E12.49911
G1 X181.163 Y169.256 E12.6206
G1 X179.471 Y172.23 E12.77594
G1 X179.021 Y173.052 E12.81849
G1 X178.588 Y173.665 E12.85256
G1 X178.185 Y174.115 E12.87999
G1 X177.766 Y174.515 E12.90629
G1 X177.105 Y174.968 E12.94267
G1 X176.602 Y175.259 E12.96905
G1 X175.902 Y175.522 E13.003
G1 X175.216 Y175.699 E13.03516
G1 X174.438 Y175.811 E13.07085
G1 X173.201 Y175.834 E13.12702
G1 X92.412 Y175.834 E16.79485
G1 X91.703 Y175.824 E16.82704
G1 X90.842 Y175.733 E16.86634
G1 X90.225 Y175.619 E16.89483
G1 X89.46 Y175.313 E16.93224
G1 X88.919 Y175.046 E16.95963
G1 X88.118 Y174.45 E17.00495
G1 X85.946 Y172.65 E17.13302
G1 X83.763 Y170.944 E17.25881
G1 X81.543 Y169.307 E17.38403
G1 X79.332 Y167.773 E17.50621
G1 X77.028 Y166.268 E17.63115
G1 X74.697 Y164.839 E17.75528
G1 X72.322 Y163.473 E17.87967
G1 X69.925 Y162.183 E18.00325
G1 X67.479 Y160.954 E18.12753
G1 X64.968 Y159.781 E18.25335
G1 X62.487 Y158.707 E18.37609
G1 X59.926 Y157.683 E18.50131
G1 X57.365 Y156.741 E18.6252
G1 X54.784 Y155.875 E18.74879
G1 X52.163 Y155.076 E18.87319
G1 X49.532 Y154.356 E18.99703
G1 X46.865 Y153.706 E19.12166
G1 X44.142 Y153.124 E19.24808
G1 X41.508 Y152.637 E19.36969
G1 X38.825 Y152.22 E19.49296
G1 X34.796 Y151.736 E19.67719
G1 X33.761 Y151.63 E19.72442
G1 X33.258 Y151.538 E19.74764
G1 X32.776 Y151.369 E19.77083
G1 X32.325 Y151.127 E19.79407
G1 X31.918 Y150.817 E19.81729
G1 X31.407 Y150.267 E19.85138
G1 X31.036 Y149.699 E19.88218
G1 X30.827 Y149.232 E19.90541
G1 X30.693 Y148.739 E19.9286
G1 X30.637 Y148.194 E19.95347
G1 X30.617 Y147.149 E20.00093
G1 X30.618 Y145.046 E20.0964
G1 X30.631 Y144.327 E20.12905
G1 X30.686 Y143.751 E20.15532
G1 X31.536 Y140.504 E20.3077
G1 X32.158 Y137.792 E20.43402
G1 X32.686 Y135.154 E20.55616
G1 X33.146 Y132.467 E20.67993
G1 X33.536 Y129.714 E20.80616
G1 X33.841 Y127.016 E20.92943
G1 X34.07 Y124.313 E21.05259
G1 X34.224 Y121.564 E21.17759
G1 X34.301 Y118.819 E21.30226
G1 X34.299 Y116.105 E21.42548
G1 X34.22 Y113.355 E21.55038
G1 X34.064 Y110.613 E21.67507
G1 X33.832 Y107.908 E21.79832
G1 X33.521 Y105.176 E21.92316
G1 X33.136 Y102.486 E22.04653
G1 X32.672 Y99.783 E22.17104
G1 X32.129 Y97.086 E22.29594
G1 X31.521 Y94.442 E22.41911
G1 X30.745 Y91.477 E22.55826
G1 X30.643 Y90.913 E22.58428
G1 X30.617 Y89.609 E22.64349
G1 X30.617 Y87.377 E22.74483
G1 X30.628 Y86.692 E22.77593
G1 X30.677 Y86.183 E22.79914
G1 X30.803 Y85.688 E22.82233
G1 X31.172 Y84.909 E22.86147
G1 X31.583 Y84.344 E22.89319
G1 X31.946 Y83.984 E22.9164
G1 X32.36 Y83.684 E22.93961
G1 X32.815 Y83.452 E22.9628
G1 F1200 E21.9628
G0 F6000 X94.762 Y83.834
G1 F1200 E22.9628
G1 F600 X95.404 Y83.191 E23.00405
G1 X96.169 Y82.711 E23.04505
G1 X97.024 Y82.412 E23.08617
G1 X97.928 Y82.31 E23.12747
G1 X98.832 Y82.412 E23.16878
G1 X99.687 Y82.711 E23.2099
G1 X100.455 Y83.193 E23.25106
G1 X101.095 Y83.833 E23.29216
G1 X101.577 Y84.601 E23.33332
G1 X101.876 Y85.456 E23.37444
G1 X101.978 Y86.359 E23.4157
G1 X101.876 Y87.264 E23.45705
G1 X101.577 Y88.119 E23.49817
G1 X101.095 Y88.887 E23.53933
G1 X100.457 Y89.525 E23.5803
G1 X99.688 Y90.008 E23.62153
G1 X98.828 Y90.309 E23.66289
G1 X97.928 Y90.41 E23.70401
G1 X97.028 Y90.309 E23.74513
G1 X96.168 Y90.007 E23.78651
G1 X95.402 Y89.527 E23.82755
G1 X94.762 Y88.886 E23.86867
G1 X94.278 Y88.118 E23.90988
G1 X93.98 Y87.264 E23.95095
G1 X93.878 Y86.359 E23.9923
G1 X93.98 Y85.456 E24.03355
G1 X94.278 Y84.602 E24.07462
G1 X94.762 Y83.834 E24.11583
G0 F6000 X95.19 Y84.179
G1 F600 X95.746 Y83.622 E24.15156
G1 X96.412 Y83.203 E24.18728
G1 X97.142 Y82.949 E24.22237
G1 X97.928 Y82.86 E24.25829
G1 X98.714 Y82.949 E24.2942
G1 X99.444 Y83.203 E24.32929
G1 X100.116 Y83.626 E24.36534
G1 X100.662 Y84.172 E24.4004
G1 X101.085 Y84.844 E24.43645
G1 X101.339 Y85.574 E24.47154
G1 X101.428 Y86.36 E24.50745
G1 X101.339 Y87.145 E24.54332
G1 X101.085 Y87.876 E24.57845
G1 X100.662 Y88.548 E24.6145
G1 X100.116 Y89.094 E24.64956
G1 X99.448 Y89.513 E24.68536
G1 X98.708 Y89.772 E24.72095
G1 X97.928 Y89.86 E24.75659
G1 X97.148 Y89.772 E24.79222
G1 X96.408 Y89.513 E24.82782
G1 X95.746 Y89.098 E24.86329
G1 X95.19 Y88.541 E24.89902
G1 X94.771 Y87.876 E24.93471
G1 X94.517 Y87.147 E24.96975
G1 X94.428 Y86.36 E25.00571
G1 X94.517 Y85.573 E25.04167
G1 X94.771 Y84.844 E25.07672
G1 X95.19 Y84.179 E25.1124
G1 F1200 E24.1124
G0 F6000 X171.558 Y115.663
G1 F1200 E25.1124
G1 F600 X172.04 Y114.895 E25.15357
G1 X172.68 Y114.255 E25.19466
G1 X173.448 Y113.773 E25.23582
G1 X174.303 Y113.474 E25.27695
G1 X175.207 Y113.372 E25.31825
G1 X176.111 Y113.474 E25.35955
G1 X176.966 Y113.773 E25.40067
G1 X177.734 Y114.255 E25.44184
G1 X178.374 Y114.895 E25.48293
G1 X178.856 Y115.663 E25.52409
G1 X179.155 Y116.518 E25.56522
G1 X179.257 Y117.422 E25.60652
G1 X179.155 Y118.326 E25.64782
G1 X178.856 Y119.181 E25.68894
G1 X178.374 Y119.949 E25.73011
G1 X177.736 Y120.587 E25.77107
G1 X176.967 Y121.07 E25.8123
G1 X176.108 Y121.371 E25.85362
G1 X175.207 Y121.472 E25.89478
G1 X174.306 Y121.371 E25.93595
G1 X173.447 Y121.07 E25.97727
G1 X172.678 Y120.587 E26.0185
G1 X172.04 Y119.949 E26.05946
G1 X171.558 Y119.181 E26.10063
G1 X171.259 Y118.326 E26.14175
G1 X171.157 Y117.422 E26.18305
G1 X171.259 Y116.518 E26.22435
G1 X171.558 Y115.663 E26.26547
G0 F6000 X172.05 Y115.906
G1 F600 X172.473 Y115.234 E26.30152
G1 X173.019 Y114.688 E26.33658
G1 X173.691 Y114.265 E26.37263
G1 X174.421 Y114.011 E26.40772
G1 X175.207 Y113.922 E26.44363
G1 X175.993 Y114.011 E26.47955
G1 X176.723 Y114.265 E26.51464
G1 X177.395 Y114.688 E26.55069
G1 X177.941 Y115.234 E26.58574
G1 X178.364 Y115.906 E26.62179
G1 X178.618 Y116.636 E26.65688
G1 X178.707 Y117.422 E26.6928
G1 X178.618 Y118.208 E26.72871
G1 X178.364 Y118.938 E26.7638
G1 X177.941 Y119.61 E26.79985
G1 X177.395 Y120.156 E26.83491
G1 X176.727 Y120.575 E26.87071
G1 X175.987 Y120.834 E26.9063
G1 X175.207 Y120.923 E26.94194
G1 X174.427 Y120.834 E26.97758
G1 X173.687 Y120.575 E27.01318
G1 X173.019 Y120.156 E27.04898
G1 X172.473 Y119.61 E27.08403
G1 X172.05 Y118.938 E27.12008
G1 X171.796 Y118.208 E27.15517
G1 X171.707 Y117.422 E27.19109
G1 X171.796 Y116.636 E27.227
G1 X172.05 Y115.906 E27.26209
G1 F1200 E26.26209
G0 F6000 X101.577 Y146.725
G1 F1200 E27.26209
G1 F600 X101.876 Y147.58 E27.30321
G1 X101.978 Y148.483 E27.34447
G1 X101.876 Y149.388 E27.38582
G1 X101.577 Y150.243 E27.42694
G1 X101.095 Y151.011 E27.4681
G1 X100.457 Y151.649 E27.50907
G1 X99.688 Y152.132 E27.5503
G1 X98.828 Y152.433 E27.59166
G1 X97.928 Y152.534 E27.63278
G1 X97.028 Y152.433 E27.6739
G1 X96.168 Y152.131 E27.71528
G1 X95.402 Y151.651 E27.75632
G1 X94.762 Y151.01 E27.79744
G1 X94.278 Y150.242 E27.83865
G1 X93.98 Y149.388 E27.87972
G1 X93.878 Y148.483 E27.92107
G1 X93.98 Y147.58 E27.96232
G1 X94.278 Y146.726 E28.00339
G1 X94.762 Y145.958 E28.0446
G1 X95.404 Y145.315 E28.08585
G1 X96.169 Y144.835 E28.12685
G1 X97.024 Y144.536 E28.16798
G1 X97.928 Y144.434 E28.20928
G1 X98.832 Y144.536 E28.25058
G1 X99.687 Y144.835 E28.2917
G1 X100.455 Y145.317 E28.33287
G1 X101.095 Y145.957 E28.37396
G1 X101.577 Y146.725 E28.41513
G0 F6000 X101.085 Y146.968
G1 F600 X101.339 Y147.698 E28.45022
G1 X101.428 Y148.484 E28.48613
G1 X101.339 Y149.269 E28.522
G1 X101.085 Y150 E28.55713
G1 X100.662 Y150.672 E28.59318
G1 X100.116 Y151.218 E28.62824
G1 X99.448 Y151.637 E28.66404
G1 X98.708 Y151.896 E28.69963
G1 X97.928 Y151.984 E28.73527
G1 X97.148 Y151.896 E28.7709
G1 X96.408 Y151.637 E28.8065
G1 X95.746 Y151.222 E28.84197
G1 X95.19 Y150.665 E28.8777
G1 X94.771 Y150 E28.91338
G1 X94.517 Y149.271 E28.94843
G1 X94.428 Y148.484 E28.98439
G1 X94.517 Y147.697 E29.02035
G1 X94.771 Y146.968 E29.0554
G1 X95.19 Y146.303 E29.09108
G1 X95.746 Y145.746 E29.12681
G1 X96.412 Y145.327 E29.16253
G1 X97.142 Y145.073 E29.19762
G1 X97.928 Y144.984 E29.23354
G1 X98.714 Y145.073 E29.26945
G1 X99.444 Y145.327 E29.30454
G1 X100.116 Y145.75 E29.34059
G1 X100.662 Y146.296 E29.37565
G1 X101.085 Y146.968 E29.4117
G0 F6000 X100.645 Y147.176
;TYPE:SUPPORT
G1 F780 X100.865 Y147.807 E29.43387
G1 X100.94 Y148.481 E29.45637
G1 X100.865 Y149.157 E29.47893
G1 X100.645 Y149.788 E29.5011
G1 X100.282 Y150.364 E29.52369
G1 X99.808 Y150.838 E29.54593
G1 X99.236 Y151.197 E29.56833
G1 X98.593 Y151.422 E29.59094
G1 X97.927 Y151.496 E29.61317
G1 X97.259 Y151.421 E29.63547
G1 X96.616 Y151.197 E29.65806
G1 X96.048 Y150.842 E29.68028
G1 X95.57 Y150.36 E29.7028
G1 X95.207 Y149.788 E29.72528
G1 X94.99 Y149.161 E29.74729
G1 X94.912 Y148.481 E29.77
G1 X94.99 Y147.807 E29.79251
G1 X95.207 Y147.176 E29.81465
G1 X95.569 Y146.608 E29.83699
G1 X96.049 Y146.125 E29.85959
G1 X96.62 Y145.763 E29.88202
G1 X97.251 Y145.546 E29.90416
G1 X97.927 Y145.468 E29.92673
G1 X98.601 Y145.546 E29.94924
G1 X99.232 Y145.763 E29.97138
G1 X99.807 Y146.13 E29.99401
G1 X100.283 Y146.601 E30.01623
G1 X100.645 Y147.176 E30.03877
G1 F600 X100.44 Y147.243
G1 X97.266 Y145.763 E30.18982
G1 X97.322 Y145.749
G1 X95.446 Y149.772 E30.38127
G0 F6000 X95.327 Y149.493
G1 F600 X98.817 Y151.121 E30.54736
G0 F6000 X99.654 Y150.687
G1 F600 X100.719 Y148.403 E30.65605
G0 F6000 X100.683 Y148.901
G1 F600 X95.833 Y146.64 E30.88685
G1 F1200 E29.88685
G0 F6000 X95.192 Y147.885
G1 F1200 E30.88685
G1 F600 X100.141 Y150.193 E31.12237
G1 F1200 E30.12237
G0 F6000 X97.835 Y151.275
G1 F1200 E31.12237
G1 F600 X100.004 Y146.622 E31.34379
G1 F1200 E30.34379
G0 F6000 X98.823 Y145.844
G1 F1200 E31.34379
G1 F600 X96.481 Y150.865 E31.58274
G1 F1200 E30.58274
G0 F6000 X97.927 Y89.372
G1 F1200 E31.58274
G1 F780 X97.259 Y89.297 E31.60504
G1 X96.616 Y89.073 E31.62763
G1 X96.048 Y88.718 E31.64986
G1 X95.57 Y88.236 E31.67238
G1 X95.207 Y87.664 E31.69485
G1 X94.99 Y87.037 E31.71687
G1 X94.912 Y86.357 E31.73958
G1 X94.99 Y85.683 E31.76209
G1 X95.207 Y85.052 E31.78422
G1 X95.569 Y84.484 E31.80657
G1 X96.049 Y84.001 E31.82916
G1 X96.62 Y83.639 E31.85159
G1 X97.251 Y83.422 E31.87373
G1 X97.927 Y83.344 E31.89631
G1 X98.601 Y83.422 E31.91882
G1 X99.232 Y83.639 E31.94096
G1 X99.807 Y84.006 E31.96359
G1 X100.283 Y84.477 E31.9858
G1 X100.645 Y85.052 E32.00835
G1 X100.865 Y85.683 E32.03052
G1 X100.94 Y86.357 E32.05302
G1 X100.865 Y87.033 E32.07558
G1 X100.645 Y87.664 E32.09775
G1 X100.282 Y88.24 E32.12034
G1 X99.808 Y88.714 E32.14258
G1 X99.236 Y89.073 E32.16498
G1 X98.593 Y89.298 E32.18759
G1 X97.927 Y89.372 E32.20982
G0 F6000 X98.35 Y89.114
G1 F600 X95.546 Y87.806 E32.34327
G0 F6000 X95.271 Y87.206
G1 F600 X96.871 Y83.776 E32.50651
G1 X96.854 Y83.782
G1 X100.588 Y85.523 E32.6842
G1 X100.631 Y85.65
G1 X99.12 Y88.891 E32.83843
G0 F6000 X99.923 Y88.302
G1 F600 X95.155 Y86.079 E33.06532
G1 F1200 E32.06532
G0 F6000 X95.642 Y84.762
G1 F1200 E33.06532
G1 F600 X100.625 Y87.085 E33.30245
G1 F1200 E32.30245
G0 F6000 X99.744 Y84.24
G1 F1200 E33.30245
G1 F600 X97.473 Y89.111 E33.53425
G1 F1200 E32.53425
G0 F6000 X96.186 Y88.556
G1 F1200 E33.53425
G1 F600 X98.488 Y83.62 E33.76915
G1 F1200 E32.76915
G0 F6000 X172.487 Y116.116
G1 F1200 E33.76915
G1 F780 X172.85 Y115.536 E33.79185
G1 X173.324 Y115.066 E33.814
G1 X173.9 Y114.703 E33.83659
G1 X174.531 Y114.483 E33.85876
G1 X175.205 Y114.408 E33.88126
G1 X175.881 Y114.483 E33.90382
G1 X176.512 Y114.703 E33.92599
G1 X177.088 Y115.066 E33.94858
G1 X177.559 Y115.536 E33.97065
G1 X177.925 Y116.116 E33.99341
G1 X178.142 Y116.747 E34.01555
G1 X178.22 Y117.42 E34.03802
G1 X178.141 Y118.097 E34.06064
G1 X177.925 Y118.724 E34.08264
G1 X177.558 Y119.304 E34.10541
G1 X177.088 Y119.774 E34.12746
G1 X176.516 Y120.133 E34.14987
G1 X175.872 Y120.358 E34.1725
G1 X175.205 Y120.436 E34.19478
G1 X174.54 Y120.358 E34.21699
G1 X173.896 Y120.133 E34.23963
G1 X173.324 Y119.774 E34.26203
G1 X172.85 Y119.304 E34.28418
G1 X172.487 Y118.724 E34.30688
G1 X172.267 Y118.097 E34.32892
G1 X172.192 Y117.421 E34.35149
G1 X172.267 Y116.747 E34.37399
G1 X172.487 Y116.116 E34.39616
G1 F600 X172.755 Y116.086
G1 X177.801 Y118.439 E34.63629
G1 F1200 E33.63629
G0 F6000 X176.969 Y119.596
G1 F1200 E34.63629
G1 F600 X172.408 Y117.469 E34.85335
G0 F6000 X172.429 Y117.189
G1 F600 X173.245 Y115.439 E34.93663
G0 F6000 X173.787 Y115.022
G1 F600 X177.957 Y116.967 E35.13508
G1 F1200 E34.13508
G0 F6000 X177.611 Y116.013
G1 F1200 E35.13508
G1 F600 X175.673 Y120.171 E35.33294
G0 F6000 X174.938 Y120.193
G1 F600 X173.253 Y119.407 E35.41313
G0 F6000 X173.038 Y119.195
G1 F600 X175.171 Y114.623 E35.63073
G1 F1200 E34.63073
