;FLAVOR:Marlin
;TIME:2049
;Filament used: 2.26423m
;Layer height: 0.2
;MINX:86.771
;MINY:99.279
;MINZ:0.2
;MAXX:148.228
;MAXY:135.72
;MAXZ:13.2
;TARGET_MACHINE.NAME:ELEGOO NEPTUNE 3 Pro
;Generated with Cura_SteamEngine 5.7.2
M140 S105
M105
M190 S105
M104 S250
M105
M109 S250
M82 ;absolute extrusion mode
;ELEGOO NEPTUNE 3 Pro
M220 S100 ;Set the feed speed to 100%
M221 S100 ;Set the flow rate to 100%
G90
G28 ;home
;M420 S1 Z10;Uncomment to enable progressive compensation height of 10mm
G92 E0 ;Reset Extruder
G1 Z0.45 F300
G1 X1.5 Y20 F5000.0 ;Move to start position
G1 Y120.0 F600.0 E15 ;Draw the first line
G1 X0.5 F1000.0 ;Move to side a little
G1 Y20 F600 E30 ;Draw the second line
G92 E0 ;Reset Extruder
G92 E0
G92 E0
G1 F1200 E-1
;LAYER_COUNT:66
;LAYER:0
M106 S38.2
M204 S500
G0 F6000 X92.254 Y104.408 Z0.2
;TYPE:SKIRT
G1 F1200 E0
G1 F600 X92.768 Y104.028 E0.02902
G1 X93.307 Y103.754 E0.05647
G1 X94.113 Y103.524 E0.09452
G1 X95.804 Y103.242 E0.17236
G1 X98.514 Y102.737 E0.29751
G1 X101.17 Y102.164 E0.42087
G1 X103.783 Y101.522 E0.54302
G1 X106.422 Y100.794 E0.66731
G1 X109.025 Y99.997 E0.7909
G1 X110.618 Y99.471 E0.86706
G1 X111.196 Y99.335 E0.89402
G1 X111.723 Y99.289 E0.91804
G1 X112.442 Y99.279 E0.95069
G1 X122.596 Y99.279 E1.41168
G1 X123.343 Y99.291 E1.4456
G1 X123.935 Y99.352 E1.47262
G1 X124.421 Y99.474 E1.49536
G1 X127.356 Y100.423 E1.63541
G1 X129.96 Y101.179 E1.75851
G1 X132.613 Y101.869 E1.88296
G1 X135.4 Y102.509 E2.01279
G1 X138.05 Y103.041 E2.1355
G1 X140.926 Y103.535 E2.26798
G1 X141.504 Y103.687 E2.29511
G1 X141.974 Y103.888 E2.31832
G1 X142.482 Y104.2 E2.34539
G1 X142.969 Y104.614 E2.37441
G1 X143.371 Y105.103 E2.40314
G1 X145.175 Y108.03 E2.55924
G1 X146.976 Y110.759 E2.70769
G1 X147.551 Y111.599 E2.7539
G1 X147.865 Y112.154 E2.78285
G1 X148.048 Y112.631 E2.80605
G1 X148.211 Y113.37 E2.84041
G1 X148.228 Y114.29 E2.88218
G1 X148.228 Y120.593 E3.16834
G1 X148.216 Y121.34 E3.20226
G1 X148.169 Y121.85 E3.22551
G1 X148.018 Y122.472 E3.25457
G1 X147.737 Y123.125 E3.28684
G1 X145.937 Y125.787 E3.43273
G1 X144.461 Y128.11 E3.55768
G1 X143.974 Y128.929 E3.60094
G1 X143.452 Y129.769 E3.64584
G1 X143.001 Y130.345 E3.67906
G1 X142.176 Y131.189 E3.73264
G1 X140.298 Y133.152 E3.85598
G1 X139.749 Y133.758 E3.8931
G1 X139.035 Y134.523 E3.94061
G1 X138.659 Y134.869 E3.96381
G1 X138.166 Y135.205 E3.99089
G1 X137.587 Y135.479 E4.01997
G1 X136.968 Y135.645 E4.04907
G1 X136.343 Y135.716 E4.07763
G1 X125.926 Y135.72 E4.55056
G1 X125.004 Y135.701 E4.59243
G1 X124.327 Y135.653 E4.62324
G1 X121.593 Y135.497 E4.74757
G1 X118.845 Y135.418 E4.87238
G1 X116.162 Y135.418 E4.99419
G1 X113.419 Y135.495 E5.11877
G1 X110.137 Y135.693 E5.26804
G1 X108.798 Y135.72 E5.32884
G1 X99.376 Y135.72 E5.7566
G1 X98.631 Y135.708 E5.79043
G1 X98.122 Y135.66 E5.81364
G1 X97.5 Y135.509 E5.8427
G1 X96.992 Y135.291 E5.8678
G1 X96.445 Y134.954 E5.89697
G1 X95.965 Y134.523 E5.92626
G1 X93.711 Y132.097 E6.0766
G1 X92.001 Y130.358 E6.18732
G1 X91.539 Y129.758 E6.2217
G1 X89.834 Y126.985 E6.36949
G1 X88.077 Y124.32 E6.51441
G1 X87.448 Y123.398 E6.56508
G1 X87.134 Y122.841 E6.59411
G1 X86.928 Y122.282 E6.62116
G1 X86.811 Y121.698 E6.6482
G1 X86.773 Y121.003 E6.6798
G1 X86.771 Y114.407 E6.97926
G1 X86.783 Y113.66 E7.01318
G1 X86.83 Y113.15 E7.03643
G1 X86.971 Y112.57 E7.06353
G1 X87.262 Y111.874 E7.09778
G1 X89.052 Y109.23 E7.24274
G1 X90.517 Y106.925 E7.36673
G1 X91.045 Y106.037 E7.41364
G1 X91.535 Y105.247 E7.45584
G1 X91.892 Y104.769 E7.48293
G1 X92.254 Y104.408 E7.50614
G0 F6000 X92.64 Y104.795
G1 F600 X93.054 Y104.495 E7.52935
G1 X93.51 Y104.264 E7.55256
G1 X94.203 Y104.063 E7.58532
G1 X95.894 Y103.781 E7.66315
G1 X98.622 Y103.273 E7.78913
G1 X101.285 Y102.698 E7.91281
G1 X103.918 Y102.051 E8.03591
G1 X106.582 Y101.316 E8.16137
G1 X109.185 Y100.519 E8.28496
G1 X110.748 Y100.001 E8.35972
G1 X111.245 Y99.879 E8.38295
G1 X111.731 Y99.835 E8.40511
G1 X112.45 Y99.825 E8.43775
G1 X122.588 Y99.825 E8.89802
G1 X123.293 Y99.835 E8.93003
G1 X123.803 Y99.882 E8.95328
G1 X124.253 Y99.994 E8.97434
G1 X127.188 Y100.942 E9.11436
G1 X129.811 Y101.704 E9.23837
G1 X132.491 Y102.401 E9.36409
G1 X135.285 Y103.042 E9.49424
G1 X137.951 Y103.578 E9.61769
G1 X140.793 Y104.064 E9.74859
G1 X141.289 Y104.189 E9.77182
G1 X141.759 Y104.39 E9.79502
G1 X142.192 Y104.662 E9.81824
G1 X142.578 Y104.998 E9.84147
G1 X142.906 Y105.39 E9.86468
G1 X144.719 Y108.331 E10.02153
G1 X146.525 Y111.067 E10.17037
G1 X147.1 Y111.907 E10.21658
G1 X147.355 Y112.35 E10.23979
G1 X147.538 Y112.827 E10.26298
G1 X147.666 Y113.433 E10.2911
G1 X147.682 Y114.3 E10.33047
G1 X147.682 Y120.585 E10.61581
G1 X147.672 Y121.29 E10.64782
G1 X147.625 Y121.8 E10.67107
G1 X147.499 Y122.295 E10.69426
G1 X147.254 Y122.865 E10.72243
G1 X145.476 Y125.494 E10.86652
G1 X144 Y127.817 E10.99147
G1 X143.509 Y128.642 E11.03506
G1 X143.022 Y129.432 E11.07719
G1 X142.571 Y130.008 E11.11041
G1 X141.787 Y130.806 E11.16119
G1 X139.903 Y132.775 E11.28492
G1 X139.35 Y133.386 E11.32233
G1 X138.665 Y134.121 E11.36794
G1 X138.289 Y134.467 E11.39114
G1 X137.863 Y134.751 E11.41439
G1 X137.399 Y134.964 E11.43757
G1 X136.906 Y135.102 E11.46081
G1 X136.281 Y135.173 E11.48937
G1 X125.937 Y135.174 E11.95898
G1 X125.043 Y135.156 E11.99958
G1 X124.366 Y135.108 E12.03039
G1 X121.609 Y134.951 E12.15576
G1 X118.861 Y134.872 E12.28057
G1 X116.147 Y134.872 E12.40379
G1 X113.401 Y134.949 E12.52851
G1 X110.126 Y135.147 E12.67746
G1 X108.787 Y135.174 E12.73827
G1 X99.384 Y135.174 E13.16516
G1 X98.682 Y135.164 E13.19704
G1 X98.173 Y135.116 E13.22025
G1 X97.678 Y134.991 E13.24343
G1 X97.208 Y134.789 E13.26665
G1 X96.775 Y134.517 E13.28987
G1 X96.33 Y134.117 E13.31703
G1 X94.1 Y131.714 E13.46587
G1 X92.434 Y130.025 E13.57358
G1 X91.972 Y129.425 E13.60796
G1 X90.29 Y126.684 E13.75396
G1 X88.533 Y124.019 E13.89888
G1 X87.899 Y123.09 E13.94994
G1 X87.644 Y122.646 E13.97319
G1 X87.462 Y122.169 E13.99637
G1 X87.356 Y121.668 E14.01962
G1 X87.319 Y121.003 E14.04985
G1 X87.317 Y114.415 E14.34895
G1 X87.327 Y113.71 E14.38096
G1 X87.374 Y113.2 E14.40421
G1 X87.5 Y112.705 E14.4274
G1 X87.745 Y112.134 E14.45561
G1 X89.513 Y109.523 E14.59877
G1 X90.978 Y107.218 E14.72276
G1 X91.51 Y106.324 E14.76999
G1 X91.976 Y105.569 E14.81028
G1 X92.278 Y105.156 E14.8335
G1 X92.64 Y104.795 E14.85671
G1 F1200 E13.85671
G0 F6000 X90.863 Y114.006
G1 F1200 E14.85671
G1 F600 X91.469 Y113.957 E14.88432
G1 X91.529 Y113.945 E14.88709
G1 X92.288 Y113.706 E14.92322
G1 X92.322 Y113.693 E14.92487
G1 X92.676 Y113.526 E14.94264
G1 X92.716 Y113.503 E14.94474
G1 X93.071 Y113.255 E14.9644
G1 X93.111 Y113.222 E14.96675
G1 X93.453 Y112.871 E14.989
G1 X93.489 Y112.824 E14.99169
G1 X93.817 Y112.296 E15.01991
G1 X93.829 Y112.275 E15.02101
G1 X93.847 Y112.24 E15.02279
G1 X96.282 Y112.24 E15.13334
G1 X96.306 Y112.239 E15.13443
G1 X96.836 Y112.192 E15.15859
G1 X96.882 Y112.184 E15.16071
G1 X97.419 Y112.041 E15.18594
G1 X97.465 Y112.024 E15.18817
G1 X97.966 Y111.79 E15.21327
G1 X98.007 Y111.767 E15.21541
G1 X98.468 Y111.444 E15.24096
G1 X98.504 Y111.413 E15.24312
G1 X98.888 Y111.029 E15.26777
G1 X98.919 Y110.993 E15.26993
G1 X99.242 Y110.532 E15.29548
G1 X99.265 Y110.491 E15.29762
G1 X99.499 Y109.99 E15.32272
G1 X99.516 Y109.945 E15.32491
G1 X99.66 Y109.409 E15.3501
G1 X99.668 Y109.362 E15.35227
G1 X99.714 Y108.84 E15.37606
G1 X99.715 Y108.816 E15.37715
G1 X99.715 Y106.711 E15.47272
G1 X108.548 Y106.704 E15.87374
G1 X108.572 Y106.703 E15.87483
G1 X109.197 Y106.647 E15.90332
G1 X109.231 Y106.642 E15.90488
G1 X109.804 Y106.517 E15.9315
G1 X109.843 Y106.505 E15.93335
G1 X110.307 Y106.329 E15.95588
G1 X110.342 Y106.313 E15.95763
G1 X110.647 Y106.144 E15.97346
G1 X110.691 Y106.114 E15.97588
G1 X111.09 Y105.779 E15.99953
G1 X111.12 Y105.749 E16.00146
G1 X111.368 Y105.463 E16.01865
G1 X111.396 Y105.425 E16.02079
G1 X111.601 Y105.085 E16.03881
G1 X111.621 Y105.043 E16.04092
G1 X111.782 Y104.631 E16.06101
G1 X111.791 Y104.604 E16.0623
G1 X111.985 Y103.899 E16.0955
G1 X111.994 Y103.846 E16.09794
G1 X112.028 Y103.371 E16.11956
G1 X122.995 Y103.371 E16.61746
G1 X123.008 Y103.561 E16.62611
G1 X123.009 Y103.579 E16.62692
G1 X123.081 Y104.108 E16.65116
G1 X123.087 Y104.137 E16.65251
G1 X123.267 Y104.862 E16.68642
G1 X123.296 Y104.934 E16.68995
G1 X123.586 Y105.43 E16.71603
G1 X123.612 Y105.467 E16.71808
G1 X123.869 Y105.775 E16.73629
G1 X123.911 Y105.815 E16.73893
G1 X124.245 Y106.077 E16.7582
G1 X124.292 Y106.107 E16.76073
G1 X124.885 Y106.399 E16.79074
G1 X124.935 Y106.418 E16.79317
G1 X125.675 Y106.618 E16.82797
G1 X125.713 Y106.625 E16.82973
G1 X126.201 Y106.684 E16.85204
G1 X126.222 Y106.686 E16.853
G1 X126.816 Y106.712 E16.87999
G1 X135.284 Y106.712 E17.26444
G1 X135.284 Y108.805 E17.35946
G1 X135.285 Y108.829 E17.36055
G1 X135.332 Y109.361 E17.3848
G1 X135.34 Y109.407 E17.38692
G1 X135.483 Y109.944 E17.41215
G1 X135.5 Y109.99 E17.41438
G1 X135.734 Y110.491 E17.43948
G1 X135.757 Y110.532 E17.44161
G1 X136.08 Y110.993 E17.46717
G1 X136.111 Y111.029 E17.46933
G1 X136.495 Y111.413 E17.49398
G1 X136.531 Y111.444 E17.49614
G1 X136.992 Y111.767 E17.52169
G1 X137.033 Y111.79 E17.52383
G1 X137.534 Y112.024 E17.54893
G1 X137.579 Y112.041 E17.55112
G1 X138.115 Y112.185 E17.57631
G1 X138.162 Y112.193 E17.57848
G1 X138.684 Y112.239 E17.60227
G1 X138.708 Y112.24 E17.60336
G1 X141.137 Y112.24 E17.71364
G1 X141.156 Y112.29 E17.71606
G1 X141.18 Y112.339 E17.71854
G1 X141.501 Y112.838 E17.74548
G1 X141.527 Y112.871 E17.74739
G1 X141.791 Y113.168 E17.76543
G1 X141.839 Y113.211 E17.76835
G1 X142.276 Y113.516 E17.79255
G1 X142.322 Y113.542 E17.79495
G1 X142.958 Y113.822 E17.82649
G1 X143.005 Y113.838 E17.82875
G1 X143.396 Y113.931 E17.847
G1 X143.424 Y113.936 E17.84829
G1 X143.946 Y114.003 E17.87218
G1 X143.967 Y114.005 E17.87314
G1 X144.136 Y114.014 E17.88082
G1 X144.136 Y120.978 E18.19699
G1 X143.939 Y120.982 E18.20593
G1 X143.898 Y120.986 E18.2078
G1 X143.122 Y121.12 E18.24356
G1 X143.07 Y121.134 E18.246
G1 X142.614 Y121.309 E18.26817
G1 X142.578 Y121.326 E18.26998
G1 X142.052 Y121.621 E18.29736
G1 X142 Y121.659 E18.30029
G1 X141.622 Y122.012 E18.32377
G1 X141.586 Y122.053 E18.32624
G1 X141.334 Y122.405 E18.3459
G1 X141.313 Y122.44 E18.34775
G1 X141.15 Y122.759 E18.36401
G1 X138.717 Y122.759 E18.47447
G1 X138.693 Y122.76 E18.47556
G1 X138.163 Y122.807 E18.49972
G1 X138.117 Y122.815 E18.50184
G1 X137.58 Y122.958 E18.52707
G1 X137.534 Y122.975 E18.5293
G1 X137.033 Y123.209 E18.5544
G1 X136.992 Y123.232 E18.55653
G1 X136.531 Y123.555 E18.58209
G1 X136.495 Y123.586 E18.58425
G1 X136.111 Y123.97 E18.6089
G1 X136.08 Y124.006 E18.61106
G1 X135.757 Y124.467 E18.63661
G1 X135.734 Y124.508 E18.63875
G1 X135.5 Y125.009 E18.66385
G1 X135.483 Y125.054 E18.66604
G1 X135.339 Y125.59 E18.69123
G1 X135.331 Y125.637 E18.6934
G1 X135.285 Y126.156 E18.71705
G1 X135.284 Y126.18 E18.71814
G1 X135.284 Y128.4 E18.81893
G1 X135.323 Y128.541 E18.82557
G1 X135.43 Y128.642 E18.83225
G1 X135.557 Y128.673 E18.83819
G1 X136.002 Y128.673 E18.85839
G1 X136.002 Y131.628 E18.99255
G1 X125.535 Y131.628 E19.46775
G1 X125.502 Y131.04 E19.49449
G1 X125.489 Y130.971 E19.49768
G1 X125.189 Y130.047 E19.54178
G1 X125.169 Y130.001 E19.54406
G1 X124.892 Y129.491 E19.57041
G1 X124.856 Y129.44 E19.57324
G1 X124.438 Y128.969 E19.60183
G1 X124.404 Y128.937 E19.60395
G1 X123.973 Y128.593 E19.62899
G1 X123.951 Y128.577 E19.63022
G1 X123.571 Y128.331 E19.65077
G1 X123.434 Y128.29 E19.65727
G1 X123.424 Y128.092 E19.66627
G1 X123.42 Y128.059 E19.66778
G1 X123.28 Y127.258 E19.70469
G1 X123.266 Y127.207 E19.70709
G1 X123.037 Y126.611 E19.73608
G1 X123.021 Y126.578 E19.73775
G1 X122.849 Y126.264 E19.754
G1 X122.82 Y126.22 E19.75639
G1 X122.538 Y125.882 E19.77638
G1 X122.498 Y125.844 E19.77888
G1 X122.084 Y125.514 E19.80292
G1 X122.042 Y125.486 E19.80521
G1 X121.721 Y125.316 E19.8217
G1 X121.687 Y125.301 E19.82339
G1 X121.216 Y125.129 E19.84615
G1 X121.178 Y125.118 E19.84795
G1 X120.661 Y125.009 E19.87194
G1 X120.629 Y125.004 E19.87341
G1 X119.994 Y124.947 E19.90235
G1 X119.969 Y124.946 E19.90349
G1 X114.869 Y124.958 E20.13503
G1 X114.839 Y124.96 E20.13639
G1 X114.164 Y125.036 E20.16723
G1 X114.13 Y125.042 E20.1688
G1 X113.64 Y125.163 E20.19172
G1 X113.593 Y125.179 E20.19397
G1 X113.022 Y125.435 E20.22238
G1 X112.962 Y125.472 E20.22558
G1 X112.486 Y125.858 E20.2534
G1 X112.447 Y125.897 E20.25591
G1 X112.192 Y126.208 E20.27416
G1 X112.165 Y126.247 E20.27632
G1 X112.006 Y126.53 E20.29106
G1 X111.987 Y126.571 E20.29311
G1 X111.727 Y127.285 E20.32761
G1 X111.718 Y127.315 E20.32903
G1 X111.608 Y127.778 E20.35063
G1 X111.602 Y127.823 E20.35269
G1 X111.571 Y128.292 E20.37403
G1 X111.435 Y128.334 E20.38049
G1 X110.89 Y128.701 E20.41032
G1 X110.864 Y128.72 E20.41179
G1 X110.51 Y129.023 E20.43294
G1 X110.477 Y129.057 E20.43509
G1 X110.077 Y129.547 E20.46381
G1 X110.047 Y129.592 E20.46627
G1 X109.87 Y129.926 E20.48343
G1 X109.855 Y129.958 E20.48503
G1 X109.618 Y130.591 E20.51572
G1 X109.605 Y130.64 E20.51802
G1 X109.467 Y131.43 E20.55443
G1 X109.463 Y131.467 E20.55612
G1 X109.457 Y131.628 E20.56343
G1 X98.994 Y131.628 E21.03845
G1 X98.979 Y130.26 E21.10056
G1 X98.978 Y130.243 E21.10134
G1 X98.925 Y129.504 E21.13497
G1 X98.921 Y129.472 E21.13644
G1 X98.765 Y128.673 E21.1734
G1 X99.442 Y128.673 E21.20413
G1 X99.583 Y128.634 E21.21078
G1 X99.684 Y128.527 E21.21746
G1 X99.715 Y128.4 E21.22339
G1 X99.715 Y126.192 E21.32363
G1 X99.714 Y126.168 E21.32473
G1 X99.667 Y125.638 E21.34888
G1 X99.659 Y125.592 E21.351
G1 X99.516 Y125.055 E21.37623
G1 X99.499 Y125.009 E21.37846
G1 X99.265 Y124.508 E21.40356
G1 X99.242 Y124.467 E21.4057
G1 X98.919 Y124.006 E21.43125
G1 X98.888 Y123.97 E21.43341
G1 X98.504 Y123.586 E21.45806
G1 X98.468 Y123.555 E21.46022
G1 X98.007 Y123.232 E21.48578
G1 X97.966 Y123.209 E21.48791
G1 X97.465 Y122.975 E21.51301
G1 X97.42 Y122.958 E21.5152
G1 X96.884 Y122.814 E21.54039
G1 X96.837 Y122.806 E21.54256
G1 X96.315 Y122.76 E21.56635
G1 X96.291 Y122.759 E21.56744
G1 X93.87 Y122.759 E21.67735
G1 X93.631 Y122.314 E21.70029
G1 X93.604 Y122.272 E21.70255
G1 X93.339 Y121.942 E21.72177
G1 X93.3 Y121.903 E21.72427
G1 X92.906 Y121.577 E21.74749
G1 X92.862 Y121.547 E21.74991
G1 X92.512 Y121.357 E21.76799
G1 X92.477 Y121.341 E21.76973
G1 X91.958 Y121.148 E21.79487
G1 X91.92 Y121.137 E21.79667
G1 X91.5 Y121.047 E21.81617
G1 X91.465 Y121.042 E21.81778
G1 X90.863 Y120.993 E21.8452
G1 X90.863 Y114.006 E22.16241
G0 F6000 X91.409 Y114.509
G1 F600 X91.513 Y114.501 E22.16714
G1 X91.693 Y114.466 E22.17547
G1 X92.452 Y114.227 E22.21159
G1 X92.555 Y114.187 E22.21661
G1 X92.909 Y114.02 E22.23438
G1 X93.029 Y113.95 E22.24069
G1 X93.384 Y113.702 E22.26035
G1 X93.502 Y113.603 E22.26734
G1 X93.844 Y113.252 E22.28959
G1 X93.953 Y113.112 E22.29765
G1 X94.156 Y112.786 E22.31508
G1 X96.282 Y112.786 E22.4116
G1 X96.354 Y112.783 E22.41487
G1 X96.884 Y112.736 E22.43903
G1 X97.023 Y112.711 E22.44544
G1 X97.56 Y112.568 E22.47067
G1 X97.696 Y112.519 E22.47723
G1 X98.197 Y112.285 E22.50234
G1 X98.32 Y112.214 E22.50879
G1 X98.781 Y111.891 E22.53434
G1 X98.89 Y111.799 E22.54082
G1 X99.274 Y111.415 E22.56547
G1 X99.366 Y111.306 E22.57195
G1 X99.689 Y110.845 E22.5975
G1 X99.76 Y110.722 E22.60395
G1 X99.994 Y110.221 E22.62906
G1 X100.043 Y110.086 E22.63558
G1 X100.187 Y109.55 E22.66077
G1 X100.212 Y109.41 E22.66723
G1 X100.258 Y108.888 E22.69102
G1 X100.261 Y108.816 E22.69429
G1 X100.261 Y107.256 E22.76512
G1 X108.549 Y107.25 E23.14139
G1 X108.621 Y107.247 E23.14466
G1 X109.246 Y107.191 E23.17315
G1 X109.348 Y107.175 E23.17784
G1 X109.921 Y107.05 E23.20447
G1 X110.036 Y107.016 E23.20991
