;FLAVOR:Marlin
;TIME:553
;Filament used: 0.368801m
;Layer height: 0.2
;MINX:100.865
;MINY:102.363
;MINZ:0.2
;MAXX:134.115
;MAXY:133.476
;MAXZ:5.4
;TARGET_MACHINE.NAME:ELEGOO NEPTUNE 3 Pro
;Generated with Cura_SteamEngine 5.7.2
M140 S105
M105
M190 S105
M104 S250
M105
M109 S250
M82 ;absolute extrusion mode
;ELEGOO NEPTUNE 3 Pro
M220 S100 ;Set the feed speed to 100%
M221 S100 ;Set the flow rate to 100%
G90
G28 ;home
;M420 S1 Z10;Uncomment to enable progressive compensation height of 10mm
G92 E0 ;Reset Extruder
G1 Z0.45 F300
G1 X1.5 Y20 F5000.0 ;Move to start position
G1 Y120.0 F600.0 E15 ;Draw the first line
G1 X0.5 F1000.0 ;Move to side a little
G1 Y20 F600 E30 ;Draw the second line
G92 E0 ;Reset Extruder
G92 E0
G92 E0
G1 F1200 E-1
;LAYER_COUNT:27
;LAYER:0
M106 S38.2
M204 S500
G0 F6000 X104.961 Y106.833 Z0.2
;TYPE:SKIRT
G1 F1200 E0
G1 F600 X107.72 Y104.074 E0.17714
G1 X108.273 Y103.543 E0.21195
G1 X108.801 Y103.122 E0.24261
G1 X109.241 Y102.861 E0.26583
G1 X109.865 Y102.6 E0.29654
G1 X110.762 Y102.381 E0.33846
G1 X111.781 Y102.363 E0.38473
G1 X123.121 Y102.363 E0.89957
G1 X123.908 Y102.377 E0.9353
G1 X124.495 Y102.438 E0.9621
G1 X125.162 Y102.6 E0.99326
G1 X125.783 Y102.873 E1.02406
G1 X126.487 Y103.307 E1.0616
G1 X127.143 Y103.934 E1.1028
G1 X129.922 Y106.713 E1.28123
G1 X130.454 Y107.266 E1.31607
G1 X130.829 Y107.729 E1.34312
G1 X131.187 Y108.319 E1.37445
G1 X131.449 Y109.01 E1.408
G1 X132.319 Y112.095 E1.55352
G1 X133.125 Y114.659 E1.67554
G1 X133.786 Y116.603 E1.76876
G1 X133.975 Y117.316 E1.80225
G1 X134.092 Y118.07 E1.83689
G1 X134.115 Y118.757 E1.8681
G1 X134.066 Y119.577 E1.9054
G1 X133.919 Y120.434 E1.94487
G1 X133.715 Y121.097 E1.97636
G1 X133.469 Y121.695 E2.00572
G1 X132.823 Y123.049 E2.07383
G1 X131.49 Y125.982 E2.2201
G1 X131.23 Y126.572 E2.24937
G1 X130.944 Y127.111 E2.27707
G1 X130.392 Y127.811 E2.31754
G1 X127.295 Y130.914 E2.51658
G1 X126.739 Y131.45 E2.55164
G1 X126.345 Y131.776 E2.57486
G1 X125.698 Y132.176 E2.60939
G1 X124.929 Y132.484 E2.647
G1 X123.811 Y132.687 E2.69859
G1 X121.567 Y133.137 E2.80249
G1 X120.244 Y133.389 E2.86364
G1 X119.547 Y133.459 E2.89544
G1 X118.593 Y133.476 E2.93876
G1 X116.207 Y133.476 E3.04708
G1 X115.406 Y133.46 E3.08346
G1 X114.811 Y133.396 E3.11063
G1 X111.947 Y132.828 E3.24318
G1 X110.373 Y132.536 E3.31586
G1 X109.803 Y132.379 E3.34271
G1 X109.17 Y132.106 E3.374
G1 X108.56 Y131.701 E3.40724
G1 X108.168 Y131.368 E3.4306
G1 X105.076 Y128.281 E3.62896
G1 X104.544 Y127.727 E3.66383
G1 X104.158 Y127.26 E3.69134
G1 X103.748 Y126.524 E3.72959
G1 X102.587 Y123.906 E3.85961
G1 X101.52 Y121.661 E3.97246
G1 X101.298 Y121.129 E3.99863
G1 X101.047 Y120.35 E4.03578
G1 X100.9 Y119.317 E4.08315
G1 X100.865 Y118.321 E4.1284
G1 X101.058 Y117.175 E4.18116
G1 X101.204 Y116.64 E4.20634
G1 X101.936 Y114.481 E4.30984
G1 X102.733 Y111.918 E4.4317
G1 X103.245 Y110.121 E4.51653
G1 X103.53 Y109.083 E4.5654
G1 X103.767 Y108.439 E4.59655
G1 X104.09 Y107.838 E4.62753
G1 X104.557 Y107.256 E4.6614
G1 X104.961 Y106.833 E4.68796
G0 F6000 X105.355 Y107.211
G1 F600 X108.099 Y104.467 E4.86414
G1 X108.617 Y103.967 E4.89683
G1 X109.08 Y103.592 E4.92388
G1 X109.52 Y103.331 E4.9471
G1 X110.072 Y103.105 E4.97418
G1 X110.83 Y102.926 E5.00954
G1 X111.791 Y102.909 E5.05318
G1 X123.112 Y102.909 E5.56715
G1 X123.857 Y102.921 E5.60098
G1 X124.366 Y102.969 E5.62419
G1 X124.988 Y103.12 E5.65325
G1 X125.496 Y103.338 E5.67835
G1 X126.153 Y103.743 E5.71339
G1 X126.766 Y104.329 E5.75189
G1 X129.53 Y107.093 E5.92935
G1 X130.03 Y107.61 E5.962
G1 X130.405 Y108.073 E5.98905
G1 X130.692 Y108.555 E6.01452
G1 X130.938 Y109.204 E6.04603
G1 X131.798 Y112.259 E6.19012
G1 X132.608 Y114.835 E6.31272
G1 X133.269 Y116.779 E6.40594
G1 X133.436 Y117.402 E6.43522
G1 X133.546 Y118.091 E6.4669
G1 X133.57 Y118.724 E6.49566
G1 X133.521 Y119.544 E6.53295
G1 X133.397 Y120.273 E6.56652
G1 X133.193 Y120.936 E6.59801
G1 X132.976 Y121.46 E6.62376
G1 X132.33 Y122.814 E6.69187
G1 X130.993 Y125.756 E6.83859
G1 X130.748 Y126.316 E6.86634
G1 X130.485 Y126.812 E6.89183
G1 X130.006 Y127.425 E6.92714
G1 X126.915 Y130.522 E7.1258
G1 X126.391 Y131.029 E7.1589
G1 X125.997 Y131.355 E7.18212
G1 X125.453 Y131.686 E7.21103
G1 X124.776 Y131.957 E7.24413
G1 X123.713 Y132.15 E7.29318
G1 X121.46 Y132.602 E7.39751
G1 X120.188 Y132.846 E7.45631
G1 X119.537 Y132.913 E7.48602
G1 X118.583 Y132.93 E7.52934
G1 X116.216 Y132.93 E7.6368
G1 X115.464 Y132.917 E7.67095
G1 X114.869 Y132.853 E7.69811
G1 X112.046 Y132.291 E7.82879
G1 X110.513 Y132.008 E7.89957
G1 X110.019 Y131.877 E7.92277
G1 X109.429 Y131.623 E7.95193
G1 X108.912 Y131.284 E7.98
G1 X108.554 Y130.982 E8.00127
G1 X105.469 Y127.902 E8.19918
G1 X104.965 Y127.379 E8.23215
G1 X104.609 Y126.949 E8.2575
G1 X104.247 Y126.303 E8.29112
G1 X103.08 Y123.671 E8.42183
G1 X102.024 Y121.451 E8.53344
G1 X101.802 Y120.919 E8.55961
G1 X101.581 Y120.226 E8.59263
G1 X101.446 Y119.298 E8.63521
G1 X101.413 Y118.357 E8.67796
G1 X101.585 Y117.319 E8.72573
G1 X101.731 Y116.784 E8.7509
G1 X102.453 Y114.656 E8.85292
G1 X103.258 Y112.068 E8.97597
G1 X103.772 Y110.266 E9.06105
G1 X104.057 Y109.228 E9.10991
G1 X104.279 Y108.629 E9.13892
G1 X104.546 Y108.142 E9.16413
G1 X104.983 Y107.598 E9.19581
G1 X105.355 Y107.211 E9.22018
G0 F6000 X105.749 Y107.589
G1 F600 X108.479 Y104.859 E9.39546
G1 X108.965 Y104.388 E9.42619
G1 X109.359 Y104.062 E9.44941
G1 X109.799 Y103.801 E9.47263
G1 X110.274 Y103.612 E9.49584
G1 X110.896 Y103.471 E9.5248
G1 X111.801 Y103.455 E9.56589
G1 X123.104 Y103.455 E10.07905
G1 X123.806 Y103.465 E10.11092
G1 X124.315 Y103.513 E10.13413
G1 X124.81 Y103.638 E10.15731
G1 X125.28 Y103.84 E10.18054
G1 X125.815 Y104.176 E10.20922
G1 X126.389 Y104.724 E10.24525
G1 X129.138 Y107.473 E10.42175
G1 X129.61 Y107.959 E10.45251
G1 X129.936 Y108.352 E10.47569
G1 X130.198 Y108.792 E10.49894
G1 X130.412 Y109.352 E10.52615
G1 X131.277 Y112.423 E10.671
G1 X132.091 Y115.011 E10.79417
G1 X132.752 Y116.955 E10.88739
G1 X132.897 Y117.491 E10.9126
G1 X133 Y118.112 E10.94118
G1 X133.024 Y118.745 E10.96994
G1 X132.982 Y119.456 E11.00228
G1 X132.875 Y120.114 E11.03254
G1 X132.688 Y120.728 E11.06168
G1 X132.483 Y121.225 E11.08609
G1 X131.837 Y122.579 E11.1542
G1 X130.496 Y125.53 E11.30136
G1 X130.266 Y126.06 E11.32759
G1 X130.026 Y126.512 E11.35082
G1 X129.619 Y127.039 E11.38105
G1 X126.535 Y130.13 E11.57929
G1 X126.043 Y130.608 E11.61043
G1 X125.649 Y130.934 E11.63365
G1 X125.21 Y131.195 E11.65683
G1 X124.623 Y131.43 E11.68554
G1 X123.615 Y131.613 E11.73205
G1 X121.353 Y132.067 E11.83679
G1 X120.085 Y132.31 E11.89541
G1 X119.527 Y132.367 E11.92087
G1 X118.573 Y132.384 E11.96419
G1 X116.224 Y132.384 E12.07084
G1 X115.522 Y132.374 E12.10271
G1 X114.927 Y132.31 E12.12988
G1 X112.145 Y131.754 E12.25868
G1 X110.653 Y131.48 E12.32755
G1 X110.159 Y131.349 E12.35075
G1 X109.691 Y131.142 E12.37399
G1 X109.262 Y130.865 E12.39717
G1 X108.94 Y130.596 E12.41622
G1 X105.861 Y127.522 E12.61375
G1 X105.386 Y127.031 E12.64476
G1 X105.06 Y126.637 E12.66798
G1 X104.746 Y126.082 E12.69693
G1 X103.573 Y123.436 E12.82833
G1 X102.527 Y121.239 E12.93881
G1 X102.322 Y120.753 E12.96275
G1 X102.115 Y120.104 E12.99368
G1 X101.992 Y119.279 E13.03155
G1 X101.961 Y118.391 E13.07189
G1 X102.112 Y117.463 E13.11457
G1 X102.258 Y116.928 E13.13975
G1 X102.97 Y114.832 E13.24025
G1 X103.783 Y112.218 E13.36453
G1 X104.299 Y110.411 E13.44985
G1 X104.584 Y109.373 E13.49872
G1 X104.758 Y108.892 E13.52194
G1 X105.004 Y108.444 E13.54515
G1 X105.377 Y107.976 E13.57232
G1 X105.749 Y107.589 E13.59669
G1 F1200 E12.59669
G0 F6000 X116.147 Y108.167
G1 F1200 E13.59669
G1 F600 X116.266 Y108.071 E13.60363
G1 X116.632 Y107.857 E13.62288
G1 X116.995 Y107.728 E13.64037
G1 X117.502 Y107.659 E13.6636
G1 X118.009 Y107.728 E13.68683
G1 X118.372 Y107.857 E13.70432
G1 X118.738 Y108.071 E13.72356
G1 X118.857 Y108.167 E13.73051
G1 X119.158 Y108.491 E13.75058
G1 X119.25 Y108.624 E13.75793
G1 X119.437 Y109.001 E13.77703
G1 X119.549 Y109.416 E13.79655
G1 X119.567 Y109.557 E13.803
G1 X119.557 Y109.985 E13.82244
G1 X119.47 Y110.374 E13.84053
G1 X119.312 Y110.738 E13.85855
G1 X119.085 Y111.065 E13.87662
G1 X118.784 Y111.36 E13.89576
G1 X118.649 Y111.459 E13.90336
G1 X118.284 Y111.652 E13.9221
G1 X117.899 Y111.765 E13.94032
G1 X117.501 Y111.804 E13.95847
G1 X117.107 Y111.766 E13.97644
G1 X116.72 Y111.651 E13.99477
G1 X116.351 Y111.457 E14.0137
G1 X116.221 Y111.36 E14.02106
G1 X115.919 Y111.065 E14.04023
G1 X115.693 Y110.74 E14.0582
G1 X115.526 Y110.355 E14.07725
G1 X115.483 Y110.198 E14.08465
G1 X115.431 Y109.783 E14.10363
G1 X115.462 Y109.384 E14.1218
G1 X115.565 Y109.005 E14.13963
G1 X115.754 Y108.624 E14.15894
G1 X115.846 Y108.491 E14.16628
G1 X116.147 Y108.167 E14.18636
G0 F6000 X116.518 Y108.57
G1 F600 X116.579 Y108.521 E14.18991
G1 X116.862 Y108.355 E14.20481
G1 X117.126 Y108.261 E14.21753
G1 X117.502 Y108.21 E14.23476
G1 X117.878 Y108.261 E14.25199
G1 X118.142 Y108.355 E14.26471
G1 X118.425 Y108.521 E14.2796
G1 X118.486 Y108.57 E14.28316
G1 X118.729 Y108.831 E14.29935
G1 X118.779 Y108.903 E14.30333
G1 X118.924 Y109.195 E14.31813
G1 X119.014 Y109.527 E14.33374
G1 X119.021 Y109.58 E14.33617
G1 X119.012 Y109.918 E14.35152
G1 X118.947 Y110.208 E14.36501
G1 X118.833 Y110.471 E14.37803
G1 X118.666 Y110.711 E14.3913
G1 X118.428 Y110.944 E14.40642
G1 X118.363 Y110.992 E14.41009
G1 X118.074 Y111.145 E14.42494
G1 X117.795 Y111.227 E14.43814
G1 X117.501 Y111.256 E14.45155
G1 X117.213 Y111.228 E14.46469
G1 X116.927 Y111.143 E14.47824
G1 X116.645 Y110.994 E14.49272
G1 X116.575 Y110.942 E14.49667
G1 X116.34 Y110.713 E14.51157
G1 X116.171 Y110.47 E14.52501
G1 X116.043 Y110.174 E14.53965
G1 X116.02 Y110.092 E14.54352
G1 X115.98 Y109.773 E14.55811
G1 X116.003 Y109.474 E14.57173
G1 X116.078 Y109.2 E14.58463
G1 X116.225 Y108.903 E14.59967
G1 X116.275 Y108.831 E14.60365
G1 X116.518 Y108.57 E14.61984
G1 F1200 E13.61984
G0 F6000 X117.169 Y124.227
G1 F1200 E14.61984
G1 F600 X117.608 Y124.205 E14.6398
G1 X118.002 Y124.263 E14.65788
G1 X118.383 Y124.399 E14.67624
G1 X118.753 Y124.621 E14.69583
G1 X118.879 Y124.721 E14.70314
G1 X119.154 Y125.025 E14.72175
G1 X119.37 Y125.384 E14.74077
G1 X119.507 Y125.761 E14.75898
G1 X119.569 Y126.161 E14.77735
G1 X119.551 Y126.564 E14.79567
G1 X119.454 Y126.959 E14.81414
G1 X119.285 Y127.321 E14.83227
G1 X118.758 Y128.048 E14.87304
G1 X118.707 Y128.185 E14.87968
G1 X118.736 Y128.332 E14.88648
G1 X118.994 Y128.838 E14.91226
G1 X116.01 Y128.838 E15.04774
G1 X116.268 Y128.332 E15.07352
G1 X116.297 Y128.189 E15.08015
G1 X116.246 Y128.048 E15.08696
G1 X115.719 Y127.321 E15.12772
G1 X115.55 Y126.959 E15.14586
G1 X115.453 Y126.564 E15.16432
G1 X115.435 Y126.161 E15.18264
G1 X115.497 Y125.76 E15.20106
G1 X115.634 Y125.383 E15.21927
G1 X115.863 Y125.005 E15.23934
G1 X115.953 Y124.894 E15.24582
G1 X116.267 Y124.611 E15.26502
G1 X116.63 Y124.395 E15.28419
G1 X117.018 Y124.256 E15.3029
G1 X117.169 Y124.227 E15.30989
G0 F6000 X117.239 Y124.77
G1 F600 X117.581 Y124.753 E15.32543
G1 X117.869 Y124.795 E15.33864
G1 X118.145 Y124.894 E15.35196
G1 X118.442 Y125.072 E15.36768
G1 X118.503 Y125.121 E15.37123
G1 X118.716 Y125.355 E15.38559
G1 X118.875 Y125.619 E15.39959
G1 X118.977 Y125.9 E15.41316
G1 X119.021 Y126.19 E15.42647
G1 X119.009 Y126.484 E15.43983
G1 X118.937 Y126.775 E15.45344
G1 X118.812 Y127.043 E15.46687
G1 X118.316 Y127.727 E15.50523
G1 X118.2 Y127.955 E15.51684
G1 X118.16 Y128.207 E15.52843
G1 X118.173 Y128.292 E15.53233
G1 X116.834 Y128.292 E15.59312
G1 X116.834 Y128.083 E15.60261
G1 X116.756 Y127.84 E15.6142
G1 X116.688 Y127.727 E15.62018
G1 X116.192 Y127.043 E15.65854
G1 X116.067 Y126.775 E15.67197
G1 X115.995 Y126.484 E15.68558
G1 X115.983 Y126.19 E15.69894
G1 X116.028 Y125.898 E15.71235
G1 X116.128 Y125.621 E15.72572
G1 X116.31 Y125.32 E15.74169
G1 X116.35 Y125.272 E15.74453
G1 X116.593 Y125.052 E15.75941
G1 X116.863 Y124.892 E15.77366
G1 X117.159 Y124.785 E15.78795
G1 X117.239 Y124.77 E15.79164
G0 F6000 X117.281 Y125.256
;TYPE:SUPPORT
G1 F780 X117.552 Y125.24 E15.80065
G1 X117.948 Y125.336 E15.81417
G1 X118.171 Y125.477 E15.82292
G1 X118.434 Y125.829 E15.8375
G1 X118.532 Y126.223 E15.85097
G1 X118.527 Y126.407 E15.85707
G1 X118.384 Y126.8 E15.87095
G1 X117.656 Y127.806 E15.91215
G1 X117.344 Y127.806 E15.9225
G1 X116.616 Y126.8 E15.9637
G1 X116.477 Y126.416 E15.97725
G1 X116.5 Y126.008 E15.9908
G1 X116.711 Y125.593 E16.00625
G1 X116.877 Y125.446 E16.01361
G1 X117.281 Y125.256 E16.02842
G0 F6000 X117.594 Y125.465
G1 F600 X116.934 Y126.88 E16.09576
G0 F6000 X117.205 Y127.256
G1 F600 X117.646 Y127.461 E16.11673
G1 F1200 E15.11673
G0 F6000 X118.293 Y126.218
G1 F1200 E16.11673
G1 F600 X117.005 Y125.618 E16.17802
G1 F1200 E15.17802
G0 F6000 X117.296 Y110.75
G1 F1200 E16.17802
G1 F780 X116.886 Y110.569 E16.19289
G1 X116.595 Y110.233 E16.20763
G1 X116.493 Y109.978 E16.21675
G1 X116.465 Y109.768 E16.22378
G1 X116.534 Y109.363 E16.23741
G1 X116.651 Y109.134 E16.24594
G1 X116.844 Y108.925 E16.25538
G1 X117.246 Y108.732 E16.27017
G1 X117.501 Y108.696 E16.27871
G1 X117.757 Y108.732 E16.28729
G1 X118.202 Y108.955 E16.3038
G1 X118.353 Y109.137 E16.31165
G1 X118.532 Y109.606 E16.32831
G1 X118.526 Y109.844 E16.3362
G1 X118.404 Y110.23 E16.34963
G1 X118.098 Y110.581 E16.36508
G1 X117.697 Y110.75 E16.37952
G1 X117.296 Y110.75 E16.39282
G0 F6000 X117.729 Y110.508
G1 F600 X116.757 Y110.055 E16.43908
G0 F6000 X116.938 Y110.307
G1 F600 X117.585 Y108.92 E16.50509
G1 X117.658 Y108.93
G1 X118.053 Y109.114 E16.52388
G1 F1200 E15.52388
;MESH:Laser sensor case pt2.stl
G0 F6000 X120.791 Y110.802
G0 X120.5 Y112.181
G0 X120.438 Y112.221
;TYPE:WALL-INNER
G1 F1200 E16.52388
G1 F600 X125.516 Y112.221 E16.75442
G1 X126.008 Y112.384 E16.77795
G1 F543.3 X126.392 Y113.04 E16.81607
G1 X126.449 Y112.164 E16.86008
G1 F600 X126.449 Y110.576 E16.93218
G1 X123.42 Y107.547 E17.12665
G1 X120.661 Y107.547 E17.25191
G1 X120.807 Y107.771 E17.26405
G1 X121.103 Y108.372 E17.29447
G1 X121.292 Y109.065 E17.32708
G1 X121.339 Y109.533 E17.34843
G1 X121.326 Y110.197 E17.37858
G1 X121.163 Y110.925 E17.41245
G1 X120.861 Y111.609 E17.4464
G1 X120.438 Y112.221 E17.48018
G0 F6000 X120.5 Y112.181
G0 X126.356 Y112.203
G0 X126.428 Y113.04
G0 X126.392 Y113.04
G1 F482.5 X126.392 Y116.562 E17.67902
G1 F570.7 X125.92 Y117.003 E17.70985
G1 F1200 E16.70985
G0 F6000 X125.597 Y117.192
G0 X109.048 Y116.785
G0 X108.594 Y116.559
G1 F1200 E17.70985
G1 F468 X108.608 Y116.248 E17.72797
G1 F496.4 X108.608 Y113.04 E17.90403
G1 F543.3 X108.992 Y112.384 E17.94214
G1 F600 X109.484 Y112.221 E17.96567
G1 X114.563 Y112.221 E18.19626
G1 X114.135 Y111.6 E18.2305
G1 X113.842 Y110.93 E18.2637
G1 X113.735 Y110.498 E18.2839
G1 X113.649 Y109.822 E18.31484
G1 X113.705 Y109.085 E18.3484
G1 X113.897 Y108.37 E18.38201
G1 X114.193 Y107.771 E18.41234
G1 X114.339 Y107.547 E18.42448
G1 X111.58 Y107.547 E18.54974
G1 X108.551 Y110.576 E18.74422
G1 X108.551 Y112.164 E18.81631
G1 F543.3 X108.608 Y113.04 E18.86033
G0 F6000 X108.642 Y113.04
G0 X108.881 Y117.231
G0 X109.602 Y117.437
G0 X110.011 Y118.55
G0 X109.949 Y119.32
G0 X108.642 Y120.893
G0 X108.455 Y120.893
G1 F600 X108.551 Y121.256 E18.87738
G1 X108.551 Y124.42 E19.02102
G1 X111.58 Y127.449 E19.2155
G1 X113.844 Y127.449 E19.31829
G1 X113.689 Y126.819 E19.34774
G1 X113.658 Y126.058 E19.38232
G1 X113.769 Y125.321 E19.41616
G1 X114.023 Y124.614 E19.45026
G1 X114.389 Y124.006 E19.48248
G1 X114.674 Y123.659 E19.50287
G1 X115.224 Y123.168 E19.53634
G1 X115.861 Y122.787 E19.57004
G1 X116.49 Y122.561 E19.60038
G1 X116.914 Y122.469 E19.62008
G1 X117.699 Y122.422 E19.65578
G1 X118.427 Y122.534 E19.68922
