;FLAVOR:Marlin
;TIME:2501
;Filament used: 2.53663m
;Layer height: 0.2
;MINX:87.611
;MINY:100.119
;MINZ:0.2
;MAXX:147.388
;MAXY:134.88
;MAXZ:14
;TARGET_MACHINE.NAME:ELEGOO NEPTUNE 3 Pro
;Generated with Cura_SteamEngine 5.7.2
M140 S105
M105
M190 S105
M104 S250
M105
M109 S250
M82 ;absolute extrusion mode
;ELEGOO NEPTUNE 3 Pro
M220 S100 ;Set the feed speed to 100%
M221 S100 ;Set the flow rate to 100%
G90
G28 ;home
;M420 S1 Z10;Uncomment to enable progressive compensation height of 10mm
G92 E0 ;Reset Extruder
G1 Z0.45 F300
G1 X1.5 Y20 F5000.0 ;Move to start position
G1 Y120.0 F600.0 E15 ;Draw the first line
G1 X0.5 F1000.0 ;Move to side a little
G1 Y20 F600 E30 ;Draw the second line
G92 E0 ;Reset Extruder
G92 E0
G92 E0
G1 F1200 E-1
;LAYER_COUNT:70
;LAYER:0
M106 S38.2
M204 S500
G0 F6000 X89.28 Y101.863 Z0.2
;TYPE:SKIRT
G1 F1200 E0
G1 F600 X90.056 Y101.202 E0.04628
G1 X90.917 Y100.694 E0.09167
G1 X91.908 Y100.322 E0.13972
G1 X92.737 Y100.176 E0.17794
G1 X93.335 Y100.131 E0.20516
G1 X94.114 Y100.119 E0.24053
G1 X140.917 Y100.119 E2.3654
G1 X141.583 Y100.129 E2.39563
G1 X142.203 Y100.171 E2.42385
G1 X143.041 Y100.309 E2.46241
G1 X144.007 Y100.652 E2.50894
G1 X144.797 Y101.117 E2.55056
G1 X145.602 Y101.746 E2.59694
G1 X146.276 Y102.525 E2.64371
G1 X146.8 Y103.402 E2.69009
G1 X147.193 Y104.449 E2.74086
G1 X147.364 Y105.471 E2.78791
G1 X147.388 Y106.81 E2.84871
G1 X147.388 Y128.403 E3.82903
G1 X147.378 Y129.107 E3.861
G1 X147.323 Y129.806 E3.89283
G1 X147.195 Y130.531 E3.92625
G1 X146.872 Y131.446 E3.97031
G1 X146.367 Y132.349 E4.01728
G1 X145.716 Y133.139 E4.06375
G1 X144.949 Y133.792 E4.10949
G1 X144.091 Y134.301 E4.15478
G1 X143.089 Y134.678 E4.20338
G1 X142.312 Y134.816 E4.23921
G1 X141.635 Y134.869 E4.27004
G1 X140.883 Y134.88 E4.30418
G1 X94.082 Y134.88 E6.42895
G1 X93.478 Y134.871 E6.45638
G1 X92.777 Y134.823 E6.48828
G1 X91.921 Y134.681 E6.52767
G1 X90.943 Y134.321 E6.57499
G1 X90.158 Y133.863 E6.61625
G1 X89.37 Y133.225 E6.66228
G1 X88.696 Y132.439 E6.70929
G1 X88.185 Y131.572 E6.75498
G1 X87.826 Y130.61 E6.80159
G1 X87.68 Y129.834 E6.83744
G1 X87.631 Y129.236 E6.86468
G1 X87.611 Y128.127 E6.91504
G1 X87.611 Y106.558 E7.89427
G1 X87.629 Y105.815 E7.92802
G1 X87.678 Y105.216 E7.9553
G1 X87.81 Y104.448 E7.99068
G1 X88.133 Y103.542 E8.03435
G1 X88.632 Y102.65 E8.08075
G1 X89.28 Y101.863 E8.12703
G0 F6000 X89.674 Y102.244
G1 F600 X90.373 Y101.648 E8.16874
G1 X91.152 Y101.189 E8.20979
G1 X92.054 Y100.85 E8.25353
G1 X92.778 Y100.72 E8.28693
G1 X93.343 Y100.677 E8.31266
G1 X94.122 Y100.665 E8.34803
G1 X140.909 Y100.665 E10.47216
G1 X141.546 Y100.674 E10.50108
G1 X142.166 Y100.716 E10.5293
G1 X142.9 Y100.839 E10.56308
G1 X143.777 Y101.15 E10.60533
G1 X144.461 Y101.547 E10.64123
G1 X145.223 Y102.143 E10.68515
G1 X145.831 Y102.845 E10.72732
G1 X146.307 Y103.642 E10.76946
G1 X146.663 Y104.59 E10.81544
G1 X146.818 Y105.481 E10.8565
G1 X146.842 Y106.82 E10.9173
G1 X146.842 Y128.395 E11.8968
G1 X146.832 Y129.099 E11.92877
G1 X146.785 Y129.711 E11.95663
G1 X146.665 Y130.392 E11.98803
G1 X146.372 Y131.223 E12.02803
G1 X145.916 Y132.037 E12.07039
G1 X145.325 Y132.755 E12.11261
G1 X144.628 Y133.348 E12.15416
G1 X143.855 Y133.807 E12.19497
G1 X142.947 Y134.148 E12.23901
G1 X142.216 Y134.278 E12.27272
G1 X141.627 Y134.323 E12.29953
G1 X140.875 Y134.334 E12.33368
G1 X94.09 Y134.334 E14.45772
G1 X93.515 Y134.326 E14.48383
G1 X92.814 Y134.278 E14.51573
G1 X92.062 Y134.151 E14.55035
G1 X91.179 Y133.826 E14.59307
G1 X90.433 Y133.391 E14.63228
G1 X89.753 Y132.833 E14.67221
G1 X89.143 Y132.122 E14.71474
G1 X88.678 Y131.332 E14.75636
G1 X88.354 Y130.465 E14.79838
G1 X88.224 Y129.788 E14.82968
G1 X88.177 Y129.226 E14.85528
G1 X88.157 Y128.117 E14.90564
G1 X88.157 Y106.571 E15.88383
G1 X88.175 Y105.828 E15.91757
G1 X88.216 Y105.308 E15.94125
G1 X88.34 Y104.586 E15.97451
G1 X88.631 Y103.769 E16.01389
G1 X89.083 Y102.962 E16.05588
G1 X89.674 Y102.244 E16.0981
G1 F1200 E15.0981
;MESH:ultrasonic case Pt1.stl
G0 F6000 X94.921 Y107.468
G0 X94.49 Y108.811
G0 X94.585 Y108.824
;TYPE:WALL-INNER
G1 F1200 E16.0981
G1 F600 X94.619 Y108.5 E16.11289
G1 X94.758 Y108.088 E16.13263
G1 X95.083 Y107.634 E16.15798
G1 X95.521 Y107.328 E16.18224
G1 X95.894 Y107.197 E16.20019
G1 X96.256 Y107.153 E16.21674
G1 X96.594 Y107.193 E16.23219
G1 X96.992 Y107.33 E16.2513
G1 X97.181 Y107.44 E16.26123
G1 X97.505 Y107.723 E16.28076
G1 X97.743 Y108.071 E16.2999
G1 X97.877 Y108.417 E16.31675
G1 X97.923 Y108.916 E16.3395
G1 X97.835 Y109.364 E16.36023
G1 X97.641 Y109.754 E16.38
G1 X97.446 Y109.997 E16.39415
G1 X97.163 Y110.23 E16.41079
G1 X96.768 Y110.412 E16.43054
G1 X96.287 Y110.495 E16.4527
G1 X95.786 Y110.429 E16.47564
G1 X95.469 Y110.299 E16.49119
G1 X94.998 Y109.922 E16.51858
G1 X94.758 Y109.56 E16.5383
G1 X94.625 Y109.186 E16.55632
G1 X94.585 Y108.824 E16.57286
G1 F1200 E15.57286
G0 F6000 X94.49 Y108.811
G0 X95.02 Y110.27
G0 X96.439 Y112.888
G0 X95.658 Y115.355
G0 X95.346 Y117.892
G0 X95.437 Y117.892
G1 F1200 E16.57286
G1 F600 X95.441 Y117.023 E16.61231
G1 X95.516 Y116.251 E16.64752
G1 X95.698 Y115.318 E16.69068
G1 X95.944 Y114.505 E16.72924
G1 X96.244 Y113.761 E16.76566
G1 X96.644 Y112.996 E16.80486
G1 X97.155 Y112.217 E16.84715
G1 X97.698 Y111.543 E16.88645
G1 X98.309 Y110.924 E16.92594
G1 X98.904 Y110.425 E16.96119
G1 X99.617 Y109.926 E17.0007
G1 X100.427 Y109.477 E17.04275
G1 X101.237 Y109.128 E17.08279
G1 X102.057 Y108.868 E17.12184
G1 X102.809 Y108.7 E17.15683
G1 X103.676 Y108.59 E17.1965
G1 X104.56 Y108.565 E17.23665
G1 X105.479 Y108.632 E17.27849
G1 X106.247 Y108.764 E17.31387
G1 X107.175 Y109.015 E17.35751
G1 X107.891 Y109.291 E17.39235
G1 X108.735 Y109.708 E17.43509
G1 X109.468 Y110.167 E17.47435
G1 X110.147 Y110.689 E17.51324
G1 X110.86 Y111.352 E17.55744
G1 F624 X111.929 Y112.799 E17.63597
G1 X112.253 Y113.306 E17.66224
G1 F600 X112.654 Y114.165 E17.70528
G1 X112.936 Y114.985 E17.74465
G1 X113.135 Y115.812 E17.78326
G1 X113.251 Y116.596 E17.81925
G1 X113.295 Y117.538 E17.86206
G1 X113.257 Y118.342 E17.8986
G1 X113.135 Y119.184 E17.93723
G1 X112.914 Y120.087 E17.97943
G1 X112.623 Y120.907 E18.01894
G1 X112.276 Y121.649 E18.05612
G1 X111.857 Y122.358 E18.09351
G1 X111.304 Y123.125 E18.13644
G1 X110.731 Y123.764 E18.17541
G1 X110.084 Y124.361 E18.21538
G1 X109.468 Y124.829 E18.2505
G1 X108.671 Y125.323 E18.29307
G1 X107.891 Y125.705 E18.3325
G1 X107.175 Y125.981 E18.36734
G1 X106.247 Y126.232 E18.41098
G1 X105.479 Y126.364 E18.44636
G1 X104.539 Y126.431 E18.48915
G1 X103.676 Y126.406 E18.52834
G1 X102.809 Y126.296 E18.56802
G1 X102.057 Y126.128 E18.603
G1 X101.16 Y125.839 E18.64579
G1 X100.427 Y125.519 E18.6821
G1 X99.617 Y125.07 E18.72415
G1 X98.905 Y124.572 E18.76359
G1 X98.276 Y124.043 E18.80091
G1 X97.643 Y123.391 E18.84216
G1 X97.11 Y122.717 E18.88117
G1 X96.678 Y122.057 E18.91699
G1 X96.244 Y121.235 E18.95919
G1 X95.944 Y120.491 E18.99561
G1 X95.68 Y119.601 E19.03775
G1 X95.516 Y118.745 E19.07732
G1 X95.437 Y117.892 E19.11622
G1 F1200 E18.11622
G0 F6000 X95.346 Y117.892
G0 X95.694 Y120.482
G0 X92.499 Y120.482
G0 X92.341 Y129.021
G0 X92.247 Y129.029
G1 F1200 E19.11622
G1 F600 X92.323 Y129.458 E19.136
G1 X92.522 Y129.807 E19.15423
G1 X92.678 Y129.963 E19.16425
G1 X93.028 Y130.166 E19.18262
G1 X93.459 Y130.241 E19.20248
G1 X141.532 Y130.241 E21.385
G1 X141.957 Y130.17 E21.40456
G1 X142.325 Y129.96 E21.4238
G1 X142.583 Y129.649 E21.44214
G1 X142.67 Y129.463 E21.45147
G1 X142.749 Y129.025 E21.47167
G1 X142.749 Y105.968 E22.51846
G1 X142.674 Y105.538 E22.53828
G1 X142.474 Y105.189 E22.55654
G1 X142.318 Y105.033 E22.56656
G1 X141.968 Y104.83 E22.58493
G1 X141.536 Y104.755 E22.60483
G1 X93.464 Y104.755 E24.78731
G1 X93.039 Y104.826 E24.80687
G1 X92.671 Y105.036 E24.8261
G1 X92.532 Y105.176 E24.83506
G1 X92.326 Y105.53 E24.85366
G1 X92.247 Y105.969 E24.87391
G1 X92.247 Y129.029 E25.92083
G1 F1200 E24.92083
G0 F6000 X92.341 Y129.021
G0 X92.499 Y110.035
G0 X98.162 Y110.744
G0 X100.389 Y109.462
G0 X101.185 Y109.115
G0 X102.009 Y108.848
G0 X102.854 Y108.662
G0 X103.713 Y108.556
G0 X104.58 Y108.535
G0 X105.443 Y108.598
G0 X106.298 Y108.744
G0 X107.133 Y108.971
G0 X109.757 Y110.105
G0 X111.048 Y111.225
G0 X111.031 Y110.035
G0 X111.119 Y110.028
G1 F1200 E25.92083
G1 F600 X111.139 Y109.77 E25.93258
G1 X111.32 Y109.009 E25.96809
G1 X111.603 Y108.425 E25.99756
G1 X112.182 Y107.712 E26.03926
G1 X112.935 Y107.19 E26.08085
G1 X113.604 Y106.949 E26.11314
G1 X114.212 Y106.841 E26.14117
G1 X120.622 Y106.844 E26.43219
G1 X121.282 Y106.923 E26.46236
G1 X122.042 Y107.179 E26.49877
G1 X122.811 Y107.709 E26.54117
G1 X123.388 Y108.416 E26.58261
G1 X123.673 Y109.012 E26.6126
G1 X123.892 Y109.927 E26.65531
G1 X123.77 Y110.845 E26.69736
G1 F630 X123.531 Y111.378 E26.72261
G1 F704.5 X123.167 Y111.933 E26.74828
G1 F667.2 X122.603 Y112.597 E26.78384
G1 F600 X121.969 Y112.97 E26.81724
G1 X121.4 Y113.173 E26.84467
G1 X120.799 Y113.287 E26.87244
G1 X114.367 Y113.284 E27.16445
G1 X113.714 Y113.2 E27.19434
G1 X112.939 Y112.939 E27.23147
G1 F634.9 X112.252 Y112.434 E27.26805
G1 F685.4 X111.635 Y111.658 E27.30746
G1 F646.2 X111.36 Y111.205 E27.3298
G1 F600 X111.182 Y110.609 E27.35804
G1 X111.119 Y110.028 E27.38457
G1 F1200 E26.38457
G0 F6000 X111.031 Y110.035
G0 X111.301 Y111.145
G0 X111.581 Y111.725
G0 X112.163 Y112.436
G0 X112.943 Y112.974
G0 X113.803 Y113.263
G0 X120.815 Y113.5
G0 X122.678 Y112.809
G0 X122.087 Y114.718
G0 X121.625 Y117.015
G0 X121.712 Y117.023
G1 F1200 E27.38457
G1 F600 X121.788 Y116.251 E27.41979
G1 X121.971 Y115.318 E27.46295
G1 X122.217 Y114.502 E27.50165
G1 X122.55 Y113.694 E27.54132
G1 F611.2 X122.981 Y112.883 E27.58225
G1 F632.4 X123.784 Y111.846 E27.63875
G1 F641.1 X123.982 Y111.553 E27.65377
G1 F618.1 X124.58 Y110.925 E27.69199
G1 F600 X125.181 Y110.42 E27.72763
G1 X125.959 Y109.883 E27.77054
G1 X126.677 Y109.487 E27.80777
G1 X127.5 Y109.132 E27.84846
G1 X128.329 Y108.868 E27.88796
G1 X129.161 Y108.686 E27.92663
G1 X129.953 Y108.59 E27.96285
G1 X130.832 Y108.565 E28.00277
G1 X131.751 Y108.632 E28.0446
G1 X132.519 Y108.764 E28.07998
G1 X133.447 Y109.015 E28.12363
G1 X134.163 Y109.291 E28.15847
G1 X134.943 Y109.673 E28.1979
G1 X135.741 Y110.168 E28.24053
G1 X136.426 Y110.696 E28.2798
G1 X137.052 Y111.283 E28.31876
G1 X137.576 Y111.871 E28.35451
G1 X138.129 Y112.638 E28.39744
G1 X138.525 Y113.306 E28.4327
G1 X138.895 Y114.095 E28.47226
G1 X139.185 Y114.903 E28.51124
G1 X139.407 Y115.812 E28.55372
G1 X139.531 Y116.678 E28.59344
G1 X139.567 Y117.538 E28.63251
G1 X139.523 Y118.4 E28.6717
G1 X139.404 Y119.206 E28.70869
G1 X139.185 Y120.093 E28.75017
G1 X138.895 Y120.901 E28.78914
G1 X138.525 Y121.69 E28.82871
G1 X138.09 Y122.419 E28.86725
G1 X137.605 Y123.092 E28.90491
G1 X137.052 Y123.714 E28.94269
G1 X136.398 Y124.326 E28.98336
G1 X135.741 Y124.827 E29.02087
G1 X134.929 Y125.33 E29.06423
G1 X134.163 Y125.705 E29.10295
G1 X133.447 Y125.981 E29.13779
G1 X132.519 Y126.232 E29.18144
G1 X131.751 Y126.364 E29.21682
G1 X130.81 Y126.431 E29.25965
G1 X129.953 Y126.406 E29.29857
G1 X129.081 Y126.296 E29.33847
G1 X128.256 Y126.108 E29.37689
G1 X127.424 Y125.835 E29.41664
G1 X126.639 Y125.489 E29.45559
G1 X125.89 Y125.07 E29.49455
G1 X125.181 Y124.576 E29.53379
G1 X124.522 Y124.017 E29.57302
G1 X123.915 Y123.391 E29.61261
G1 X123.427 Y122.779 E29.64814
G1 X122.953 Y122.06 E29.68724
G1 X122.517 Y121.23 E29.7298
G1 X122.19 Y120.418 E29.76955
G1 X121.952 Y119.601 E29.80818
G1 X121.788 Y118.745 E29.84775
G1 X121.709 Y117.892 E29.88664
G1 X121.712 Y117.023 E29.92609
G1 F1200 E28.92609
G0 F6000 X121.625 Y117.015
G0 X121.764 Y118.794
G0 X121.929 Y119.644
G0 X122.177 Y120.475
G0 X122.504 Y121.277
G0 X122.907 Y122.045
G0 X123.382 Y122.77
G0 X123.925 Y123.445
G0 X124.53 Y124.065
G0 X125.191 Y124.623
G0 X125.904 Y125.116
G0 X126.662 Y125.537
G0 X127.457 Y125.884
G0 X128.281 Y126.151
G0 X129.126 Y126.337
G0 X129.987 Y126.443
G0 X130.852 Y126.464
G0 X131.716 Y126.401
G0 X132.57 Y126.255
G0 X133.248 Y126.071
G0 X135.882 Y125.011
G0 X136.982 Y125.502
G0 X136.988 Y126.056
G0 X137.075 Y126.068
G1 F1200 E29.92609
G1 F600 X137.123 Y125.746 E29.94087
G1 X137.331 Y125.276 E29.96421
G1 X137.582 Y124.968 E29.98225
G1 X137.891 Y124.729 E29.99998
G1 X138.374 Y124.542 E30.0235
G1 X138.844 Y124.507 E30.04489
G1 X139.114 Y124.543 E30.05726
G1 X139.528 Y124.698 E30.07733
G1 X139.998 Y125.074 E30.10466
G1 X140.238 Y125.436 E30.12437
G1 X140.377 Y125.848 E30.14412
G1 X140.411 Y126.172 E30.15891
G1 X140.371 Y126.534 E30.17544
G1 X140.238 Y126.908 E30.19346
G1 X139.913 Y127.362 E30.21881
G1 X139.475 Y127.668 E30.24307
G1 X139.102 Y127.799 E30.26102
G1 X138.74 Y127.843 E30.27757
G1 X138.402 Y127.803 E30.29302
G1 X138.004 Y127.666 E30.31213
G1 X137.815 Y127.556 E30.32206
G1 X137.491 Y127.273 E30.34159
G1 X137.249 Y126.916 E30.36117
G1 X137.103 Y126.494 E30.38145
G1 X137.075 Y126.068 E30.40083
G0 F6000 X137.617 Y126.137
;TYPE:WALL-OUTER
G1 F600 X137.651 Y125.883 E30.41246
G1 X137.779 Y125.588 E30.42706
G1 X137.97 Y125.353 E30.44081
G1 X138.171 Y125.197 E30.45236
G1 X138.474 Y125.079 E30.46713
G1 X138.704 Y125.049 E30.47766
G1 X139.012 Y125.079 E30.49171
G1 X139.286 Y125.187 E30.50508
G1 X139.562 Y125.403 E30.52099
G1 X139.733 Y125.644 E30.5344
G1 X139.835 Y125.917 E30.54763
G1 X139.865 Y126.172 E30.55929
G1 X139.833 Y126.44 E30.57155
G1 X139.697 Y126.763 E30.58746
G1 X139.534 Y126.969 E30.59938
G1 X139.271 Y127.162 E30.61419
G1 X139 Y127.263 E30.62732
G1 X138.7 Y127.295 E30.64102
G1 X138.415 Y127.245 E30.65416
G1 X138.212 Y127.161 E30.66413
G1 X137.923 Y126.939 E30.68068
G1 X137.752 Y126.703 E30.69391
G1 X137.645 Y126.424 E30.70747
G1 X137.617 Y126.137 E30.72056
G0 F6000 X137.643 Y125.939
G1 F1200 E29.72056
G0 F6000 X137.014 Y125.856
G0 X137.143 Y125.139
G0 X135.479 Y124.517
G0 X134.798 Y124.986
G0 X133.283 Y125.647
G0 X132.484 Y125.864
G0 X131.668 Y126.003
G0 X130.842 Y126.063
G0 X130.016 Y126.043
G0 X129.194 Y125.943
G0 X128.385 Y125.764
G0 X127.599 Y125.51
G0 X126.84 Y125.178
G0 X126.115 Y124.776
G0 X125.435 Y124.305
G0 X124.802 Y123.772
G0 X124.225 Y123.179
G0 X123.706 Y122.534
G0 X123.252 Y121.842
G0 X121.624 Y117.98
G0 X122.256 Y117.919
G1 F1200 E30.72056
G1 F600 X122.256 Y117.077 E30.75879
G1 X122.336 Y116.279 E30.7952
G1 X122.494 Y115.474 E30.83245
G1 X122.723 Y114.708 E30.86874
G1 X123.023 Y113.972 E30.90483
G1 X123.398 Y113.256 E30.94152
G1 X123.854 Y112.557 E30.97941
G1 X124.35 Y111.936 E31.0155
G1 X124.912 Y111.361 E31.052
G1 X125.532 Y110.838 E31.08882
G1 X126.2 Y110.375 E31.12572
G1 X126.926 Y109.973 E31.1634
G1 X127.642 Y109.661 E31.19886
G1 X128.448 Y109.401 E31.23731
G1 X129.227 Y109.228 E31.27354
G1 X130.019 Y109.132 E31.30976
G1 X130.852 Y109.111 E31.34759
G1 X131.659 Y109.17 E31.38432
G1 X132.427 Y109.302 E31.4197
G1 X133.251 Y109.525 E31.45846
G1 X133.967 Y109.801 E31.49329
G1 X134.724 Y110.176 E31.53165
G1 X135.41 Y110.602 E31.56831
G1 X136.034 Y111.078 E31.60394
G1 X136.644 Y111.646 E31.64178
G1 X137.186 Y112.256 E31.67883
G1 X137.646 Y112.896 E31.71461
G1 X138.068 Y113.609 E31.75223
G1 X138.41 Y114.349 E31.78924
G1 X138.678 Y115.111 E31.82591
G1 X138.867 Y115.892 E31.86239
G1 X138.983 Y116.676 E31.89837
G1 X139.021 Y117.513 E31.93641
G1 X138.983 Y118.32 E31.97309
G1 X138.866 Y119.112 E32.00943
G1 X138.67 Y119.911 E32.04678
G1 X138.41 Y120.647 E32.08222
G1 X138.062 Y121.4 E32.11988
G1 X137.646 Y122.1 E32.15685
G1 X137.178 Y122.751 E32.19325
G1 X136.644 Y123.35 E32.22968
G1 X136.034 Y123.918 E32.26753
G1 X135.41 Y124.393 E32.30313
G1 X134.725 Y124.821 E32.3398
G1 X133.967 Y125.195 E32.37817
G1 X133.223 Y125.48 E32.41434
