;FLAVOR:Marlin
;TIME:2216
;Filament used: 2.17346m
;Layer height: 0.2
;MINX:94.943
;MINY:102.076
;MINZ:0.2
;MAXX:140.056
;MAXY:133.432
;MAXZ:17.8
;TARGET_MACHINE.NAME:ELEGOO NEPTUNE 3 Pro
;Generated with Cura_SteamEngine 5.7.2
M140 S105
M105
M190 S105
M104 S250
M105
M109 S250
M82 ;absolute extrusion mode
;ELEGOO NEPTUNE 3 Pro
M220 S100 ;Set the feed speed to 100%
M221 S100 ;Set the flow rate to 100%
G90
G28 ;home
;M420 S1 Z10;Uncomment to enable progressive compensation height of 10mm
G92 E0 ;Reset Extruder
G1 Z0.45 F300
G1 X1.5 Y20 F5000.0 ;Move to start position
G1 Y120.0 F600.0 E15 ;Draw the first line
G1 X0.5 F1000.0 ;Move to side a little
G1 Y20 F600 E30 ;Draw the second line
G92 E0 ;Reset Extruder
G92 E0
G92 E0
G1 F1200 E-1
;LAYER_COUNT:89
;LAYER:0
M106 S38.2
M204 S500
G0 F6000 X100.148 Y103.359 Z0.2
;TYPE:SKIRT
G1 F1200 E0
G1 F600 X100.599 Y103.024 E0.02551
G1 X101.257 Y102.703 E0.05874
G1 X102.341 Y102.306 E0.11115
G1 X102.878 Y102.156 E0.13647
G1 X103.554 Y102.087 E0.16732
G1 X104.293 Y102.076 E0.20087
G1 X130.433 Y102.076 E1.38763
G1 X131.416 Y102.095 E1.43227
G1 X132.369 Y102.238 E1.47602
G1 X133.156 Y102.415 E1.51264
G1 X133.724 Y102.596 E1.53971
G1 X134.256 Y102.863 E1.56673
G1 X134.72 Y103.186 E1.5924
G1 X135.296 Y103.766 E1.62951
G1 X135.842 Y104.479 E1.67028
G1 X136.211 Y105.046 E1.70099
G1 X136.702 Y106.267 E1.76074
G1 X137.137 Y107.402 E1.81592
G1 X138.185 Y109.927 E1.94004
G1 X139.293 Y112.398 E2.06299
G1 X139.702 Y113.275 E2.10692
G1 X139.906 Y113.835 E2.13398
G1 X140.019 Y114.419 E2.16098
G1 X140.056 Y115.184 E2.19575
G1 X140.056 Y116.686 E2.26394
G1 X140.038 Y117.993 E2.32329
G1 X140.038 Y120.769 E2.44932
G1 X140.054 Y121.523 E2.48356
G1 X140.056 Y123.277 E2.56319
G1 X140.044 Y124.043 E2.59797
G1 X139.997 Y124.552 E2.62118
G1 X139.845 Y125.176 E2.65034
G1 X139.589 Y125.758 E2.6792
G1 X139.323 Y126.182 E2.70193
G1 X138.767 Y126.938 E2.74453
G1 X138.144 Y127.757 E2.79125
G1 X136.592 Y129.916 E2.91197
G1 X135.919 Y130.871 E2.96501
G1 X135.231 Y131.643 E3.01195
G1 X134.787 Y132.032 E3.03875
G1 X134.276 Y132.367 E3.06649
G1 X133.567 Y132.729 E3.10264
G1 X132.956 Y132.984 E3.13269
G1 X131.29 Y133.342 E3.21006
G1 X130.628 Y133.432 E3.24039
G1 X127.44 Y133.258 E3.38534
G1 X123.581 Y133.181 E3.56057
G1 X111.523 Y133.18 E4.10801
G1 X108.733 Y133.219 E4.23469
G1 X105.906 Y133.341 E4.36315
G1 X104.648 Y133.412 E4.42036
G1 X104.093 Y133.4 E4.44556
G1 X103.465 Y133.282 E4.47457
G1 X102.085 Y132.905 E4.53952
G1 X101.108 Y132.533 E4.58698
G1 X100.573 Y132.272 E4.61401
G1 X100.109 Y131.956 E4.63949
G1 X99.45 Y131.314 E4.68126
G1 X99.043 Y130.821 E4.71029
G1 X98.704 Y130.331 E4.73734
G1 X97.114 Y128.099 E4.86175
G1 X95.695 Y126.208 E4.96909
G1 X95.381 Y125.702 E4.99612
G1 X95.177 Y125.234 E5.0193
G1 X95.01 Y124.619 E5.04823
G1 X94.943 Y123.931 E5.07962
G1 X94.943 Y122.085 E5.16342
G1 X94.961 Y120.803 E5.22163
G1 X94.961 Y118.052 E5.34653
G1 X94.945 Y117.289 E5.38118
G1 X94.943 Y115.502 E5.46231
G1 X94.956 Y114.751 E5.49641
G1 X95.019 Y114.157 E5.52353
G1 X95.187 Y113.504 E5.55414
G1 X95.626 Y112.571 E5.60095
G1 X96.744 Y110.094 E5.72433
G1 X97.811 Y107.54 E5.84999
G1 X98.681 Y105.312 E5.95858
G1 X99.104 Y104.515 E5.99955
G1 X99.725 Y103.78 E6.04323
G1 X100.148 Y103.359 E6.07033
G0 F6000 X100.473 Y103.798
G1 F600 X100.883 Y103.494 E6.0935
G1 X101.497 Y103.194 E6.12453
G1 X102.488 Y102.832 E6.17243
G1 X102.981 Y102.694 E6.19567
G1 X103.562 Y102.633 E6.22219
G1 X104.301 Y102.622 E6.25574
G1 X130.425 Y102.622 E7.44178
G1 X131.336 Y102.635 E7.48314
G1 X132.25 Y102.771 E7.52509
G1 X132.996 Y102.937 E7.55979
G1 X133.485 Y103.087 E7.58301
G1 X133.944 Y103.311 E7.6062
G1 X134.364 Y103.604 E7.62945
G1 X134.863 Y104.099 E7.66136
G1 X135.384 Y104.777 E7.70018
G1 X135.724 Y105.299 E7.72846
G1 X136.192 Y106.462 E7.78538
G1 X136.627 Y107.597 E7.84056
G1 X137.687 Y110.15 E7.96606
G1 X138.799 Y112.63 E8.08945
G1 X139.191 Y113.467 E8.13141
G1 X139.371 Y113.945 E8.1546
G1 X139.474 Y114.446 E8.17782
G1 X139.51 Y115.184 E8.21137
G1 X139.51 Y116.678 E8.2792
G1 X139.492 Y117.985 E8.33854
G1 X139.492 Y120.769 E8.46493
G1 X139.508 Y121.524 E8.49922
G1 X139.51 Y123.269 E8.57844
G1 X139.5 Y123.993 E8.61131
G1 X139.453 Y124.502 E8.63452
G1 X139.327 Y124.998 E8.65776
G1 X139.126 Y125.468 E8.68096
G1 X138.86 Y125.892 E8.70369
G1 X138.332 Y126.607 E8.74404
G1 X137.709 Y127.426 E8.79076
G1 X136.149 Y129.597 E8.91213
G1 X135.51 Y130.509 E8.96268
G1 X134.867 Y131.236 E9.00675
G1 X134.485 Y131.577 E9.03
G1 X134.027 Y131.881 E9.05495
G1 X133.357 Y132.225 E9.08915
G1 X132.793 Y132.46 E9.11688
G1 X131.217 Y132.801 E9.19009
G1 X130.606 Y132.884 E9.21809
G1 X127.452 Y132.712 E9.36149
G1 X123.592 Y132.635 E9.53677
G1 X111.515 Y132.634 E10.08507
G1 X108.725 Y132.673 E10.21174
G1 X105.875 Y132.796 E10.34126
G1 X104.66 Y132.866 E10.39651
G1 X104.149 Y132.855 E10.41971
G1 X103.609 Y132.755 E10.44465
G1 X102.229 Y132.378 E10.50959
G1 X101.342 Y132.04 E10.55269
G1 X100.88 Y131.821 E10.5759
G1 X100.457 Y131.533 E10.59913
G1 X99.831 Y130.923 E10.63882
G1 X99.492 Y130.51 E10.66307
G1 X99.153 Y130.02 E10.69012
G1 X97.559 Y127.782 E10.81487
G1 X96.156 Y125.916 E10.92086
G1 X95.882 Y125.484 E10.94408
G1 X95.678 Y125.016 E10.96726
G1 X95.549 Y124.521 E10.99048
G1 X95.489 Y123.931 E11.01741
G1 X95.489 Y122.093 E11.10085
G1 X95.507 Y120.811 E11.15906
G1 X95.507 Y118.052 E11.28432
G1 X95.491 Y117.288 E11.31902
G1 X95.489 Y115.51 E11.39974
G1 X95.5 Y114.802 E11.43188
G1 X95.548 Y114.293 E11.45509
G1 X95.703 Y113.69 E11.48336
G1 X96.12 Y112.804 E11.52782
G1 X97.242 Y110.319 E11.6516
G1 X98.315 Y107.751 E11.77796
G1 X99.19 Y105.511 E11.88714
G1 X99.559 Y104.823 E11.92258
G1 X100.114 Y104.163 E11.96173
G1 X100.473 Y103.798 E11.98498
G1 F1200 E10.98498
G0 F6000 X102.74 Y106.533
G1 F1200 E11.98498
G1 F600 X102.833 Y106.516 E11.98927
G1 X103.665 Y106.168 E12.03021
G1 X131.064 Y106.168 E13.27413
G1 X131.469 Y106.221 E13.29267
G1 X132.064 Y106.407 E13.32098
G1 X132.173 Y106.414 E13.32593
G1 X132.556 Y106.9 E13.35403
G1 X132.75 Y107.406 E13.37863
G1 X132.75 Y111.372 E13.55869
G1 X132.8 Y112.237 E13.59802
G1 X132.811 Y112.298 E13.60084
G1 X133.001 Y112.947 E13.63154
G1 X133.013 Y112.979 E13.63309
G1 X133.263 Y113.551 E13.66143
G1 X133.282 Y113.588 E13.66332
G1 X133.43 Y113.822 E13.67589
G1 X133.387 Y113.901 E13.67997
G1 X129.345 Y113.901 E13.86348
G1 X129.204 Y113.94 E13.87012
G1 X129.103 Y114.047 E13.8768
G1 X129.072 Y114.174 E13.88274
G1 X129.072 Y118.039 E14.05821
G1 X129.111 Y118.18 E14.06485
G1 X129.218 Y118.281 E14.07153
G1 X129.345 Y118.312 E14.07747
G1 X133.616 Y118.312 E14.27137
G1 X133.525 Y118.617 E14.28582
G1 X133.518 Y118.65 E14.28735
G1 X133.438 Y119.125 E14.30922
G1 X133.434 Y119.177 E14.31159
G1 X133.451 Y119.833 E14.34138
G1 X133.461 Y119.898 E14.34437
G1 X133.623 Y120.494 E14.37241
G1 X129.345 Y120.494 E14.56663
G1 X129.204 Y120.533 E14.57327
G1 X129.103 Y120.64 E14.57995
G1 X129.072 Y120.767 E14.58588
G1 X129.072 Y124.632 E14.76136
G1 X129.111 Y124.773 E14.768
G1 X129.218 Y124.874 E14.77468
G1 X129.345 Y124.905 E14.78061
G1 X133.379 Y124.905 E14.96376
G1 X133.422 Y124.985 E14.96788
G1 X133.226 Y125.297 E14.98461
G1 X133.204 Y125.34 E14.9868
G1 X132.954 Y125.962 E15.01724
G1 X132.942 Y126 E15.01904
G1 X132.838 Y126.428 E15.03904
G1 X132.832 Y126.463 E15.04065
G1 X132.753 Y127.206 E15.07458
G1 X132.751 Y127.235 E15.0759
G1 X132.75 Y128.271 E15.12293
G1 X132.619 Y128.417 E15.13184
G1 X132.591 Y128.489 E15.13534
G1 X132.332 Y128.69 E15.15023
G1 X132.252 Y128.797 E15.15629
G1 X131.932 Y128.933 E15.17208
G1 X131.866 Y128.973 E15.17558
G1 X131.811 Y129.018 E15.17881
G1 X131.704 Y129.005 E15.1837
G1 X131.104 Y129.159 E15.21182
G1 X131.095 Y129.161 E15.21224
G1 X130.728 Y129.269 E15.22961
G1 X130.654 Y129.199 E15.23424
G1 X130.554 Y129.169 E15.23898
G1 X129.758 Y129.09 E15.27529
G1 X129.731 Y129.089 E15.27652
G1 X105.105 Y129.088 E16.39454
G1 X105.077 Y129.089 E16.39581
G1 X104.444 Y129.155 E16.42471
G1 X104.307 Y129.209 E16.43139
G1 X104.268 Y129.261 E16.43434
G1 X103.35 Y128.987 E16.47784
G1 X103.291 Y128.992 E16.48053
G1 X103.163 Y128.925 E16.48709
G1 X103.122 Y128.908 E16.4891
G1 X102.741 Y128.782 E16.50732
G1 X102.734 Y128.756 E16.50854
G1 X102.663 Y128.678 E16.51333
G1 X102.415 Y128.493 E16.52738
G1 X102.384 Y128.41 E16.5314
G1 X102.249 Y128.254 E16.54077
G1 X102.241 Y127.175 E16.58975
G1 X102.24 Y127.15 E16.59089
G1 X102.177 Y126.521 E16.61959
G1 X102.168 Y126.476 E16.62167
G1 X101.954 Y125.695 E16.65844
G1 X101.935 Y125.645 E16.66087
G1 X101.686 Y125.147 E16.68614
G1 X101.671 Y125.12 E16.68755
G1 X101.584 Y124.986 E16.6948
G1 X101.627 Y124.905 E16.69896
G1 X105.655 Y124.905 E16.88183
G1 X105.796 Y124.866 E16.88848
G1 X105.897 Y124.759 E16.89516
G1 X105.928 Y124.632 E16.90109
G1 X105.928 Y120.767 E17.07656
G1 X105.889 Y120.626 E17.0832
G1 X105.782 Y120.525 E17.08988
G1 X105.655 Y120.494 E17.09582
G1 X101.384 Y120.494 E17.28972
G1 X101.47 Y120.206 E17.30337
G1 X101.477 Y120.174 E17.30486
G1 X101.561 Y119.68 E17.32761
G1 X101.565 Y119.626 E17.33006
G1 X101.548 Y119.02 E17.35759
G1 X101.54 Y118.961 E17.36029
G1 X101.375 Y118.312 E17.39069
G1 X105.655 Y118.312 E17.585
G1 X105.796 Y118.273 E17.59165
G1 X105.897 Y118.166 E17.59833
G1 X105.928 Y118.039 E17.60426
G1 X105.928 Y114.174 E17.77973
G1 X105.889 Y114.033 E17.78637
G1 X105.782 Y113.932 E17.79305
G1 X105.655 Y113.901 E17.79899
G1 X101.62 Y113.901 E17.98218
G1 X101.577 Y113.822 E17.98626
G1 X101.78 Y113.5 E18.00354
G1 X101.8 Y113.462 E18.00549
G1 X102.056 Y112.869 E18.03482
G1 X102.073 Y112.815 E18.03739
G1 X102.19 Y112.239 E18.06407
G1 X102.194 Y112.204 E18.06567
G1 X102.245 Y111.468 E18.09917
G1 X102.246 Y111.449 E18.10003
G1 X102.248 Y107.624 E18.27369
G1 X102.287 Y107.301 E18.28846
G1 X102.486 Y106.825 E18.31188
G1 X102.74 Y106.533 E18.32945
G0 F6000 X103.04 Y107.021
G1 F600 X103.775 Y106.714 E18.36561
G1 X131.031 Y106.714 E19.60304
G1 X131.349 Y106.756 E19.6176
G1 X131.877 Y106.92 E19.6427
G1 X132.076 Y107.173 E19.65731
G1 X132.204 Y107.507 E19.67355
G1 X132.204 Y111.356 E19.8483
G1 X132.205 Y111.403 E19.85043
G1 X132.255 Y112.268 E19.88977
G1 X132.287 Y112.451 E19.8982
G1 X132.477 Y113.1 E19.9289
G1 X132.513 Y113.198 E19.93364
G1 X132.582 Y113.355 E19.94143
G1 X129.345 Y113.355 E20.08839
G1 X129.093 Y113.395 E20.09997
G1 X128.865 Y113.51 E20.11157
G1 X128.684 Y113.69 E20.12316
G1 X128.567 Y113.917 E20.13475
G1 X128.526 Y114.174 E20.14657
G1 X128.526 Y118.039 E20.32204
G1 X128.566 Y118.291 E20.33362
G1 X128.681 Y118.519 E20.34522
G1 X128.861 Y118.7 E20.3568
G1 X129.088 Y118.817 E20.3684
G1 X129.345 Y118.858 E20.38021
G1 X132.929 Y118.858 E20.54293
G1 X132.899 Y119.034 E20.55103
G1 X132.888 Y119.191 E20.55818
G1 X132.905 Y119.847 E20.58797
G1 X132.92 Y119.948 E20.59261
G1 X129.345 Y119.948 E20.75491
G1 X129.093 Y119.988 E20.7665
G1 X128.865 Y120.103 E20.77809
G1 X128.684 Y120.283 E20.78968
G1 X128.567 Y120.51 E20.80127
G1 X128.526 Y120.767 E20.81309
G1 X128.526 Y124.632 E20.98856
G1 X128.566 Y124.884 E21.00014
G1 X128.681 Y125.112 E21.01174
G1 X128.861 Y125.293 E21.02333
G1 X129.088 Y125.41 E21.03492
G1 X129.345 Y125.451 E21.04674
G1 X132.571 Y125.451 E21.1932
G1 X132.447 Y125.759 E21.20827
G1 X132.411 Y125.871 E21.21361
G1 X132.307 Y126.299 E21.23361
G1 X132.289 Y126.405 E21.23849
G1 X132.21 Y127.148 E21.27241
G1 X132.205 Y127.234 E21.27632
G1 X132.204 Y128.064 E21.31401
G1 X132.16 Y128.133 E21.31772
G1 X131.998 Y128.258 E21.32701
G1 X131.914 Y128.347 E21.33257
G1 X131.719 Y128.43 E21.34219
G1 X131.648 Y128.473 E21.34596
G1 X131.568 Y128.476 E21.34959
G1 X130.968 Y128.63 E21.37771
G1 X130.942 Y128.637 E21.37894
G1 X130.809 Y128.676 E21.38523
G1 X130.784 Y128.663 E21.38651
G1 X130.608 Y128.626 E21.39467
G1 X129.812 Y128.547 E21.43099
G1 X129.731 Y128.543 E21.43467
G1 X105.105 Y128.542 E22.55269
G1 X105.02 Y128.546 E22.55656
G1 X104.387 Y128.612 E22.58545
G1 X104.183 Y128.666 E22.59503
G1 X103.507 Y128.464 E22.62706
G1 X103.444 Y128.455 E22.62995
G1 X103.416 Y128.441 E22.63137
G1 X103.293 Y128.389 E22.63744
G1 X103.06 Y128.312 E22.64858
G1 X102.99 Y128.241 E22.6531
G1 X102.84 Y128.129 E22.6616
G1 X102.797 Y128.053 E22.66557
G1 X102.794 Y128.049 E22.66579
G1 X102.787 Y127.171 E22.70566
G1 X102.783 Y127.095 E22.70911
G1 X102.72 Y126.466 E22.73781
G1 X102.695 Y126.332 E22.744
G1 X102.481 Y125.551 E22.78076
G1 X102.443 Y125.451 E22.78562
G1 X105.655 Y125.451 E22.93145
G1 X105.907 Y125.411 E22.94303
G1 X106.135 Y125.296 E22.95462
G1 X106.316 Y125.116 E22.96621
G1 X106.433 Y124.889 E22.97781
G1 X106.474 Y124.632 E22.98962
G1 X106.474 Y120.767 E23.16509
G1 X106.434 Y120.515 E23.17668
G1 X106.319 Y120.287 E23.18827
G1 X106.139 Y120.106 E23.19986
G1 X105.912 Y119.989 E23.21145
G1 X105.655 Y119.948 E23.22327
G1 X102.069 Y119.948 E23.38607
G1 X102.099 Y119.771 E23.39422
G1 X102.111 Y119.611 E23.40151
G1 X102.094 Y119.005 E23.42903
G1 X102.073 Y118.858 E23.43577
G1 X105.655 Y118.858 E23.5984
G1 X105.907 Y118.818 E23.60998
G1 X106.135 Y118.703 E23.62157
G1 X106.316 Y118.523 E23.63316
G1 X106.433 Y118.296 E23.64476
G1 X106.474 Y118.039 E23.65657
G1 X106.474 Y114.174 E23.83204
G1 X106.434 Y113.922 E23.84363
G1 X106.319 Y113.694 E23.85522
G1 X106.139 Y113.513 E23.86681
G1 X105.912 Y113.396 E23.87841
G1 X105.655 Y113.355 E23.89022
G1 X102.441 Y113.355 E24.03614
G1 X102.557 Y113.086 E24.04944
G1 X102.608 Y112.924 E24.05715
G1 X102.725 Y112.348 E24.08383
G1 X102.739 Y112.242 E24.08869
G1 X102.79 Y111.506 E24.12218
G1 X102.792 Y111.449 E24.12477
G1 X102.794 Y107.657 E24.29693
G1 X102.82 Y107.442 E24.30676
G1 X102.955 Y107.118 E24.32269
G1 X103.04 Y107.021 E24.32855
G1 F1200 E23.32855
G0 F6000 X132.348 Y119.4
;TYPE:SUPPORT
G1 F1200 E24.32855
G1 F601.1 X128.229 Y119.4 E24.50588
G1 F1200 E23.50588
G0 F6000 X106.744 Y119.4
G1 F1200 E24.50588
G1 F602.2 X102.648 Y119.4 E24.68189
G1 F1200 E23.68189
G0 F6000 X105.628 Y118.012
G0 X105.628 Y114.201
G0 X103.353 Y107.412
G1 F1200 E24.68189
G1 F780 X103.871 Y107.194 E24.70054
G1 X130.989 Y107.194 E25.60023
G1 X131.589 Y107.338 E25.6207
G1 X131.718 Y107.594 E25.63021
G1 X131.718 Y111.396 E25.75635
G1 X131.778 Y112.421 E25.79042
G1 X131.906 Y112.87 E25.80591
G1 X128.215 Y112.873 E25.92836
G1 X128.113 Y112.921 E25.9321
G1 X128.043 Y113.052 E25.93703
G1 X128.045 Y119.19 E26.14067
G1 F678.3 X128.229 Y119.4 E26.15132
G1 X128.045 Y119.61 E26.16198
G1 F780 X128.042 Y125.784 E26.36681
G1 X128.126 Y125.892 E26.37135
G1 X128.252 Y125.934 E26.37576
G1 X131.897 Y125.934 E26.49669
G1 X131.819 Y126.259 E26.50777
G1 X131.723 Y127.15 E26.53751
G1 X131.718 Y127.86 E26.56106
G1 X131.569 Y127.975 E26.56731
G1 X130.835 Y128.163 E26.59245
G1 X129.81 Y128.059 E26.62663
G1 X105.022 Y128.059 E27.44902
G1 X104.145 Y128.15 E27.47827
G1 X103.365 Y127.916 E27.50529
G1 X103.274 Y127.849 E27.50904
G1 X103.27 Y127.098 E27.53395
G1 X103.183 Y126.292 E27.56085
G1 X103.084 Y125.934 E27.57317
G1 X106.781 Y125.931 E27.69583
G1 X106.87 Y125.892 E27.69905
G1 X106.954 Y125.784 E27.70359
G1 X106.951 Y119.608 E27.90849
G1 F679.7 X106.744 Y119.4 E27.91966
G1 X106.954 Y119.189 E27.931
G1 F780 X106.953 Y113.052 E28.13461
G1 X106.883 Y112.921 E28.13953
G1 X106.796 Y112.876 E28.14278
G1 X103.112 Y112.87 E28.26501
G1 X103.211 Y112.365 E28.28208
G1 X103.274 Y111.503 E28.31076
G1 X103.274 Y107.602 E28.44018
G1 X103.353 Y107.412 E28.44701
G1 F1200 E27.44701
G0 F6000 X104.39 Y107.404
G1 F1200 E28.44701
G1 F600 X103.484 Y109.346 E28.53943
G0 F6000 X103.483 Y110.044
G1 F600 X127.833 Y121.399 E29.69823
G1 F1200 E28.69823
G0 F6000 X127.833 Y120.071
G1 F1200 E29.69823
G1 F600 X124.205 Y127.85 E30.06843
