;FLAVOR:Marlin
;TIME:9664
;Filament used: 10.1269m
;Layer height: 0.2
;MINX:28.327
;MINY:59.117
;MINZ:0.2
;MAXX:206.672
;MAXY:175.883
;MAXZ:21
;TARGET_MACHINE.NAME:ELEGOO NEPTUNE 3 Pro
;Generated with Cura_SteamEngine 5.7.2
M140 S105
M105
M190 S105
M104 S250
M105
M109 S250
M82 ;absolute extrusion mode
;ELEGOO NEPTUNE 3 Pro
M220 S100 ;Set the feed speed to 100%
M221 S100 ;Set the flow rate to 100%
G90
G28 ;home
;M420 S1 Z10;Uncomment to enable progressive compensation height of 10mm
G92 E0 ;Reset Extruder
G1 Z0.45 F300
G1 X1.5 Y20 F5000.0 ;Move to start position
G1 Y120.0 F600.0 E15 ;Draw the first line
G1 X0.5 F1000.0 ;Move to side a little
G1 Y20 F600 E30 ;Draw the second line
G92 E0 ;Reset Extruder
G92 E0
G92 E0
G1 F1200 E-1
;LAYER_COUNT:105
;LAYER:0
M106 S38.2
M204 S500
G0 F6000 X89.172 Y61.692 Z0.2
;TYPE:SKIRT
G1 F1200 E0
G1 F600 X87.83 Y63.917 E0.11797
G1 X86.341 Y66.247 E0.2435
G1 X84.817 Y68.489 E0.36658
G1 X83.202 Y70.724 E0.49177
G1 X81.55 Y72.883 E0.61519
G1 X79.831 Y74.997 E0.73889
G1 X78.038 Y77.083 E0.86377
G1 X76.191 Y79.111 E0.98831
G1 X74.279 Y81.095 E1.1134
G1 X72.364 Y82.971 E1.23511
G1 X70.333 Y84.853 E1.36082
G1 X68.27 Y86.66 E1.48533
G1 X66.174 Y88.392 E1.60877
G1 X64.012 Y90.078 E1.73324
G1 X61.812 Y91.695 E1.8572
G1 X59.558 Y93.258 E1.98173
G1 X57.266 Y94.751 E2.10591
G1 X54.933 Y96.18 E2.23012
G1 X52.563 Y97.541 E2.3542
G1 X50.137 Y98.843 E2.4792
G1 X47.701 Y100.063 E2.60289
G1 X45.234 Y101.214 E2.72648
G1 X42.723 Y102.299 E2.85067
G1 X40.166 Y103.319 E2.97565
G1 X37.606 Y104.257 E3.09943
G1 X36.566 Y104.621 E3.14946
G1 X36.042 Y104.915 E3.17673
G1 X35.641 Y105.232 E3.19994
G1 X35.293 Y105.608 E3.2232
G1 X34.848 Y106.172 E3.25582
G1 X29.49 Y113.168 E3.65589
G1 X28.978 Y113.86 E3.69497
G1 X28.712 Y114.284 E3.71769
G1 X28.511 Y114.753 E3.74086
G1 X28.385 Y115.249 E3.76409
G1 X28.337 Y115.758 E3.7873
G1 X28.327 Y116.456 E3.81899
G1 X28.329 Y119.517 E3.95796
G1 X28.394 Y120.109 E3.985
G1 X28.528 Y120.603 E4.00824
G1 X28.737 Y121.069 E4.03143
G1 X29.016 Y121.497 E4.05462
G1 X29.444 Y122.053 E4.08648
G1 X34.994 Y129.062 E4.49237
G1 X35.543 Y129.735 E4.5318
G1 X36.074 Y130.253 E4.56548
G1 X36.501 Y130.533 E4.58866
G1 X36.967 Y130.744 E4.61188
G1 X39.885 Y131.798 E4.75274
G1 X42.452 Y132.808 E4.87797
G1 X44.959 Y133.876 E5.00169
G1 X47.444 Y135.02 E5.12589
G1 X49.898 Y136.234 E5.25019
G1 X52.319 Y137.52 E5.37465
G1 X54.715 Y138.879 E5.49971
G1 X57.037 Y140.284 E5.62292
G1 X59.321 Y141.757 E5.74631
G1 X61.599 Y143.319 E5.87171
G1 X63.792 Y144.916 E5.99487
G1 X65.968 Y146.596 E6.11968
G1 X68.105 Y148.345 E6.24505
G1 X70.148 Y150.114 E6.36774
G1 X72.164 Y151.964 E6.49197
G1 X74.143 Y153.885 E6.61718
G1 X76.028 Y155.824 E6.73995
G1 X77.887 Y157.846 E6.86465
G1 X79.703 Y159.936 E6.99036
G1 X81.407 Y162.012 E7.11229
G1 X83.105 Y164.207 E7.23828
G1 X84.71 Y166.407 E7.36192
G1 X86.264 Y168.667 E7.48644
G1 X87.746 Y170.96 E7.61039
G1 X89.191 Y173.332 E7.73649
G1 X89.872 Y174.163 E7.78526
G1 X90.329 Y174.557 E7.81266
G1 X91.024 Y175.065 E7.85174
G1 X91.564 Y175.331 E7.87907
G1 X92.39 Y175.66 E7.91944
G1 X93 Y175.774 E7.94761
G1 X93.916 Y175.873 E7.98944
G1 X94.64 Y175.883 E8.02231
G1 X147.875 Y175.883 E10.43918
G1 X148.744 Y175.87 E10.47864
G1 X149.403 Y175.804 E10.50871
G1 X149.953 Y175.734 E10.53388
G1 X150.56 Y175.596 E10.56214
G1 X151.047 Y175.435 E10.58543
G1 X151.648 Y175.213 E10.61452
G1 X152.205 Y174.943 E10.64262
G1 X152.633 Y174.683 E10.66535
G1 X153.142 Y174.353 E10.69289
G1 X153.661 Y173.933 E10.72321
G1 X154.466 Y173.131 E10.7748
G1 X156.554 Y170.502 E10.92722
G1 X158.328 Y168.397 E11.0522
G1 X160.143 Y166.36 E11.17606
G1 X162.022 Y164.372 E11.30025
G1 X163.962 Y162.43 E11.42487
G1 X165.954 Y160.546 E11.54935
G1 X167.983 Y158.733 E11.67289
G1 X170.077 Y156.965 E11.79731
G1 X172.206 Y155.27 E11.92086
G1 X174.42 Y153.606 E12.0466
G1 X176.642 Y152.033 E12.17019
G1 X178.889 Y150.535 E12.2928
G1 X181.251 Y149.057 E12.4193
G1 X183.567 Y147.695 E12.54128
G1 X186.005 Y146.353 E12.66763
G1 X188.425 Y145.11 E12.79114
G1 X190.869 Y143.941 E12.91414
G1 X193.401 Y142.815 E13.03994
G1 X195.948 Y141.767 E13.16498
G1 X198.468 Y140.816 E13.28727
G1 X201.355 Y139.81 E13.42607
G1 X201.856 Y139.587 E13.45096
G1 X202.693 Y139.126 E13.49435
G1 X203.186 Y138.779 E13.52172
G1 X203.91 Y138.19 E13.56409
G1 X204.331 Y137.769 E13.59112
G1 X204.889 Y137.126 E13.62977
G1 X205.231 Y136.652 E13.65631
G1 X205.535 Y136.14 E13.68334
G1 X205.85 Y135.57 E13.71291
G1 X206.09 Y135.02 E13.74015
G1 X206.393 Y134.102 E13.78404
G1 X206.532 Y133.49 E13.81253
G1 X206.611 Y132.852 E13.84172
G1 X206.662 Y132.168 E13.87286
G1 X206.672 Y131.471 E13.90451
G1 X206.67 Y103.108 E15.19219
G1 X206.649 Y102.583 E15.21604
G1 X206.595 Y101.985 E15.2433
G1 X206.532 Y101.487 E15.26609
G1 X206.404 Y100.917 E15.29262
G1 X206.092 Y99.944 E15.33901
G1 X205.845 Y99.405 E15.36592
G1 X205.381 Y98.559 E15.40973
G1 X205.042 Y98.077 E15.43648
G1 X204.485 Y97.393 E15.47653
G1 X204.083 Y96.97 E15.50302
G1 X203.38 Y96.363 E15.54519
G1 X202.916 Y96.03 E15.57112
G1 X202.334 Y95.685 E15.60184
G1 X201.823 Y95.405 E15.62829
G1 X201.342 Y95.192 E15.65217
G1 X198.523 Y94.207 E15.78774
G1 X195.95 Y93.237 E15.91258
G1 X193.432 Y92.202 E16.03618
G1 X190.92 Y91.088 E16.16094
G1 X188.456 Y89.908 E16.28497
G1 X186.019 Y88.657 E16.40934
G1 X183.599 Y87.326 E16.53473
G1 X181.261 Y85.954 E16.6578
G1 X178.933 Y84.496 E16.78251
G1 X176.667 Y82.986 E16.90613
G1 X174.439 Y81.411 E17.03001
G1 X172.231 Y79.752 E17.15539
G1 X170.105 Y78.059 E17.27878
G1 X168.005 Y76.288 E17.40349
G1 X165.978 Y74.478 E17.52687
G1 X163.986 Y72.595 E17.65132
G1 X162.028 Y70.636 E17.77706
G1 X160.179 Y68.678 E17.89933
G1 X158.35 Y66.629 E18.02402
G1 X156.587 Y64.538 E18.14819
G1 X154.514 Y61.923 E18.29969
G1 X154.015 Y61.411 E18.33215
G1 X153.611 Y61.02 E18.35768
G1 X153.127 Y60.636 E18.38573
G1 X152.696 Y60.356 E18.40906
G1 X152.199 Y60.052 E18.43551
G1 X151.622 Y59.774 E18.46459
G1 X150.688 Y59.434 E18.50971
G1 X149.976 Y59.271 E18.54288
G1 X149.461 Y59.203 E18.56646
G1 X148.708 Y59.129 E18.60081
G1 X147.879 Y59.117 E18.63845
G1 X94.989 Y59.117 E21.03966
G1 X93.621 Y59.145 E21.10178
G1 X92.707 Y59.263 E21.14362
G1 X92.138 Y59.44 E21.17068
G1 X91.352 Y59.753 E21.20909
G1 X90.846 Y60.065 E21.23607
G1 X90.139 Y60.58 E21.27578
G1 X89.724 Y61.015 E21.30308
G1 X89.172 Y61.692 E21.34274
G1 F1200 E20.34274
G0 F6000 X97.164 Y67.95
G1 F1200 E21.34274
G1 F600 X99.682 Y66.496 E21.47474
G1 X102.2 Y67.95 E21.60675
G1 X102.2 Y70.858 E21.73878
G1 X99.682 Y72.312 E21.87078
G1 X97.164 Y70.858 E22.00279
G1 X97.164 Y67.95 E22.13481
G0 F6000 X97.71 Y68.266
G1 F600 X99.682 Y67.127 E22.2382
G1 X101.654 Y68.266 E22.34159
G1 X101.654 Y70.542 E22.44492
G1 X99.682 Y71.681 E22.54831
G1 X97.71 Y70.542 E22.6517
G1 X97.71 Y68.266 E22.75503
G1 F1200 E21.75503
G0 F6000 X101.683 Y162.866
G1 F1200 E22.75503
G1 F600 X103.549 Y165.094 E22.88698
G1 X102.55 Y167.826 E23.01904
G1 X99.686 Y168.325 E23.15103
G1 X97.821 Y166.096 E23.28297
G1 X98.819 Y163.365 E23.41498
G1 X101.683 Y162.866 E23.54696
G0 F6000 X101.466 Y163.458
G1 F600 X102.927 Y165.203 E23.65029
G1 X102.146 Y167.342 E23.75367
G1 X99.902 Y167.733 E23.85708
G1 X98.442 Y165.987 E23.96041
G1 X99.223 Y163.849 E24.06375
G1 X101.466 Y163.458 E24.16712
G1 F1200 E23.16712
G0 F6000 X39.614 Y119.405
G1 F1200 E24.16712
G1 F600 X37.584 Y119.386 E24.25929
G1 X36.585 Y117.621 E24.35136
G1 X37.616 Y115.872 E24.44354
G1 X39.644 Y115.89 E24.53561
G1 X40.644 Y117.659 E24.62787
G1 X39.614 Y119.405 E24.7199
G0 F6000 X39.924 Y119.954
G1 F600 X37.264 Y119.929 E24.84067
G1 X35.954 Y117.615 E24.96139
G1 X37.305 Y115.323 E25.08218
G1 X39.964 Y115.347 E25.20291
G1 X41.274 Y117.664 E25.32375
G1 X39.924 Y119.954 E25.44443
G1 F1200 E24.44443
G0 F6000 X193.893 Y116.397
G1 F1200 E25.44443
G1 F600 X195.844 Y115.223 E25.54781
G1 X197.835 Y116.326 E25.65115
G1 X197.875 Y118.603 E25.75454
G1 X195.923 Y119.776 E25.85793
G1 X193.931 Y118.674 E25.96128
G1 X193.893 Y116.397 E26.06467
G0 F6000 X193.342 Y116.091
G1 F600 X195.833 Y114.593 E26.19664
G1 X198.376 Y116.001 E26.32861
G1 X198.426 Y118.908 E26.4606
G1 X195.934 Y120.406 E26.59261
G1 X193.39 Y118.999 E26.72459
G1 X193.342 Y116.091 E26.85664
G1 F1200 E25.85664
G0 F6000 X194.38 Y116.666
;TYPE:SUPPORT
G1 F1200 E26.85664
G1 F780 X195.853 Y115.78 E26.91366
G1 X197.355 Y116.614 E26.97066
G1 X197.383 Y118.33 E27.0276
G1 X195.911 Y119.217 E27.08462
G1 X194.409 Y118.383 E27.14162
G1 X194.38 Y116.666 E27.19859
G0 F6000 X194.595 Y117.002
G1 F600 X197.172 Y118.203 E27.32121
G0 F6000 X196.47 Y118.635
G1 F600 X197.154 Y117.17 E27.39095
G1 F1200 E26.39095
G0 F6000 X196.106 Y116.161
G1 F1200 E27.39095
G1 F600 X195.837 Y116.036 E27.40374
G1 X196.084 Y116.15
G1 X195.002 Y118.471 E27.51419
G1 F1200 E26.51419
G0 F6000 X101.168 Y70.258
G1 F1200 E27.51419
G1 F780 X99.679 Y71.12 E27.57127
G1 X98.191 Y70.258 E27.62832
G1 X98.191 Y68.546 E27.68512
G1 X99.679 Y67.684 E27.74218
G1 X101.168 Y68.546 E27.79926
G1 X101.168 Y70.258 E27.85606
G0 F6000 X100.85 Y70.198
G1 F600 X98.401 Y69.056 E27.9726
G1 F1200 E26.9726
G0 F6000 X98.555 Y70.226
G1 F1200 E27.9726
G1 F600 X99.608 Y67.968 E28.08006
G1 X99.507 Y68.027
G1 X100.958 Y68.704 E28.14912
G1 X100.854 Y68.608
G1 X99.839 Y70.785 E28.25271
G1 F1200 E27.25271
G0 F6000 X39.357 Y116.37
G1 F1200 E28.25271
G1 F780 X40.081 Y117.65 E28.3015
G1 X39.336 Y118.916 E28.35024
G1 X37.868 Y118.903 E28.39894
G1 X37.143 Y117.623 E28.44775
G1 X37.888 Y116.36 E28.4964
G1 X39.357 Y116.37 E28.54514
G0 F6000 X39.581 Y117.193
G1 F600 X38.877 Y118.702 E28.61695
G0 F6000 X39.221 Y118.697
G1 F600 X37.551 Y117.918 E28.69643
G1 X37.632 Y118.059
G1 X38.325 Y116.572 E28.76719
G0 F6000 X38.001 Y116.583
G1 F600 X39.68 Y117.366 E28.84709
G1 F1200 E27.84709
G0 F6000 X99.58 Y164.278
G1 F1200 E28.84709
G1 F780 X101.272 Y163.98 E28.90409
G1 X102.377 Y165.298 E28.96115
G1 X101.788 Y166.91 E29.01809
G1 X100.096 Y167.208 E29.07509
G1 X98.991 Y165.89 E29.13216
G1 X99.58 Y164.278 E29.18909
G1 F1200 E28.18909
G0 F6000 X100.604 Y164.312
G1 F1200 E29.18909
G1 F600 X101.708 Y164.826 E29.24162
G0 F6000 X102.106 Y165.304
G1 F600 X101.427 Y166.761 E29.31095
G0 F6000 X101.753 Y166.392
G1 F600 X99.427 Y165.307 E29.42165
G1 F1200 E28.42165
G0 F6000 X99.922 Y166.674
G1 F1200 E29.42165
G1 F600 X101.062 Y164.231 E29.53792
G1 F1200 E28.53792
;MESH:chassis second floor.stl
G0 F6000 X100.614 Y161.667
G0 X97.342 Y161.983
G0 X97.458 Y162.026
;TYPE:WALL-INNER
G1 F1200 E29.53792
G1 F600 X97.618 Y161.866 E29.54819
G1 X97.848 Y161.734 E29.56023
G1 X101.973 Y161.013 E29.75035
G1 X102.186 Y161.018 E29.76002
G1 X102.495 Y161.133 E29.77499
G1 X102.631 Y161.24 E29.78284
G1 X105.307 Y164.439 E29.97219
G1 X105.403 Y164.625 E29.9817
G1 X105.451 Y164.897 E29.99424
G1 X105.429 Y165.112 E30.00405
G1 X104.026 Y168.95 E30.18957
G1 X103.908 Y169.165 E30.20071
G1 X103.696 Y169.36 E30.21378
G1 X103.398 Y169.475 E30.22828
G1 X99.344 Y170.186 E30.41515
G1 X99.007 Y170.123 E30.43071
G1 X98.68 Y169.886 E30.44905
G1 X96.104 Y166.81 E30.6312
G1 X95.969 Y166.584 E30.64315
G1 X95.913 Y166.3 E30.65629
G1 X95.931 Y166.088 E30.66595
G1 X97.343 Y162.237 E30.85217
G1 X97.458 Y162.026 E30.86308
G1 F1200 E29.86308
G0 F6000 X97.342 Y161.983
G0 X98.24 Y161.67
G0 X99.732 Y161.15
G0 X98.668 Y151.219
G0 X97.715 Y149.991
G0 X97.43 Y149.301
G0 X97.351 Y148.703
G0 X97.394 Y147.751
G0 X97.417 Y147.761
G1 F1200 E30.86308
G1 F538.8 X97.806 Y147.057 E30.90374
G1 F600 X98.189 Y146.558 E30.9323
G1 X98.777 Y146.109 E30.96589
G1 X99.458 Y145.825 E30.99939
G1 X100.2 Y145.729 E31.03335
G1 X100.938 Y145.832 E31.06718
G1 X101.626 Y146.124 E31.10112
G1 X102.196 Y146.558 E31.13364
G1 X102.64 Y147.144 E31.16702
G1 X102.927 Y147.831 E31.20082
G1 X103.023 Y148.563 E31.23434
G1 X102.925 Y149.296 E31.26791
G1 X102.638 Y149.975 E31.30138
G1 X102.208 Y150.541 E31.33365
G1 X101.604 Y151.012 E31.36843
G1 X100.922 Y151.295 E31.40195
G1 X100.209 Y151.388 E31.43459
G1 X99.465 Y151.297 E31.46862
G1 X98.781 Y151.014 E31.50223
G1 X98.186 Y150.56 E31.53621
G1 X97.738 Y149.971 E31.5698
G1 F581.9 X97.47 Y149.319 E31.60281
G1 F546.9 X97.341 Y148.672 E31.63566
G1 F506.3 X97.303 Y148.539 E31.64311
G1 F486.1 X97.417 Y147.761 E31.68717
G1 F1200 E30.68717
G0 F6000 X97.394 Y147.751
G0 X96.837 Y147.225
G0 X97.922 Y141.799
G0 X98.028 Y140.521
G0 X97.835 Y139.202
G0 X97.351 Y137.962
G0 X96.597 Y136.862
G0 X95.617 Y135.962
G0 X94.5 Y135.329
G0 X89.149 Y133.019
G0 X75.091 Y126.676
G0 X79.922 Y119.275
G0 X79.4 Y118.513
G0 X79.044 Y117.591
G0 X79.132 Y117.58
G1 F1200 E31.68717
G1 F600 X79.173 Y117.095 E31.70927
G1 X79.372 Y116.589 E31.73396
G1 X79.618 Y116.254 E31.75283
G1 X79.996 Y115.948 E31.77491
G1 X80.591 Y115.715 E31.80392
G1 X81.054 Y115.683 E31.82499
G1 X81.53 Y115.774 E31.84699
G1 X81.95 Y115.981 E31.86825
G1 X82.337 Y116.33 E31.8919
G1 X82.337 Y111.163 E32.12649
G1 X82.445 Y110.844 E32.14178
G1 X82.666 Y110.595 E32.15689
G1 X83.01 Y110.433 E32.17415
G1 X106.301 Y110.438 E33.23157
G1 X106.519 Y110.495 E33.2418
G1 X106.754 Y110.643 E33.25441
G1 X106.947 Y110.905 E33.26918
G1 X107.023 Y111.128 E33.27988
G1 X107.023 Y116.55 E33.52604
G1 X107.368 Y116.132 E33.55064
G1 X107.746 Y115.878 E33.57132
G1 X108.21 Y115.715 E33.59365
G1 X108.669 Y115.683 E33.61453
G1 X109.017 Y115.73 E33.63048
G1 X109.394 Y115.878 E33.64886
G1 X109.774 Y116.137 E33.66974
G1 X109.93 Y116.294 E33.67979
G1 X110.188 Y116.674 E33.70064
G1 X110.353 Y117.14 E33.72309
G1 X110.391 Y117.5 E33.73952
G1 X110.347 Y117.902 E33.75788
G1 X110.194 Y118.316 E33.77792
G1 X109.934 Y118.702 E33.79905
G1 X109.772 Y118.864 E33.80945
G1 X109.394 Y119.118 E33.83013
G1 X109.017 Y119.266 E33.84851
G1 X108.669 Y119.313 E33.86446
G1 X108.21 Y119.281 E33.88535
G1 X107.99 Y119.222 E33.89569
G1 X107.576 Y119.02 E33.9166
G1 X107.206 Y118.702 E33.93875
G1 X107.023 Y118.449 E33.95293
G1 X107.023 Y123.868 E34.19895
G1 X106.947 Y124.091 E34.20965
G1 X106.754 Y124.352 E34.22438
G1 X106.52 Y124.501 E34.23698
G1 X106.301 Y124.558 E34.24725
G1 X83.01 Y124.563 E35.30466
G1 X82.666 Y124.401 E35.32193
G1 X82.54 Y124.285 E35.3297
G1 X82.381 Y124.012 E35.34405
G1 X82.337 Y123.833 E35.35241
G1 X82.337 Y118.672 E35.58672
G1 X82.152 Y118.864 E35.59883
G1 X81.774 Y119.118 E35.6195
G1 X81.31 Y119.281 E35.64183
G1 X80.851 Y119.313 E35.66272
G1 X80.37 Y119.222 E35.68495
G1 X80.037 Y119.073 E35.70151
G1 X79.706 Y118.826 E35.72026
G1 X79.39 Y118.437 E35.74301
G1 X79.201 Y118.01 E35.76421
G1 X79.132 Y117.58 E35.78398
G1 F1200 E34.78398
G0 F6000 X79.044 Y117.591
G0 X74.353 Y117.605
G0 X73.772 Y119.006
G0 X73.317 Y119.597
G0 X72.726 Y120.051
G0 X72.036 Y120.338
G0 X71.295 Y120.436
G0 X70.554 Y120.338
G0 X69.864 Y120.051
G0 X69.272 Y119.597
G0 X68.819 Y119.006
G0 X68.587 Y118.447
G0 X68.376 Y117.557
G0 X68.466 Y117.569
G1 F1200 E35.78398
G1 F600 X68.557 Y116.843 E35.8172
G1 X68.846 Y116.151 E35.85125
G1 X69.314 Y115.552 E35.88576
G1 X69.877 Y115.129 E35.91773
G1 X70.562 Y114.837 E35.95154
G1 X71.291 Y114.747 E35.98489
G1 X72.026 Y114.837 E36.0185
G1 X72.713 Y115.122 E36.05227
G1 X73.297 Y115.571 E36.08571
G1 X73.742 Y116.159 E36.11919
G1 X74.023 Y116.827 E36.15209
G1 X74.122 Y117.564 E36.18585
G1 X74.033 Y118.292 E36.21915
G1 X73.735 Y119.001 E36.25407
G1 X73.291 Y119.577 E36.28709
G1 X72.714 Y120.021 E36.32014
G1 X72.026 Y120.311 E36.35404
G1 X71.292 Y120.401 E36.38761
G1 X70.592 Y120.316 E36.41962
G1 X69.903 Y120.034 E36.45342
G1 X69.293 Y119.58 E36.48795
G1 X68.842 Y118.983 E36.52191
G1 X68.563 Y118.317 E36.5547
G1 X68.466 Y117.569 E36.58894
G1 F1200 E35.58894
G0 F6000 X68.376 Y117.557
