;FLAVOR:Marlin
;TIME:3366
;Filament used: 3.35111m
;Layer height: 0.2
;MINX:87.121
;MINY:85.054
;MINZ:0.2
;MAXX:147.871
;MAXY:149.961
;MAXZ:12.4
;TARGET_MACHINE.NAME:ELEGOO NEPTUNE 3 Pro
;Generated with Cura_SteamEngine 5.7.2
M140 S105
M105
M190 S105
M104 S250
M105
M109 S250
M82 ;absolute extrusion mode
;ELEGOO NEPTUNE 3 Pro
M220 S100 ;Set the feed speed to 100%
M221 S100 ;Set the flow rate to 100%
G90
G28 ;home
;M420 S1 Z10;Uncomment to enable progressive compensation height of 10mm
G92 E0 ;Reset Extruder
G1 Z0.45 F300
G1 X1.5 Y20 F5000.0 ;Move to start position
G1 Y120.0 F600.0 E15 ;Draw the first line
G1 X0.5 F1000.0 ;Move to side a little
G1 Y20 F600 E30 ;Draw the second line
G92 E0 ;Reset Extruder
G92 E0
G92 E0
G1 F1200 E-1
;LAYER_COUNT:62
;LAYER:0
M106 S38.2
M204 S500
G0 F6000 X89.459 Y89.611 Z0.2
;TYPE:SKIRT
G1 F1200 E0
G1 F600 X89.934 Y89.204 E0.0284
G1 X90.389 Y88.874 E0.05392
G1 X90.9 Y88.562 E0.0811
G1 X91.408 Y88.306 E0.10692
G1 X92.23 Y87.975 E0.14716
G1 X92.995 Y87.79 E0.18289
G1 X93.595 Y87.685 E0.21054
G1 X94.599 Y87.633 E0.25618
G1 X105.335 Y87.629 E0.7436
G1 X108.114 Y87.589 E0.86978
G1 X110.822 Y87.474 E0.99283
G1 X113.554 Y87.282 E1.11717
G1 X116.225 Y87.016 E1.23904
G1 X118.979 Y86.664 E1.36509
G1 X121.609 Y86.25 E1.48596
G1 X124.307 Y85.749 E1.61054
G1 X125.666 Y85.451 E1.67371
G1 X126.976 Y85.178 E1.73446
G1 X127.575 Y85.086 E1.76197
G1 X128.168 Y85.054 E1.78893
G1 X128.821 Y85.115 E1.81871
G1 X129.322 Y85.214 E1.84189
G1 X130.027 Y85.467 E1.8759
G1 X130.684 Y85.789 E1.90912
G1 X131.455 Y86.412 E1.95412
G1 X144.088 Y99.038 E2.765
G1 X144.893 Y99.881 E2.81792
G1 X145.273 Y100.313 E2.84404
G1 X145.72 Y100.895 E2.87736
G1 X146.242 Y101.667 E2.91967
G1 X146.701 Y102.504 E2.96301
G1 X147.232 Y103.743 E3.02421
G1 X147.512 Y104.711 E3.06995
G1 X147.644 Y105.296 E3.09718
G1 X147.806 Y106.272 E3.1421
G1 X147.871 Y107.273 E3.18764
G1 X147.839 Y108.336 E3.23592
G1 X147.774 Y109.228 E3.27653
G1 X147.664 Y110.487 E3.3339
G1 X147.504 Y113.166 E3.45575
G1 X147.42 Y115.88 E3.57902
G1 X147.412 Y118.613 E3.7031
G1 X147.483 Y121.347 E3.82726
G1 X147.628 Y124.037 E3.94957
G1 X147.857 Y126.877 E4.07892
G1 X147.868 Y127.606 E4.11202
G1 X147.827 Y128.391 E4.14771
G1 X147.734 Y129.25 E4.18694
G1 X147.547 Y130.17 E4.22956
G1 X147.221 Y131.285 E4.2823
G1 X146.77 Y132.337 E4.33427
G1 X146.429 Y132.994 E4.36787
G1 X145.913 Y133.848 E4.41317
G1 X145.227 Y134.75 E4.46462
G1 X144.543 Y135.494 E4.5105
G1 X144.13 Y135.917 E4.53734
G1 X131.954 Y148.093 E5.31911
G1 X131.427 Y148.604 E5.35243
G1 X130.871 Y149.056 E5.38497
G1 X130.375 Y149.369 E5.41159
G1 X129.852 Y149.608 E5.4377
G1 X129.289 Y149.795 E5.46463
G1 X128.708 Y149.901 E5.49144
G1 X127.945 Y149.961 E5.52619
G1 X127.023 Y149.831 E5.56846
G1 X124.276 Y149.242 E5.69601
G1 X121.61 Y148.746 E5.81913
G1 X118.917 Y148.325 E5.94287
G1 X116.2 Y147.98 E6.06722
G1 X113.525 Y147.715 E6.18926
G1 X110.793 Y147.523 E6.3136
G1 X108.086 Y147.41 E6.4366
G1 X105.352 Y147.371 E6.56074
G1 X95.144 Y147.371 E7.02418
G1 X94.221 Y147.354 E7.06609
G1 X93.483 Y147.3 E7.09969
G1 X92.464 Y147.08 E7.14702
G1 X91.822 Y146.872 E7.17765
G1 X91.14 Y146.579 E7.21135
G1 X90.38 Y146.12 E7.25166
G1 X89.923 Y145.786 E7.27736
G1 X89.457 Y145.385 E7.30527
G1 X89.06 Y144.986 E7.33083
G1 X88.709 Y144.573 E7.35543
G1 X88.365 Y144.098 E7.38206
G1 X88.056 Y143.591 E7.40902
G1 X87.801 Y143.088 E7.43462
G1 X87.458 Y142.258 E7.47539
G1 X87.224 Y141.13 E7.52769
G1 X87.132 Y140.227 E7.5689
G1 X87.121 Y139.554 E7.59946
G1 X87.122 Y95.586 E9.59561
G1 X87.139 Y94.724 E9.63475
G1 X87.206 Y93.907 E9.67197
G1 X87.418 Y92.953 E9.71634
G1 X87.63 Y92.304 E9.74733
G1 X87.955 Y91.567 E9.7839
G1 X88.374 Y90.885 E9.82024
G1 X88.702 Y90.436 E9.84549
G1 X89.1 Y89.971 E9.87328
G1 X89.459 Y89.611 E9.89636
G0 F6000 X89.846 Y89.997
G1 F600 X90.256 Y89.645 E9.92089
G1 X90.675 Y89.339 E9.94445
G1 X91.147 Y89.049 E9.9696
G1 X91.616 Y88.811 E9.99347
G1 X92.358 Y88.506 E10.02989
G1 X93.123 Y88.321 E10.06563
G1 X93.688 Y88.223 E10.09166
G1 X94.599 Y88.179 E10.13307
G1 X105.343 Y88.175 E10.62085
G1 X108.137 Y88.135 E10.74771
G1 X110.85 Y88.02 E10.87099
G1 X113.593 Y87.826 E10.99583
G1 X116.294 Y87.558 E11.11906
G1 X119.048 Y87.206 E11.24511
G1 X121.709 Y86.787 E11.36741
G1 X124.407 Y86.286 E11.49199
G1 X125.778 Y85.985 E11.55572
G1 X127.06 Y85.717 E11.61518
G1 X127.61 Y85.631 E11.64045
G1 X128.12 Y85.598 E11.66365
G1 X128.715 Y85.651 E11.69077
G1 X129.216 Y85.75 E11.71396
G1 X129.787 Y85.957 E11.74153
G1 X130.387 Y86.251 E11.77187
G1 X131.112 Y86.837 E11.81419
G1 X143.693 Y99.415 E12.62186
G1 X144.483 Y100.242 E12.67379
G1 X144.863 Y100.674 E12.69991
G1 X145.268 Y101.202 E12.73012
G1 X145.763 Y101.93 E12.77009
G1 X146.222 Y102.767 E12.81342
G1 X146.708 Y103.895 E12.86919
G1 X146.98 Y104.832 E12.91348
G1 X147.106 Y105.387 E12.93932
G1 X147.261 Y106.309 E12.98177
G1 X147.325 Y107.257 E13.0249
G1 X147.294 Y108.297 E13.07214
G1 X147.23 Y109.18 E13.11234
G1 X147.12 Y110.439 E13.16971
G1 X146.958 Y113.149 E13.29297
G1 X146.874 Y115.863 E13.41624
G1 X146.866 Y118.611 E13.541
G1 X146.937 Y121.361 E13.66589
G1 X147.084 Y124.081 E13.78956
G1 X147.311 Y126.885 E13.91728
G1 X147.322 Y127.614 E13.95038
G1 X147.284 Y128.334 E13.98311
G1 X147.199 Y129.141 E14.01995
G1 X147.012 Y130.061 E14.06258
G1 X146.719 Y131.07 E14.11028
G1 X146.285 Y132.085 E14.16039
G1 X145.944 Y132.742 E14.194
G1 X145.478 Y133.517 E14.23506
G1 X144.792 Y134.419 E14.2865
G1 X144.152 Y135.113 E14.32936
G1 X143.739 Y135.536 E14.3562
G1 X131.573 Y147.702 E15.13733
G1 X131.08 Y148.182 E15.16857
G1 X130.575 Y148.597 E15.19824
G1 X130.145 Y148.874 E15.22146
G1 X129.675 Y149.092 E15.24498
G1 X129.191 Y149.258 E15.26821
G1 X128.61 Y149.364 E15.29503
G1 X127.965 Y149.412 E15.32439
G1 X127.138 Y149.297 E15.3623
G1 X124.384 Y148.706 E15.49018
G1 X121.71 Y148.209 E15.61366
G1 X118.986 Y147.783 E15.73883
G1 X116.269 Y147.438 E15.86317
G1 X113.563 Y147.17 E15.98663
G1 X110.818 Y146.977 E16.11156
G1 X108.109 Y146.864 E16.23465
G1 X105.36 Y146.825 E16.35947
G1 X95.154 Y146.825 E16.82282
G1 X94.261 Y146.809 E16.86337
G1 X93.523 Y146.755 E16.89697
G1 X92.631 Y146.56 E16.93842
G1 X92.038 Y146.37 E16.96669
G1 X91.356 Y146.077 E17.00039
G1 X90.701 Y145.678 E17.03521
G1 X90.278 Y145.371 E17.05894
G1 X89.843 Y144.999 E17.08492
G1 X89.476 Y144.632 E17.10849
G1 X89.125 Y144.219 E17.13309
G1 X88.83 Y143.812 E17.15592
G1 X88.542 Y143.343 E17.1809
G1 X88.306 Y142.88 E17.2045
G1 X87.983 Y142.098 E17.24291
G1 X87.759 Y141.019 E17.29294
G1 X87.678 Y140.218 E17.32949
G1 X87.667 Y139.554 E17.35964
G1 X87.668 Y95.597 E19.35529
G1 X87.685 Y94.735 E19.39443
G1 X87.739 Y94.024 E19.42681
G1 X87.938 Y93.12 E19.46883
G1 X88.131 Y92.521 E19.4974
G1 X88.421 Y91.852 E19.53051
G1 X88.816 Y91.206 E19.56488
G1 X89.118 Y90.79 E19.58822
G1 X89.487 Y90.357 E19.61405
G1 X89.846 Y89.997 E19.63713
G1 F1200 E18.63713
G0 F6000 X120.587 Y100.954
G1 F1200 E19.63713
G1 F600 X123.495 Y100.954 E19.76915
G1 X124.949 Y103.472 E19.90116
G1 X123.495 Y105.989 E20.03313
G1 X120.587 Y105.989 E20.16515
G1 X119.133 Y103.472 E20.29712
G1 X120.587 Y100.954 E20.42913
G0 F6000 X120.903 Y101.5
G1 F600 X123.179 Y101.5 E20.53246
G1 X124.318 Y103.472 E20.63585
G1 X123.179 Y105.443 E20.7392
G1 X120.903 Y105.443 E20.84253
G1 X119.764 Y103.472 E20.94588
G1 X120.903 Y101.5 E21.04927
G1 F1200 E20.04927
G0 F6000 X123.414 Y111.439
G1 F1200 E21.04927
G1 F600 X123.594 Y111.46 E21.0575
G1 X123.712 Y111.501 E21.06317
G1 X123.812 Y111.563 E21.06851
G1 X123.895 Y111.646 E21.07384
G1 X123.963 Y111.755 E21.07967
G1 X124 Y111.864 E21.0849
G1 X124.022 Y112.049 E21.09336
G1 X124.022 Y122.951 E21.58831
G1 X124.001 Y123.131 E21.59654
G1 X123.961 Y123.249 E21.60219
G1 X123.895 Y123.353 E21.60779
G1 X123.815 Y123.433 E21.61292
G1 X123.706 Y123.501 E21.61875
G1 X123.592 Y123.54 E21.62422
G1 X123.419 Y123.561 E21.63214
G1 X102.483 Y123.561 E22.58263
G1 X102.31 Y123.54 E22.59054
G1 X102.196 Y123.501 E22.59601
G1 X102.087 Y123.433 E22.60185
G1 X102.006 Y123.352 E22.60705
G1 X101.939 Y123.245 E22.61278
G1 X101.9 Y123.134 E22.61812
G1 X101.88 Y122.958 E22.62616
G1 X101.88 Y112.043 E23.1217
G1 X101.9 Y111.864 E23.12988
G1 X101.938 Y111.755 E23.13512
G1 X102.006 Y111.647 E23.14092
G1 X102.09 Y111.563 E23.14631
G1 X102.19 Y111.501 E23.15165
G1 X102.308 Y111.46 E23.15732
G1 X102.488 Y111.439 E23.16555
G1 X123.414 Y111.439 E24.11559
G0 F6000 X123.378 Y111.985
G1 F600 X123.466 Y111.995 E24.11961
G1 X123.476 Y112.078 E24.12341
G1 X123.476 Y122.921 E24.61568
G1 X123.466 Y123.006 E24.61957
G1 X123.388 Y123.015 E24.62313
G1 X102.514 Y123.015 E25.57081
G1 X102.436 Y123.006 E25.57438
G1 X102.426 Y122.922 E25.57822
G1 X102.426 Y112.078 E26.07054
G1 X102.435 Y111.995 E26.07433
G1 X102.524 Y111.985 E26.07839
G1 X123.378 Y111.985 E27.02517
G1 F1200 E26.02517
G0 F6000 X131.658 Y117.5
G1 F1200 E27.02517
G1 F600 X133.112 Y114.982 E27.15717
G1 X136.02 Y114.982 E27.2892
G1 X137.474 Y117.5 E27.42121
G1 X136.02 Y120.017 E27.55317
G1 X133.112 Y120.017 E27.6852
G1 X131.658 Y117.5 E27.81717
G0 F6000 X132.289 Y117.5
G1 F600 X133.428 Y115.528 E27.92056
G1 X135.704 Y115.528 E28.02389
G1 X136.843 Y117.5 E28.12728
G1 X135.704 Y119.471 E28.23063
G1 X133.428 Y119.471 E28.33396
G1 X132.289 Y117.5 E28.43731
G1 F1200 E27.43731
G0 F6000 X123.495 Y129.01
G1 F1200 E28.43731
G1 F600 X124.949 Y131.528 E28.56931
G1 X123.495 Y134.045 E28.70128
G1 X120.587 Y134.045 E28.83331
G1 X119.133 Y131.528 E28.96528
G1 X120.587 Y129.01 E29.09728
G1 X123.495 Y129.01 E29.22931
G0 F6000 X123.179 Y129.556
G1 F600 X124.318 Y131.528 E29.3327
G1 X123.179 Y133.499 E29.43605
G1 X120.903 Y133.499 E29.53938
G1 X119.764 Y131.528 E29.64273
G1 X120.903 Y129.556 E29.74612
G1 X123.179 Y129.556 E29.84945
G0 F6000 X122.894 Y130.038
;TYPE:SUPPORT
G1 F780 X123.757 Y131.528 E29.90657
G1 X122.895 Y133.014 E29.96357
G1 X121.182 Y133.014 E30.0204
G1 X120.323 Y131.528 E30.07735
G1 X121.182 Y130.038 E30.13441
G1 X122.894 Y130.038 E30.19121
G0 F6000 X122.946 Y130.55
G1 F600 X121.895 Y132.804 E30.29847
G0 F6000 X122.477 Y132.804
G1 F600 X120.87 Y132.054 E30.37496
G1 X120.776 Y131.89
G1 X121.543 Y130.247 E30.45316
G0 F6000 X121.093 Y130.613
G1 F600 X123.416 Y131.697 E30.56372
G1 F1200 E29.56372
G0 F6000 X122.99 Y122.53
G1 F1200 E30.56372
G1 F780 X102.906 Y122.53 E31.23005
G1 X102.906 Y112.466 E31.56394
G1 X122.99 Y112.466 E32.23027
G1 X122.99 Y122.53 E32.56416
G0 F6000 X122.78 Y122.132
G1 F600 X103.116 Y112.962 E33.49996
G0 F6000 X103.477 Y112.675
G1 F600 X103.116 Y113.447 E33.53672
G1 F1200 E32.53672
G0 F6000 X103.115 Y114.507
G1 F1200 E33.53672
G1 F600 X119.869 Y122.319 E34.33401
G0 F6000 X120.605 Y122.32
G1 F600 X122.78 Y117.656 E34.55597
G1 X122.78 Y117.498
G1 X112.44 Y112.676 E35.04804
G0 F6000 X112.744 Y112.676
G1 F600 X108.247 Y122.321 E35.50702
G1 F1200 E34.50702
G0 F6000 X106.703 Y122.32
G1 F1200 E35.50702
G1 F600 X111.2 Y112.675 E35.96601
G1 F1200 E34.96601
G0 F6000 X109.655 Y112.675
G1 F1200 E35.96601
G1 F600 X105.158 Y122.32 E36.42499
G1 F1200 E35.42499
G0 F6000 X106.619 Y122.319
G1 F1200 E36.42499
G1 F600 X103.115 Y120.686 E36.59173
G0 F6000 X103.116 Y120.074
G1 F600 X106.566 Y112.675 E36.94383
G0 F6000 X105.814 Y112.676
G1 F600 X122.78 Y120.587 E37.75122
G0 F6000 X122.78 Y120.969
G1 F600 X122.15 Y122.32 E37.81551
G1 F1200 E36.81551
G0 F6000 X119.06 Y122.32
G1 F1200 E37.81551
G1 F600 X122.78 Y114.344 E38.19509
G1 X122.78 Y114.408
G1 X119.066 Y112.676 E38.37184
G1 X118.924 Y112.675
G1 X114.426 Y122.32 E38.83084
G1 F1200 E37.83084
G0 F6000 X113.245 Y122.32
G1 F1200 E38.83084
G1 F600 X103.116 Y117.596 E39.31288
G0 F6000 X103.116 Y116.76
G1 F600 X105.021 Y112.676 E39.50724
G1 F1200 E38.50724
G0 F6000 X108.11 Y112.675
G1 F1200 E39.50724
G1 F600 X103.613 Y122.32 E39.96623
G0 F6000 X103.307 Y122.32
G1 F600 X103.115 Y122.23 E39.97537
G1 F1200 E38.97537
G0 F6000 X103.115 Y119.141
G1 F1200 E39.97537
G1 F600 X109.931 Y122.319 E40.29973
G1 X109.792 Y122.32
G1 X114.289 Y112.676 E40.75868
G1 F1200 E39.75868
G0 F6000 X115.752 Y112.676
G1 F1200 E40.75868
G1 F600 X122.781 Y115.953 E41.09317
G1 F1200 E40.09317
G0 F6000 X122.78 Y119.042
G1 F1200 E41.09317
G1 F600 X109.127 Y112.676 E41.74289
G1 F1200 E40.74289
G0 F6000 X115.834 Y112.675
G1 F1200 E41.74289
G1 F600 X111.337 Y122.32 E42.20187
G1 F1200 E41.20187
G0 F6000 X112.881 Y122.32
G1 F1200 E42.20187
G1 F600 X117.379 Y112.675 E42.66087
G1 F1200 E41.66087
G0 F6000 X120.468 Y112.675
G1 F1200 E42.66087
G1 F600 X115.971 Y122.32 E43.11986
G0 F6000 X116.557 Y122.32
G1 F600 X103.116 Y116.052 E43.7595
G1 F1200 E42.7595
G0 F6000 X117.516 Y122.32
G1 F1200 E43.7595
G1 F600 X122.013 Y112.676 E44.21845
G0 F6000 X122.378 Y112.676
G1 F600 X122.78 Y112.864 E44.23759
G1 F1200 E43.23759
G0 F6000 X132.847 Y117.5
G1 F1200 E44.23759
G1 F780 X133.709 Y116.011 E44.29467
G1 X135.422 Y116.011 E44.3515
G1 X136.281 Y117.5 E44.40854
G1 X135.422 Y118.986 E44.46548
G1 X133.709 Y118.986 E44.52231
G1 X132.847 Y117.5 E44.57931
G0 F6000 X133.226 Y117.734
G1 F600 X135.334 Y118.717 E44.67963
G0 F6000 X134.615 Y118.776
G1 F600 X135.581 Y116.706 E44.77815
G0 F6000 X136.037 Y117.5
G1 F600 X133.716 Y116.418 E44.8886
G0 F6000 X134.262 Y116.221
G1 F600 X133.409 Y118.051 E44.97568
G1 F1200 E43.97568
G0 F6000 X122.895 Y104.958
G1 F1200 E44.97568
G1 F780 X121.182 Y104.958 E45.03251
G1 X120.323 Y103.472 E45.08945
G1 X121.182 Y101.982 E45.14652
G1 X122.894 Y101.982 E45.20331
G1 X123.757 Y103.472 E45.26044
G1 X122.895 Y104.958 E45.31744
G0 F6000 X122.62 Y104.748
G1 F600 X123.348 Y103.186 E45.39176
G0 F6000 X123.301 Y103.838
G1 F600 X120.979 Y102.756 E45.50225
G1 F1200 E44.50225
G0 F6000 X122.268 Y102.191
G1 F1200 E45.50225
G1 F600 X121.177 Y104.529 E45.61353
G1 X121.068 Y104.341
G1 X121.938 Y104.747 E45.65493
G1 F1200 E44.65493
;MESH:Chassis fourth floor Pt2.stl
G0 F6000 X119.188 Y106.333
G0 X117.073 Y103.333
G0 X117.214 Y103.42
;TYPE:WALL-INNER
G1 F1200 E45.65493
G1 F600 X117.288 Y103.128 E45.66861
G1 X119.367 Y99.519 E45.8577
G1 X119.486 Y99.392 E45.8656
G1 X119.732 Y99.239 E45.87876
G1 X119.926 Y99.181 E45.88795
G1 X124.084 Y99.181 E46.07672
G1 X124.328 Y99.231 E46.08803
G1 X124.559 Y99.362 E46.10009
G1 X124.715 Y99.529 E46.11046
G1 X126.833 Y103.191 E46.30252
G1 X126.857 Y103.606 E46.32139
G1 X126.758 Y103.882 E46.33471
G1 X124.713 Y107.42 E46.52023
G1 X124.508 Y107.616 E46.53311
G1 X124.34 Y107.705 E46.54174
G1 X124.061 Y107.759 E46.55464
G1 X120.036 Y107.759 E46.73738
G1 X119.732 Y107.701 E46.75143
G1 X119.487 Y107.548 E46.76454
G1 X119.326 Y107.35 E46.77613
G1 X117.275 Y103.801 E46.96222
G1 X117.214 Y103.42 E46.97974
G1 F1200 E45.97974
G0 F6000 X117.073 Y103.333
G0 X119.8 Y107.352
G0 X119.8 Y109.413
G0 X118.904 Y110.053
G0 X102.405 Y110.037
G0 X101.583 Y110.227
G0 X100.901 Y110.771
G0 X100.524 Y111.554
G0 X100.065 Y123.495
G0 X100.157 Y123.486
G1 F1200 E46.97974
G1 F600 X100.11 Y123.105 E46.99717
G1 X100.11 Y111.891 E47.50629
G1 X100.191 Y111.378 E47.52987
G1 X100.381 Y110.901 E47.55318
G1 X100.613 Y110.539 E47.5727
G1 X100.977 Y110.171 E47.5962
G1 X101.341 Y109.937 E47.61584
G1 X101.9 Y109.728 E47.64294
G1 X102.33 Y109.67 E47.66264
G1 X123.565 Y109.67 E48.62671
G1 X123.93 Y109.714 E48.6434
G1 X124.48 Y109.894 E48.66967
G1 X124.901 Y110.154 E48.69214
G1 X125.289 Y110.542 E48.71705
G1 X125.393 Y110.699 E48.7256
G1 X125.465 Y110.673 E48.72907
G1 X130.154 Y110.674 E48.94195
G1 X130.323 Y110.713 E48.94983
G1 X130.636 Y110.908 E48.96657
G1 X130.792 Y111.127 E48.97878
G1 X130.875 Y111.488 E48.99559
G1 X130.875 Y115.309 E49.16907
G1 X131.85 Y113.618 E49.25769
G1 X132.21 Y113.287 E49.27989
