;FLAVOR:Marlin
;TIME:491
;Filament used: 0.183038m
;Layer height: 0.2
;MINX:107.64
;MINY:107.051
;MINZ:0.2
;MAXX:127.358
;MAXY:127.93
;MAXZ:18.8
;TARGET_MACHINE.NAME:ELEGOO NEPTUNE 3 Pro
;Generated with Cura_SteamEngine 5.7.2
M140 S105
M105
M190 S105
M104 S250
M105
M109 S250
M82 ;absolute extrusion mode
;ELEGOO NEPTUNE 3 Pro
M220 S100 ;Set the feed speed to 100%
M221 S100 ;Set the flow rate to 100%
G90
G28 ;home
;M420 S1 Z10;Uncomment to enable progressive compensation height of 10mm
G92 E0 ;Reset Extruder
G1 Z0.45 F300
G1 X1.5 Y20 F5000.0 ;Move to start position
G1 Y120.0 F600.0 E15 ;Draw the first line
G1 X0.5 F1000.0 ;Move to side a little
G1 Y20 F600 E30 ;Draw the second line
G92 E0 ;Reset Extruder
G92 E0
G92 E0
G1 F1200 E-1
;LAYER_COUNT:94
;LAYER:0
M106 S38.2
M204 S500
G0 F6000 X109.082 Y111.444 Z0.2
;TYPE:SKIRT
G1 F1200 E0
G1 F600 X109.825 Y110.753 E0.04607
G1 X110.829 Y110.11 E0.10019
G1 X113.955 Y108.171 E0.2672
G1 X114.701 Y107.732 E0.3065
G1 X115.239 Y107.472 E0.33363
G1 X116.036 Y107.212 E0.37169
G1 X117.016 Y107.051 E0.41677
G1 X117.981 Y107.088 E0.46062
G1 X118.695 Y107.207 E0.49348
G1 X119.673 Y107.578 E0.54097
G1 X120.463 Y107.976 E0.58113
G1 X123.782 Y109.751 E0.75201
G1 X124.519 Y110.167 E0.79043
G1 X125.236 Y110.67 E0.83019
G1 X125.663 Y111.067 E0.85666
G1 X126.269 Y111.79 E0.89949
G1 X126.675 Y112.529 E0.93777
G1 X126.99 Y113.326 E0.97668
G1 X127.157 Y114.151 E1.0149
G1 X127.232 Y115.337 E1.06885
G1 X127.35 Y119.084 E1.23905
G1 X127.358 Y119.951 E1.27841
G1 X127.304 Y120.622 E1.30897
G1 X127.115 Y121.501 E1.34979
G1 X126.768 Y122.329 E1.39055
G1 X126.388 Y122.963 E1.42411
G1 X125.858 Y123.613 E1.46218
G1 X125.175 Y124.246 E1.50446
G1 X124.17 Y124.889 E1.55863
G1 X121.064 Y126.816 E1.72457
G1 X120.426 Y127.197 E1.75831
G1 X119.545 Y127.613 E1.80254
G1 X118.983 Y127.785 E1.82923
G1 X118.115 Y127.93 E1.86918
G1 X117.225 Y127.929 E1.90959
G1 X116.422 Y127.815 E1.94641
G1 X115.526 Y127.527 E1.98914
G1 X114.529 Y127.019 E2.03994
G1 X111.217 Y125.248 E2.21045
G1 X110.48 Y124.832 E2.24887
G1 X109.763 Y124.329 E2.28863
G1 X109.336 Y123.932 E2.31511
G1 X108.73 Y123.209 E2.35793
G1 X108.324 Y122.47 E2.39622
G1 X108.007 Y121.669 E2.43532
G1 X107.832 Y120.767 E2.47704
G1 X107.766 Y119.637 E2.52843
G1 X107.649 Y115.918 E2.69736
G1 X107.64 Y115.057 E2.73645
G1 X107.691 Y114.333 E2.7694
G1 X107.923 Y113.402 E2.81296
G1 X108.179 Y112.745 E2.84497
G1 X108.707 Y111.896 E2.89036
G1 X109.082 Y111.444 E2.91702
G0 F6000 X109.454 Y111.844
G1 F600 X110.162 Y111.185 E2.96094
G1 X111.117 Y110.574 E3.01241
G1 X114.232 Y108.641 E3.17885
G1 X114.939 Y108.224 E3.21611
G1 X115.477 Y107.964 E3.24324
G1 X116.202 Y107.732 E3.2778
G1 X117.047 Y107.599 E3.31663
G1 X117.891 Y107.627 E3.35497
G1 X118.551 Y107.737 E3.38535
G1 X119.479 Y108.089 E3.43041
G1 X120.206 Y108.458 E3.46742
G1 X123.515 Y110.227 E3.63777
G1 X124.208 Y110.616 E3.67385
G1 X124.867 Y111.073 E3.71026
G1 X125.244 Y111.418 E3.73346
G1 X125.817 Y112.102 E3.77397
G1 X126.167 Y112.73 E3.80661
G1 X126.466 Y113.486 E3.84352
G1 X126.612 Y114.185 E3.87594
G1 X126.686 Y115.354 E3.92912
G1 X126.804 Y119.09 E4.09882
G1 X126.813 Y119.912 E4.13614
G1 X126.77 Y120.507 E4.16323
G1 X126.592 Y121.336 E4.20172
G1 X126.264 Y122.118 E4.24022
G1 X125.962 Y122.621 E4.26686
G1 X125.487 Y123.212 E4.30128
G1 X124.84 Y123.811 E4.34131
G1 X123.882 Y124.425 E4.39297
G1 X120.784 Y126.347 E4.55849
G1 X120.146 Y126.728 E4.59222
G1 X119.38 Y127.092 E4.63073
G1 X118.893 Y127.246 E4.65392
G1 X118.067 Y127.384 E4.69194
G1 X117.302 Y127.388 E4.72667
G1 X116.543 Y127.28 E4.76147
G1 X115.737 Y127.021 E4.79991
G1 X114.786 Y126.537 E4.84835
G1 X111.484 Y124.772 E5.01834
G1 X110.791 Y124.383 E5.05442
G1 X110.132 Y123.926 E5.09083
G1 X109.755 Y123.581 E5.11403
G1 X109.182 Y122.897 E5.15454
G1 X108.832 Y122.269 E5.18718
G1 X108.532 Y121.511 E5.22419
G1 X108.377 Y120.735 E5.26011
G1 X108.312 Y119.62 E5.31082
G1 X108.195 Y115.911 E5.47929
G1 X108.185 Y115.095 E5.51634
G1 X108.233 Y114.415 E5.54729
G1 X108.432 Y113.6 E5.58538
G1 X108.67 Y112.989 E5.61515
G1 X109.131 Y112.241 E5.65504
G1 X109.454 Y111.844 E5.67828
G0 F6000 X109.878 Y112.189
G1 F600 X110.498 Y111.619 E5.71651
G1 X111.405 Y111.038 E5.76541
G1 X114.511 Y109.111 E5.93136
G1 X115.177 Y108.716 E5.96652
G1 X115.715 Y108.456 E5.99364
G1 X116.365 Y108.253 E6.02456
G1 X117.079 Y108.147 E6.05733
G1 X117.801 Y108.166 E6.09012
G1 X118.407 Y108.267 E6.11801
G1 X119.285 Y108.6 E6.16064
G1 X119.949 Y108.94 E6.19451
G1 X123.249 Y110.704 E6.36439
G1 X123.9 Y111.067 E6.39823
G1 X124.498 Y111.476 E6.43113
G1 X124.875 Y111.821 E6.45433
G1 X125.364 Y112.411 E6.48912
G1 X125.659 Y112.931 E6.51626
G1 X125.941 Y113.643 E6.55103
G1 X126.077 Y114.296 E6.58131
G1 X126.14 Y115.371 E6.6302
G1 X126.258 Y119.097 E6.79944
G1 X126.268 Y119.873 E6.83468
G1 X126.225 Y120.468 E6.86176
G1 X126.069 Y121.17 E6.89441
G1 X125.793 Y121.841 E6.92735
G1 X125.534 Y122.282 E6.95057
G1 X125.116 Y122.811 E6.98118
G1 X124.503 Y123.379 E7.01912
G1 X123.594 Y123.961 E7.06812
G1 X120.504 Y125.878 E7.23321
G1 X119.866 Y126.259 E7.26695
G1 X119.215 Y126.571 E7.29972
G1 X118.728 Y126.725 E7.32291
G1 X118.06 Y126.838 E7.35367
G1 X117.379 Y126.847 E7.38459
G1 X116.664 Y126.745 E7.41738
G1 X115.945 Y126.514 E7.45167
G1 X115.043 Y126.056 E7.49759
G1 X111.75 Y124.295 E7.66713
G1 X111.099 Y123.932 E7.70097
G1 X110.501 Y123.523 E7.73386
G1 X110.124 Y123.178 E7.75706
G1 X109.635 Y122.588 E7.79185
G1 X109.34 Y122.068 E7.819
G1 X109.058 Y121.356 E7.85376
G1 X108.922 Y120.703 E7.88405
G1 X108.858 Y119.603 E7.93407
G1 X108.741 Y115.903 E8.10214
G1 X108.73 Y115.133 E8.1371
G1 X108.775 Y114.496 E8.16609
G1 X108.941 Y113.798 E8.19866
G1 X109.16 Y113.236 E8.22605
G1 X109.555 Y112.586 E8.26058
G1 X109.878 Y112.189 E8.28381
G0 F6000 X110.302 Y112.534
G1 F600 X110.832 Y112.053 E8.31631
G1 X111.693 Y111.502 E8.36272
G1 X114.791 Y109.58 E8.52823
G1 X115.415 Y109.208 E8.56122
G1 X115.953 Y108.948 E8.58834
G1 X116.523 Y108.776 E8.61537
G1 X117.113 Y108.694 E8.64242
G1 X117.711 Y108.705 E8.66957
G1 X118.263 Y108.797 E8.69498
G1 X119.091 Y109.111 E8.73518
G1 X119.692 Y109.421 E8.76588
G1 X122.983 Y111.181 E8.93532
G1 X123.634 Y111.544 E8.96916
G1 X124.129 Y111.879 E8.99629
G1 X124.506 Y112.224 E9.0195
G1 X124.911 Y112.72 E9.04857
G1 X125.184 Y113.201 E9.07368
G1 X125.415 Y113.797 E9.1027
G1 X125.542 Y114.407 E9.13098
G1 X125.594 Y115.388 E9.17558
G1 X125.712 Y119.105 E9.34442
G1 X125.723 Y119.834 E9.37752
G1 X125.68 Y120.429 E9.40461
G1 X125.546 Y121.008 E9.43159
G1 X125.322 Y121.564 E9.4588
G1 X125.063 Y122.005 E9.48202
G1 X124.69 Y122.469 E9.50905
G1 X124.169 Y122.945 E9.54109
G1 X123.306 Y123.497 E9.5876
G1 X120.224 Y125.409 E9.75226
G1 X119.586 Y125.79 E9.786
G1 X119.05 Y126.05 E9.81304
G1 X118.563 Y126.204 E9.83623
G1 X117.973 Y126.299 E9.86336
G1 X117.377 Y126.301 E9.89042
G1 X116.787 Y126.211 E9.91752
G1 X116.153 Y126.007 E9.94775
G1 X115.301 Y125.575 E9.99112
G1 X112.016 Y123.818 E10.16025
G1 X111.365 Y123.455 E10.19409
G1 X110.87 Y123.12 E10.22123
G1 X110.493 Y122.775 E10.24443
G1 X110.088 Y122.279 E10.2735
G1 X109.815 Y121.798 E10.29861
G1 X109.584 Y121.202 E10.32763
G1 X109.457 Y120.592 E10.35592
G1 X109.404 Y119.586 E10.40166
G1 X109.287 Y115.894 E10.56936
G1 X109.275 Y115.171 E10.60219
G1 X109.317 Y114.576 E10.62927
G1 X109.45 Y113.996 E10.65628
G1 X109.652 Y113.477 E10.68157
G1 X109.979 Y112.931 E10.71046
G1 X110.302 Y112.534 E10.7337
G0 F6000 X110.726 Y112.879
G1 F600 X111.162 Y112.49 E10.76022
G1 X111.981 Y111.966 E10.80436
G1 X115.072 Y110.048 E10.96952
G1 X115.658 Y109.697 E11.00053
G1 X116.116 Y109.469 E11.02376
G1 X116.604 Y109.316 E11.04698
G1 X117.109 Y109.24 E11.07016
G1 X117.621 Y109.244 E11.09341
G1 X118.125 Y109.328 E11.1166
G1 X118.841 Y109.596 E11.15131
G1 X119.434 Y109.902 E11.18161
G1 X122.718 Y111.659 E11.3507
G1 X123.333 Y112 E11.38262
G1 X123.76 Y112.282 E11.40586
G1 X124.137 Y112.627 E11.42906
G1 X124.456 Y113.026 E11.45225
G1 X124.709 Y113.471 E11.47549
G1 X124.889 Y113.949 E11.49868
G1 X125.007 Y114.518 E11.52506
G1 X125.048 Y115.405 E11.56537
G1 X125.166 Y119.115 E11.73389
G1 X125.178 Y119.801 E11.76504
G1 X125.147 Y120.311 E11.78824
G1 X125.037 Y120.81 E11.81144
G1 X124.851 Y121.287 E11.83468
G1 X124.592 Y121.728 E11.8579
G1 X124.268 Y122.123 E11.8811
G1 X123.837 Y122.508 E11.90733
G1 X123.018 Y123.033 E11.9515
G1 X119.943 Y124.941 E12.11579
G1 X119.343 Y125.301 E12.14756
G1 X118.885 Y125.529 E12.17079
G1 X118.398 Y125.683 E12.19398
G1 X117.892 Y125.759 E12.21721
G1 X117.381 Y125.755 E12.24041
G1 X116.876 Y125.672 E12.26364
G1 X116.325 Y125.489 E12.29
G1 X115.559 Y125.094 E12.32913
G1 X112.281 Y123.34 E12.49792
G1 X111.666 Y122.999 E12.52984
G1 X111.239 Y122.717 E12.55307
G1 X110.862 Y122.372 E12.57628
G1 X110.543 Y121.973 E12.59947
G1 X110.29 Y121.528 E12.62271
G1 X110.11 Y121.05 E12.6459
G1 X109.992 Y120.481 E12.67228
G1 X109.95 Y119.569 E12.71373
G1 X109.833 Y115.884 E12.88111
G1 X109.82 Y115.203 E12.91203
G1 X109.85 Y114.693 E12.93523
G1 X109.959 Y114.194 E12.95842
G1 X110.145 Y113.717 E12.98166
G1 X110.403 Y113.276 E13.00486
G1 X110.726 Y112.879 E13.02809
G1 F1200 E12.02809
;MESH:pivot shaft.stl
G0 F6000 X112.942 Y114.441
G0 X113.518 Y115.367
G0 X114.008 Y115.577
G0 X113.914 Y115.579
;TYPE:WALL-INNER
G1 F1200 E13.02809
G1 F600 X113.946 Y116.597 E13.07433
G1 F484.6 X114.089 Y117.008 E13.09879
G1 F413.6 X114.096 Y117.679 E13.14299
G1 F414.2 X114.127 Y118.228 E13.17915
G1 F483.2 X114.015 Y118.636 E13.203
G1 F596.7 X114.045 Y119.644 E13.24904
G1 F600 X114.854 Y120.078 E13.29072
G1 F482.5 X115.307 Y120.167 E13.31678
G1 F412.6 X116.043 Y120.581 E13.37254
G1 F415.7 X116.428 Y120.772 E13.4007
G1 F462.1 X116.649 Y120.994 E13.41916
G1 F563.9 X117.019 Y121.232 E13.44042
G1 F600 X117.629 Y121.559 E13.47184
G1 X118.434 Y121.06 E13.51484
G1 F487.5 X118.809 Y120.678 E13.54475
G1 F414.2 X119.037 Y120.548 E13.56201
G1 F417.3 X119.631 Y120.176 E13.60776
G1 F491.9 X120.133 Y120.006 E13.63711
G1 F600 X121.082 Y119.417 E13.68782
G1 X121.05 Y118.397 E13.73415
G1 F484.6 X120.907 Y117.987 E13.75856
G1 F413.6 X120.9 Y117.317 E13.80268
G1 F416.3 X120.875 Y116.874 E13.83172
G1 F487.5 X120.985 Y116.36 E13.86109
G1 F600 X120.952 Y115.351 E13.90692
G1 X120.142 Y114.918 E13.94862
G1 F482.5 X119.689 Y114.829 E13.97469
G1 F412.6 X118.953 Y114.415 E14.03044
G1 F415.7 X118.568 Y114.224 E14.0586
G1 F462.1 X118.347 Y114.002 E14.07706
G1 F563.9 X117.977 Y113.764 E14.09832
G1 F600 X117.367 Y113.438 E14.12972
G1 X116.562 Y113.936 E14.17269
G1 F487.5 X116.187 Y114.318 E14.2026
G1 F414.2 X115.959 Y114.448 E14.21987
G1 F417.3 X115.365 Y114.82 E14.26561
G1 F491.9 X114.863 Y114.99 E14.29497
G1 F600 X113.914 Y115.579 E14.34567
G0 F6000 X114.008 Y115.577
G0 X114.16 Y116.606
G0 X114.863 Y117.531
G1 F414.7 X114.894 Y117.044 E14.37773
G1 F484.6 X115.082 Y116.771 E14.39636
G1 F600 X115.214 Y116.438 E14.41262
G1 X115.569 Y115.881 E14.44261
G1 F491.9 X115.834 Y115.447 E14.47077
G1 F414.7 X116.497 Y115.035 E14.52205
G1 F489.7 X116.952 Y115.039 E14.54736
G1 F600 X117.441 Y114.978 E14.56973
G1 F563.9 X118.033 Y115 E14.59835
G1 F462.1 X118.246 Y114.955 E14.61118
G1 F415.7 X118.588 Y115.099 E14.6355
G1 F412.6 X119.21 Y115.474 E14.68345
G1 F482.5 X119.555 Y116.046 E14.72116
G1 F557.1 X119.958 Y116.774 E14.76185
G1 F458.8 X120.082 Y116.936 E14.77396
G1 F416.8 X120.133 Y117.465 E14.80869
G1 F414.7 X120.103 Y117.951 E14.84068
G1 F484.6 X119.915 Y118.223 E14.85926
G1 F600 X119.781 Y118.558 E14.87564
G1 X119.427 Y119.115 E14.90561
G1 F491.9 X119.162 Y119.549 E14.93377
G1 F414.7 X118.497 Y119.962 E14.98519
G1 F489.7 X118.044 Y119.957 E15.01039
G1 F600 X117.555 Y120.017 E15.03276
G1 F563.9 X116.962 Y119.997 E15.06142
G1 F462.1 X116.75 Y120.041 E15.07419
G1 F415.7 X116.408 Y119.897 E15.0985
G1 F412.6 X115.786 Y119.522 E15.14645
G1 F482.5 X115.441 Y118.95 E15.18417
G1 F596.7 X115.151 Y118.429 E15.21139
G1 F483.2 X114.924 Y118.134 E15.23237
G1 F415.2 X114.863 Y117.531 E15.27213
G0 F6000 X115.523 Y117.509
;TYPE:WALL-OUTER
G1 F600 X115.59 Y116.973 E15.29666
G1 X115.687 Y116.711 E15.30934
G1 X115.911 Y116.323 E15.32968
G1 X116.278 Y115.944 E15.35363
G1 X116.698 Y115.692 E15.37587
G1 X116.966 Y115.593 E15.38884
G1 X117.477 Y115.523 E15.41226
G1 X117.965 Y115.576 E15.43454
G1 X118.285 Y115.687 E15.44992
G1 X118.73 Y115.954 E15.47348
G1 X119.084 Y116.322 E15.49666
G1 X119.304 Y116.698 E15.51644
G1 X119.415 Y117.021 E15.53195
G1 X119.473 Y117.487 E15.55326
G1 X119.406 Y118.023 E15.57779
G1 X119.309 Y118.285 E15.59047
G1 X119.085 Y118.673 E15.61081
G1 X118.718 Y119.052 E15.63476
G1 X118.298 Y119.304 E15.657
G1 X117.975 Y119.415 E15.67251
G1 X117.519 Y119.473 E15.69338
G1 X117.031 Y119.42 E15.71566
G1 X116.711 Y119.309 E15.73104
G1 X116.266 Y119.042 E15.7546
G1 X115.912 Y118.674 E15.77778
G1 X115.669 Y118.25 E15.79997
G1 X115.584 Y117.996 E15.81213
G1 X115.523 Y117.509 E15.83441
G0 F6000 X115.547 Y117.311
G0 X114.915 Y117.229
G0 X114.193 Y116.652
G0 X113.996 Y115.623
G0 X113.358 Y115.281
G1 F600 X113.509 Y119.977 E16.04772
G1 X117.649 Y122.189 E16.26082
G1 X121.638 Y119.715 E16.47393
G1 X121.488 Y115.019 E16.68724
G1 X117.347 Y112.808 E16.90036
G1 X113.358 Y115.281 E17.11344
G0 F6000 X113.364 Y115.48
G0 X113.996 Y115.623
G0 X114.095 Y116.526
G0 X114.43 Y116.516
;TYPE:SKIN
G1 F694.1 X114.409 Y115.845 E17.13978
G1 X115.077 Y115.429 E17.17067
G1 X115.246 Y115.409 E17.17735
G1 X115.179 Y115.593 E17.18503
G1 X114.772 Y116.223 E17.21447
G1 X114.64 Y116.552 E17.22838
G1 X114.528 Y116.66 E17.23449
G1 X114.43 Y116.516 E17.24133
G0 F6000 X114.095 Y116.526
G0 X114.136 Y115.699
G0 X116.458 Y114.336
G0 X116.734 Y114.512
G1 F706 X116.855 Y114.321 E17.25005
G1 X117.381 Y113.995 E17.27392
G1 X117.734 Y114.185 E17.28939
G1 X118.076 Y114.478 E17.30677
G1 X117.423 Y114.492 E17.33197
G1 X116.923 Y114.553 E17.3514
G1 X116.734 Y114.512 E17.35886
G0 F6000 X116.458 Y114.336
G0 X116.916 Y114.828
G0 X119.441 Y115.466
G0 X119.765 Y115.388
G1 F694.1 X119.966 Y115.376 E17.36676
G1 X120.472 Y115.648 E17.38931
G1 X120.495 Y116.334 E17.41625
G1 X120.431 Y116.515 E17.42378
G1 X120.274 Y116.353 E17.43264
G1 X119.981 Y115.804 E17.45706
G1 X119.814 Y115.586 E17.46784
G1 X119.765 Y115.388 E17.47584
G0 F6000 X119.441 Y115.466
G0 X119.974 Y116.86
G0 X120.06 Y117.494
G0 X119.985 Y118.063
G0 X119.433 Y119.469
G0 X119.748 Y119.585
G1 F692.6 X119.812 Y119.406 E17.48332
G1 X120.195 Y118.812 E17.51112
G1 X120.352 Y118.436 E17.52714
G1 X120.464 Y118.328 E17.53326
G1 X120.562 Y118.472 E17.54011
G1 X120.584 Y119.147 E17.56668
G1 X119.915 Y119.563 E17.59766
G1 X119.748 Y119.585 E17.60428
G0 F6000 X119.433 Y119.469
G0 X118.268 Y119.923
G0 X116.808 Y120.218
G0 X116.918 Y120.513
G1 F704.5 X117.584 Y120.5 E17.63004
G1 X118.069 Y120.439 E17.64894
G1 X118.284 Y120.486 E17.65745
G1 X118.145 Y120.669 E17.66634
G1 X117.611 Y121 E17.69063
G1 X117.263 Y120.812 E17.70592
G1 X116.918 Y120.513 E17.72357
G0 F6000 X116.808 Y120.218
G0 X115.255 Y119.054
G0 X114.936 Y118.48
G0 X114.518 Y118.145
G0 X114.506 Y118.685
G1 F695.5 X114.588 Y118.544 E17.72996
G1 X114.723 Y118.656 E17.73683
G1 X115.013 Y119.189 E17.76059
G1 X115.18 Y119.406 E17.77132
G1 X115.228 Y119.608 E17.77945
G1 X115.026 Y119.618 E17.78737
G1 X114.523 Y119.346 E17.80977
G1 X114.506 Y118.685 E17.83566
G1 F1200 E16.83566
;MESH:NONMESH
G0 F600 X114.506 Y118.685 Z0.4
G0 F6000 X114.217 Y118.516
G0 X113.518 Y115.367
G0 X112.942 Y114.441
G0 X110.726 Y112.879
;TIME_ELAPSED:45.288990
;LAYER:1
M106 S75.2
;TYPE:SKIRT
G1 F1200 E17.83566
G1 F600 X111.162 Y112.49 E17.85607
G1 X111.981 Y111.966 E17.89002
G1 X115.072 Y110.048 E18.01706
