;FLAVOR:Marlin
;TIME:3020
;Filament used: 2.802m
;Layer height: 0.2
;MINX:96.968
;MINY:96.968
;MINZ:0.2
;MAXX:138.031
;MAXY:138.031
;MAXZ:20
;TARGET_MACHINE.NAME:ELEGOO NEPTUNE 3 Pro
;Generated with Cura_SteamEngine 5.7.2
M140 S105
M105
M190 S105
M104 S250
M105
M109 S250
M82 ;absolute extrusion mode
;ELEGOO NEPTUNE 3 Pro
M220 S100 ;Set the feed speed to 100%
M221 S100 ;Set the flow rate to 100%
G90
G28 ;home
;M420 S1 Z10;Uncomment to enable progressive compensation height of 10mm
G92 E0 ;Reset Extruder
G1 Z0.45 F300
G1 X1.5 Y20 F5000.0 ;Move to start position
G1 Y120.0 F600.0 E15 ;Draw the first line
G1 X0.5 F1000.0 ;Move to side a little
G1 Y20 F600 E30 ;Draw the second line
G92 E0 ;Reset Extruder
G92 E0
G92 E0
G1 F1200 E-1
;LAYER_COUNT:100
;LAYER:0
M106 S38.2
M204 S500
G0 F6000 X103.095 Y102.858 Z0.2
;TYPE:SKIRT
G1 F1200 E0
G1 F600 X103.982 Y102.032 E0.05503
G1 X105.064 Y101.152 E0.11835
G1 X106.018 Y100.467 E0.17167
G1 X107.114 Y99.784 E0.2303
G1 X108.16 Y99.211 E0.28444
G1 X109.201 Y98.716 E0.33677
G1 X110.326 Y98.259 E0.3919
G1 X110.867 Y98.065 E0.418
G1 X111.896 Y97.737 E0.46703
G1 X113.354 Y97.388 E0.53509
G1 X114.558 Y97.176 E0.59059
G1 X115.552 Y97.052 E0.63607
G1 X116.894 Y96.974 E0.6971
G1 X117.835 Y96.968 E0.73982
G1 X119.343 Y97.04 E0.80837
G1 X120.567 Y97.195 E0.86438
G1 X121.922 Y97.439 E0.92689
G1 X123.103 Y97.744 E0.98226
G1 X124.357 Y98.137 E1.04192
G1 X125.562 Y98.613 E1.10074
G1 X126.47 Y99.029 E1.14609
G1 X126.991 Y99.291 E1.17256
G1 X127.911 Y99.793 E1.22015
G1 X129.009 Y100.493 E1.27926
G1 X129.916 Y101.144 E1.32995
G1 X130.891 Y101.932 E1.38686
G1 X131.878 Y102.839 E1.44772
G1 X132.596 Y103.579 E1.49453
G1 X132.957 Y103.98 E1.51903
G1 X133.652 Y104.81 E1.56818
G1 X134.489 Y105.966 E1.63297
G1 X135.047 Y106.833 E1.67978
G1 X135.685 Y107.947 E1.73806
G1 X136.26 Y109.136 E1.79803
G1 X136.744 Y110.336 E1.85677
G1 X137.116 Y111.429 E1.90919
G1 X137.489 Y112.779 E1.97277
G1 X137.719 Y113.916 E2.02544
G1 X137.905 Y115.198 E2.08425
G1 X137.995 Y116.25 E2.13219
G1 X138.023 Y116.817 E2.15796
G1 X138.031 Y117.902 E2.20722
G1 X137.953 Y119.32 E2.2717
G1 X137.865 Y120.13 E2.30869
G1 X137.79 Y120.656 E2.33281
G1 X137.612 Y121.643 E2.37834
G1 X137.388 Y122.612 E2.42349
G1 X136.97 Y124.05 E2.49148
G1 X136.421 Y125.478 E2.56094
G1 X135.977 Y126.456 E2.6097
G1 X135.415 Y127.536 E2.66497
G1 X134.904 Y128.396 E2.71039
G1 X134.594 Y128.875 E2.73629
G1 X133.935 Y129.82 E2.7886
G1 X133.084 Y130.869 E2.84993
G1 X132.176 Y131.862 E2.91101
G1 X131.427 Y132.589 E2.9584
G1 X130.28 Y133.573 E3.02701
G1 X129.518 Y134.15 E3.07041
G1 X128.625 Y134.759 E3.11948
G1 X127.311 Y135.544 E3.18897
G1 X126.141 Y136.134 E3.24846
G1 X124.812 Y136.687 E3.31381
G1 X123.796 Y137.043 E3.36269
G1 X122.693 Y137.366 E3.41487
G1 X121.547 Y137.63 E3.46826
G1 X120.338 Y137.837 E3.52395
G1 X119.098 Y137.971 E3.58057
G1 X117.775 Y138.031 E3.6407
G1 X116.364 Y138.005 E3.70477
G1 X114.877 Y137.872 E3.77255
G1 X113.698 Y137.679 E3.82678
G1 X112.483 Y137.413 E3.88325
G1 X111.421 Y137.114 E3.93334
G1 X110.099 Y136.661 E3.99679
G1 X108.721 Y136.065 E4.06495
G1 X107.443 Y135.403 E4.13029
G1 X106.453 Y134.81 E4.18268
G1 X105.552 Y134.201 E4.23206
G1 X104.538 Y133.435 E4.28975
G1 X103.457 Y132.482 E4.35518
G1 X102.781 Y131.819 E4.39817
G1 X101.982 Y130.948 E4.45183
G1 X101.042 Y129.779 E4.51993
G1 X100.261 Y128.671 E4.58147
G1 X99.5 Y127.382 E4.64943
G1 X99.004 Y126.418 E4.69865
G1 X98.491 Y125.268 E4.75582
G1 X98.127 Y124.309 E4.80239
G1 X97.768 Y123.186 E4.85592
G1 X97.619 Y122.634 E4.88187
G1 X97.364 Y121.552 E4.93234
G1 X97.177 Y120.438 E4.98363
G1 X97.023 Y119.099 E5.04482
G1 X96.968 Y117.85 E5.10158
G1 X96.984 Y116.596 E5.15851
G1 X97.074 Y115.323 E5.21645
G1 X97.252 Y114.079 E5.2735
G1 X97.452 Y113.051 E5.32105
G1 X97.862 Y111.479 E5.39481
G1 X98.26 Y110.302 E5.45122
G1 X98.765 Y109.077 E5.51137
G1 X99.436 Y107.731 E5.57965
G1 X99.941 Y106.851 E5.62572
G1 X100.596 Y105.839 E5.68044
G1 X101.341 Y104.817 E5.73786
G1 X102.211 Y103.783 E5.79921
G1 X103.095 Y102.858 E5.8573
G0 F6000 X103.467 Y103.258
G1 F600 X104.354 Y102.432 E5.91233
G1 X105.382 Y101.596 E5.97248
G1 X106.336 Y100.911 E6.0258
G1 X107.376 Y100.263 E6.08144
G1 X108.422 Y99.69 E6.13558
G1 X109.407 Y99.222 E6.18509
G1 X110.511 Y98.773 E6.2392
G1 X111.034 Y98.585 E6.26443
G1 X112.023 Y98.268 E6.31158
G1 X113.449 Y97.926 E6.37816
G1 X114.626 Y97.718 E6.43242
G1 X115.62 Y97.594 E6.4779
G1 X116.897 Y97.52 E6.53597
G1 X117.838 Y97.514 E6.5787
G1 X119.274 Y97.582 E6.64396
G1 X120.498 Y97.737 E6.69998
G1 X121.785 Y97.968 E6.75934
G1 X122.966 Y98.273 E6.81472
G1 X124.157 Y98.645 E6.87137
G1 X125.335 Y99.11 E6.92886
G1 X126.225 Y99.517 E6.97329
G1 X126.73 Y99.77 E6.99894
G1 X127.618 Y100.254 E7.04485
G1 X128.691 Y100.937 E7.1026
G1 X129.573 Y101.569 E7.15186
G1 X130.548 Y102.357 E7.20877
G1 X131.486 Y103.219 E7.26661
G1 X132.19 Y103.945 E7.31252
G1 X132.538 Y104.331 E7.33612
G1 X133.233 Y105.161 E7.38527
G1 X134.03 Y106.261 E7.44694
G1 X134.573 Y107.105 E7.4925
G1 X135.193 Y108.185 E7.54904
G1 X135.768 Y109.374 E7.609
G1 X136.227 Y110.512 E7.66471
G1 X136.599 Y111.605 E7.71712
G1 X136.954 Y112.887 E7.77752
G1 X137.184 Y114.024 E7.83018
G1 X137.361 Y115.245 E7.8862
G1 X137.45 Y116.277 E7.93322
G1 X137.477 Y116.821 E7.95795
G1 X137.485 Y117.906 E8.00721
G1 X137.41 Y119.261 E8.06882
G1 X137.324 Y120.054 E8.10504
G1 X137.253 Y120.559 E8.12819
G1 X137.08 Y121.52 E8.17252
G1 X136.856 Y122.489 E8.21767
G1 X136.46 Y123.854 E8.2822
G1 X135.911 Y125.282 E8.35166
G1 X135.493 Y126.204 E8.39762
G1 X134.945 Y127.257 E8.45151
G1 X134.445 Y128.1 E8.49601
G1 X134.146 Y128.563 E8.52103
G1 X133.511 Y129.476 E8.57152
G1 X132.66 Y130.525 E8.63284
G1 X131.796 Y131.47 E8.69098
G1 X131.047 Y132.197 E8.73837
G1 X129.95 Y133.138 E8.80398
G1 X129.21 Y133.699 E8.84614
G1 X128.345 Y134.29 E8.8937
G1 X127.065 Y135.056 E8.96143
G1 X125.895 Y135.646 E9.02092
G1 X124.631 Y136.172 E9.08307
G1 X123.643 Y136.519 E9.13061
G1 X122.54 Y136.842 E9.18279
G1 X121.454 Y137.092 E9.23339
G1 X120.279 Y137.294 E9.28751
G1 X119.039 Y137.428 E9.34414
G1 X117.785 Y137.485 E9.40113
G1 X116.412 Y137.461 E9.46347
G1 X114.965 Y137.333 E9.52942
G1 X113.786 Y137.14 E9.58366
G1 X112.631 Y136.887 E9.63734
G1 X111.598 Y136.597 E9.68605
G1 X110.276 Y136.144 E9.7495
G1 X108.972 Y135.58 E9.814
G1 X107.723 Y134.934 E9.87784
G1 X106.758 Y134.357 E9.92889
G1 X105.881 Y133.765 E9.97692
G1 X104.899 Y133.025 E10.03275
G1 X103.818 Y132.072 E10.09817
G1 X103.183 Y131.449 E10.13856
G1 X102.408 Y130.606 E10.19055
G1 X101.468 Y129.437 E10.25865
G1 X100.731 Y128.393 E10.31667
G1 X99.97 Y127.104 E10.38463
G1 X99.502 Y126.195 E10.43105
G1 X99.001 Y125.074 E10.48679
G1 X98.647 Y124.143 E10.53201
G1 X98.295 Y123.043 E10.58445
G1 X98.15 Y122.508 E10.60961
G1 X97.902 Y121.461 E10.65846
G1 X97.719 Y120.375 E10.70846
G1 X97.568 Y119.075 E10.76788
G1 X97.514 Y117.857 E10.82323
G1 X97.529 Y116.635 E10.87871
G1 X97.619 Y115.362 E10.93665
G1 X97.788 Y114.183 E10.99072
G1 X97.988 Y113.155 E11.03827
G1 X98.379 Y111.654 E11.10869
G1 X98.765 Y110.51 E11.1635
G1 X99.254 Y109.32 E11.22191
G1 X99.91 Y108.003 E11.28871
G1 X100.415 Y107.123 E11.33478
G1 X101.038 Y106.16 E11.38685
G1 X101.759 Y105.169 E11.44249
G1 X102.629 Y104.135 E11.50384
G1 X103.467 Y103.258 E11.55891
G0 F6000 X103.839 Y103.658
G1 F600 X104.726 Y102.832 E11.61393
G1 X105.7 Y102.04 E11.67093
G1 X106.654 Y101.355 E11.72425
G1 X107.638 Y100.742 E11.77688
G1 X108.684 Y100.169 E11.83103
G1 X109.613 Y99.728 E11.87771
G1 X110.696 Y99.287 E11.9308
G1 X111.201 Y99.105 E11.95517
G1 X112.151 Y98.799 E12.00049
G1 X113.544 Y98.464 E12.06553
G1 X114.694 Y98.26 E12.11856
G1 X115.688 Y98.136 E12.16403
G1 X116.9 Y98.066 E12.21915
G1 X117.841 Y98.06 E12.26187
G1 X119.205 Y98.124 E12.32387
G1 X120.429 Y98.279 E12.37988
G1 X121.648 Y98.497 E12.4361
G1 X122.829 Y98.802 E12.49148
G1 X123.957 Y99.153 E12.54511
G1 X125.108 Y99.607 E12.60128
G1 X125.98 Y100.005 E12.6448
G1 X126.469 Y100.25 E12.66963
G1 X127.325 Y100.715 E12.71386
G1 X128.373 Y101.381 E12.77023
G1 X129.23 Y101.994 E12.81807
G1 X130.205 Y102.782 E12.87499
G1 X131.094 Y103.599 E12.9298
G1 X131.784 Y104.311 E12.97481
G1 X132.132 Y104.697 E12.99841
G1 X132.791 Y105.481 E13.04491
G1 X133.571 Y106.557 E13.10524
G1 X134.099 Y107.377 E13.14952
G1 X134.719 Y108.457 E13.20606
G1 X135.262 Y109.578 E13.26261
G1 X135.71 Y110.688 E13.31695
G1 X136.082 Y111.781 E13.36937
G1 X136.419 Y112.995 E13.42657
G1 X136.649 Y114.132 E13.47923
G1 X136.817 Y115.292 E13.53245
G1 X136.905 Y116.304 E13.57857
G1 X136.931 Y116.825 E13.60225
G1 X136.939 Y117.91 E13.65151
G1 X136.867 Y119.202 E13.71026
G1 X136.783 Y119.978 E13.74569
G1 X136.712 Y120.483 E13.76885
G1 X136.548 Y121.397 E13.81101
G1 X136.331 Y122.338 E13.85485
G1 X135.95 Y123.658 E13.91722
G1 X135.401 Y125.086 E13.98668
G1 X134.996 Y125.978 E14.03116
G1 X134.475 Y126.978 E14.08235
G1 X133.975 Y127.821 E14.12685
G1 X133.698 Y128.252 E14.15011
G1 X133.087 Y129.132 E14.19874
G1 X132.236 Y130.181 E14.26007
G1 X131.415 Y131.079 E14.31531
G1 X130.691 Y131.783 E14.36116
G1 X129.62 Y132.703 E14.42526
G1 X128.902 Y133.248 E14.46618
G1 X128.065 Y133.821 E14.51223
G1 X126.785 Y134.587 E14.57995
G1 X125.685 Y135.142 E14.63589
G1 X124.45 Y135.657 E14.69664
G1 X123.49 Y135.995 E14.74285
G1 X122.387 Y136.318 E14.79503
G1 X121.361 Y136.554 E14.84282
G1 X120.22 Y136.751 E14.89539
G1 X118.98 Y136.885 E14.95201
G1 X117.794 Y136.939 E15.00592
G1 X116.46 Y136.917 E15.06649
G1 X115.053 Y136.794 E15.13061
G1 X113.874 Y136.601 E15.18485
G1 X112.778 Y136.361 E15.23579
G1 X111.775 Y136.08 E15.28307
G1 X110.453 Y135.627 E15.34652
G1 X109.223 Y135.095 E15.40736
G1 X108.003 Y134.465 E15.4697
G1 X107.038 Y133.888 E15.52074
G1 X106.209 Y133.328 E15.56616
G1 X105.26 Y132.615 E15.62005
G1 X104.179 Y131.662 E15.68548
G1 X103.585 Y131.079 E15.72327
G1 X102.834 Y130.264 E15.77358
G1 X101.894 Y129.095 E15.84168
G1 X101.177 Y128.078 E15.89818
G1 X100.455 Y126.854 E15.96269
G1 X100 Y125.972 E16.00775
G1 X99.511 Y124.88 E16.06207
G1 X99.167 Y123.977 E16.10594
G1 X98.822 Y122.899 E16.15733
G1 X98.681 Y122.382 E16.18166
G1 X98.433 Y121.335 E16.23051
G1 X98.261 Y120.311 E16.27765
G1 X98.113 Y119.051 E16.33524
G1 X98.06 Y117.863 E16.38923
G1 X98.074 Y116.674 E16.44322
G1 X98.164 Y115.401 E16.50116
G1 X98.324 Y114.287 E16.55225
G1 X98.524 Y113.259 E16.5998
G1 X98.896 Y111.828 E16.66692
G1 X99.27 Y110.717 E16.72014
G1 X99.743 Y109.563 E16.77677
G1 X100.384 Y108.275 E16.84208
G1 X100.889 Y107.395 E16.88815
G1 X101.48 Y106.481 E16.93756
G1 X102.177 Y105.521 E16.99142
G1 X103.047 Y104.487 E17.05277
G1 X103.839 Y103.658 E17.10482
G1 F1200 E16.10482
G0 F6000 X109.258 Y108.859
G1 F1200 E17.10482
G1 F600 X109.806 Y108.367 E17.13826
G1 X110.393 Y107.903 E17.17223
G1 X110.981 Y107.493 E17.20477
G1 X111.643 Y107.094 E17.23986
G1 X112.304 Y106.748 E17.27374
G1 X112.962 Y106.454 E17.30646
G1 X113.677 Y106.186 E17.34112
G1 X114.391 Y105.97 E17.37499
G1 X115.1 Y105.801 E17.40808
G1 X115.834 Y105.674 E17.4419
G1 X116.564 Y105.596 E17.47523
G1 X117.319 Y105.559 E17.50955
G1 X118.058 Y105.571 E17.5431
G1 X118.799 Y105.63 E17.57685
G1 X119.531 Y105.732 E17.6104
G1 X120.252 Y105.881 E17.64383
G1 X120.984 Y106.078 E17.67824
G1 X121.675 Y106.312 E17.71137
G1 X122.368 Y106.597 E17.74539
G1 X123.022 Y106.915 E17.7784
G1 X123.702 Y107.296 E17.81379
G1 X124.29 Y107.679 E17.84565
G1 X124.913 Y108.138 E17.88078
G1 X125.478 Y108.615 E17.91435
G1 X126.001 Y109.115 E17.9472
G1 X126.52 Y109.676 E17.9819
G1 X126.982 Y110.243 E18.0151
G1 X127.422 Y110.855 E18.04932
G1 X127.811 Y111.477 E18.08263
G1 X128.156 Y112.111 E18.1154
G1 X128.479 Y112.806 E18.15019
G1 X128.755 Y113.509 E18.18448
G1 X128.973 Y114.189 E18.2169
G1 X129.157 Y114.917 E18.25099
G1 X129.297 Y115.651 E18.28491
G1 X129.39 Y116.393 E18.31886
G1 X129.435 Y117.115 E18.35171
G1 X129.435 Y117.884 E18.38662
G1 X129.39 Y118.606 E18.41946
G1 X129.297 Y119.344 E18.45323
G1 X129.159 Y120.073 E18.48692
G1 X128.973 Y120.808 E18.52134
G1 X128.755 Y121.49 E18.55384
G1 X128.481 Y122.189 E18.58793
G1 X128.16 Y122.879 E18.62248
G1 X127.822 Y123.501 E18.65462
G1 X127.418 Y124.149 E18.68929
G1 X126.982 Y124.756 E18.72322
G1 X126.52 Y125.323 E18.75642
G1 X126.001 Y125.884 E18.79112
G1 X125.478 Y126.384 E18.82397
G1 X124.913 Y126.861 E18.85754
G1 X124.29 Y127.319 E18.89264
G1 X123.701 Y127.703 E18.92457
G1 X123.022 Y128.084 E18.95991
G1 X122.368 Y128.403 E18.99295
G1 X121.675 Y128.687 E19.02695
G1 X120.984 Y128.921 E19.06007
G1 X120.252 Y129.118 E19.09449
G1 X119.531 Y129.267 E19.12791
G1 X118.799 Y129.369 E19.16147
G1 X118.058 Y129.428 E19.19521
G1 X117.319 Y129.44 E19.22877
G1 X116.564 Y129.403 E19.26309
G1 X115.834 Y129.325 E19.29642
G1 X115.099 Y129.198 E19.33028
G1 X114.391 Y129.029 E19.36333
G1 X113.677 Y128.813 E19.3972
G1 X112.968 Y128.547 E19.43157
G1 X112.297 Y128.248 E19.46493
G1 X111.642 Y127.904 E19.49851
G1 X110.981 Y127.506 E19.53354
G1 X110.393 Y127.096 E19.56609
G1 X109.806 Y126.632 E19.60006
G1 X109.256 Y126.138 E19.63362
G1 X108.737 Y125.611 E19.6672
G1 X108.245 Y125.045 E19.70125
G1 X107.784 Y124.441 E19.73575
G1 X107.387 Y123.852 E19.76799
G1 X106.999 Y123.186 E19.80299
G1 X106.66 Y122.511 E19.83728
G1 X106.385 Y121.865 E19.86916
G1 X106.119 Y121.116 E19.90524
G1 X105.933 Y120.466 E19.93594
G1 X105.764 Y119.705 E19.97133
G1 X105.649 Y118.973 E20.00497
G1 X105.582 Y118.23 E20.03884
G1 X105.559 Y117.5 E20.07199
G1 X105.582 Y116.769 E20.1052
G1 X105.651 Y116.018 E20.13944
G1 X105.764 Y115.294 E20.1727
G1 X105.933 Y114.532 E20.20814
G1 X106.124 Y113.868 E20.23951
G1 X106.383 Y113.141 E20.27455
G1 X106.676 Y112.458 E20.30829
G1 X107.003 Y111.806 E20.3414
G1 X107.389 Y111.145 E20.37615
G1 X107.784 Y110.558 E20.40828
G1 X108.247 Y109.951 E20.44294
G1 X108.737 Y109.388 E20.47682
G1 X109.258 Y108.859 E20.51053
G0 F6000 X109.633 Y109.257
G1 F600 X110.148 Y108.794 E20.54197
G1 X110.733 Y108.331 E20.57584
G1 X111.283 Y107.948 E20.60627
G1 X111.902 Y107.575 E20.63908
G1 X112.538 Y107.242 E20.67167
G1 X113.181 Y106.955 E20.70364
G1 X113.842 Y106.707 E20.73569
G1 X114.537 Y106.496 E20.76867
G1 X115.082 Y106.367 E20.79409
G1 X115.032 Y106.404 E20.79692
G1 X114.912 Y106.514 E20.80431
G1 X114.649 Y106.808 E20.82222
G1 X114.551 Y106.943 E20.82979
G1 X114.348 Y107.293 E20.84816
G1 X114.281 Y107.44 E20.8555
G1 X114.154 Y107.813 E20.87338
G1 X114.115 Y107.983 E20.8813
G1 X114.062 Y108.44 E20.90219
G1 X114.062 Y108.62 E20.91036
G1 X114.121 Y109.18 E20.93593
G1 X114.145 Y109.31 E20.94193
G1 X114.251 Y109.698 E20.96019
G1 X114.308 Y109.848 E20.96747
G1 X114.487 Y110.206 E20.98565
G1 X114.576 Y110.346 E20.99318
G1 X114.822 Y110.659 E21.01125
G1 X114.936 Y110.778 E21.01873
G1 X115.245 Y111.04 E21.03713
G1 X115.382 Y111.134 E21.04467
G1 X115.843 Y111.386 E21.06852
G1 X115.975 Y111.443 E21.07505
G1 X116.4 Y111.586 E21.09541
G1 X116.571 Y111.624 E21.10336
G1 X117.293 Y111.704 E21.13634
G1 X117.398 Y111.709 E21.14111
G1 X117.768 Y111.702 E21.15791
G1 X117.913 Y111.686 E21.16454
G1 X118.597 Y111.55 E21.1962
G1 X118.712 Y111.518 E21.20162
G1 X119.183 Y111.35 E21.22432
G1 X119.332 Y111.28 E21.23179
G1 X119.669 Y111.076 E21.24968
G1 X119.801 Y110.976 E21.2572
G1 X120.095 Y110.704 E21.27538
G1 X120.208 Y110.575 E21.28317
G1 X120.469 Y110.205 E21.30372
G1 X120.544 Y110.075 E21.31054
G1 X120.712 Y109.71 E21.32878
G1 X120.765 Y109.556 E21.33617
G1 X120.854 Y109.179 E21.35376
G1 X120.872 Y109.07 E21.35877
G1 X120.915 Y108.624 E21.37912
G1 X120.915 Y108.463 E21.38643
G1 X120.875 Y108.065 E21.40459
G1 X120.842 Y107.904 E21.41205
G1 X120.724 Y107.524 E21.43011
