;FLAVOR:Marlin
;TIME:3255
;Filament used: 2.72603m
;Layer height: 0.2
;MINX:96.968
;MINY:96.968
;MINZ:0.2
;MAXX:138.031
;MAXY:138.031
;MAXZ:20
;TARGET_MACHINE.NAME:ELEGOO NEPTUNE 3 Pro
;Generated with Cura_SteamEngine 5.7.2
M140 S105
M105
M190 S105
M104 S250
M105
M109 S250
M82 ;absolute extrusion mode
;ELEGOO NEPTUNE 3 Pro
M220 S100 ;Set the feed speed to 100%
M221 S100 ;Set the flow rate to 100%
G90
G28 ;home
;M420 S1 Z10;Uncomment to enable progressive compensation height of 10mm
G92 E0 ;Reset Extruder
G1 Z0.45 F300
G1 X1.5 Y20 F5000.0 ;Move to start position
G1 Y120.0 F600.0 E15 ;Draw the first line
G1 X0.5 F1000.0 ;Move to side a little
G1 Y20 F600 E30 ;Draw the second line
G92 E0 ;Reset Extruder
G92 E0
G92 E0
G1 F1200 E-1
;LAYER_COUNT:100
;LAYER:0
M106 S38.2
M204 S500
G0 F6000 X103.095 Y102.858 Z0.2
;TYPE:SKIRT
G1 F1200 E0
G1 F600 X103.982 Y102.032 E0.05503
G1 X105.064 Y101.152 E0.11835
G1 X106.018 Y100.467 E0.17167
G1 X107.114 Y99.784 E0.2303
G1 X108.16 Y99.211 E0.28444
G1 X109.201 Y98.716 E0.33677
G1 X110.326 Y98.259 E0.3919
G1 X110.867 Y98.065 E0.418
G1 X111.896 Y97.737 E0.46703
G1 X113.354 Y97.388 E0.53509
G1 X114.558 Y97.176 E0.59059
G1 X115.552 Y97.052 E0.63607
G1 X116.894 Y96.974 E0.6971
G1 X117.835 Y96.968 E0.73982
G1 X119.343 Y97.04 E0.80837
G1 X120.567 Y97.195 E0.86438
G1 X121.922 Y97.439 E0.92689
G1 X123.103 Y97.744 E0.98226
G1 X124.357 Y98.137 E1.04192
G1 X125.562 Y98.613 E1.10074
G1 X126.47 Y99.029 E1.14609
G1 X126.991 Y99.291 E1.17256
G1 X127.911 Y99.793 E1.22015
G1 X129.009 Y100.493 E1.27926
G1 X129.916 Y101.144 E1.32995
G1 X130.891 Y101.932 E1.38686
G1 X131.878 Y102.839 E1.44772
G1 X132.596 Y103.579 E1.49453
G1 X132.957 Y103.98 E1.51903
G1 X133.652 Y104.81 E1.56818
G1 X134.489 Y105.966 E1.63297
G1 X135.047 Y106.833 E1.67978
G1 X135.685 Y107.947 E1.73806
G1 X136.26 Y109.136 E1.79803
G1 X136.744 Y110.336 E1.85677
G1 X137.116 Y111.429 E1.90919
G1 X137.489 Y112.779 E1.97277
G1 X137.719 Y113.916 E2.02544
G1 X137.905 Y115.198 E2.08425
G1 X137.995 Y116.25 E2.13219
G1 X138.023 Y116.817 E2.15796
G1 X138.031 Y117.902 E2.20722
G1 X137.953 Y119.32 E2.2717
G1 X137.865 Y120.13 E2.30869
G1 X137.79 Y120.656 E2.33281
G1 X137.612 Y121.643 E2.37834
G1 X137.388 Y122.612 E2.42349
G1 X136.97 Y124.05 E2.49148
G1 X136.421 Y125.478 E2.56094
G1 X135.977 Y126.456 E2.6097
G1 X135.415 Y127.536 E2.66497
G1 X134.904 Y128.396 E2.71039
G1 X134.594 Y128.875 E2.73629
G1 X133.935 Y129.82 E2.7886
G1 X133.084 Y130.869 E2.84993
G1 X132.176 Y131.862 E2.91101
G1 X131.427 Y132.589 E2.9584
G1 X130.28 Y133.573 E3.02701
G1 X129.518 Y134.15 E3.07041
G1 X128.625 Y134.759 E3.11948
G1 X127.311 Y135.544 E3.18897
G1 X126.141 Y136.134 E3.24846
G1 X124.812 Y136.687 E3.31381
G1 X123.796 Y137.043 E3.36269
G1 X122.693 Y137.366 E3.41487
G1 X121.547 Y137.63 E3.46826
G1 X120.338 Y137.837 E3.52395
G1 X119.098 Y137.971 E3.58057
G1 X117.775 Y138.031 E3.6407
G1 X116.364 Y138.005 E3.70477
G1 X114.877 Y137.872 E3.77255
G1 X113.698 Y137.679 E3.82678
G1 X112.483 Y137.413 E3.88325
G1 X111.421 Y137.114 E3.93334
G1 X110.099 Y136.661 E3.99679
G1 X108.721 Y136.065 E4.06495
G1 X107.443 Y135.403 E4.13029
G1 X106.453 Y134.81 E4.18268
G1 X105.552 Y134.201 E4.23206
G1 X104.538 Y133.435 E4.28975
G1 X103.457 Y132.482 E4.35518
G1 X102.781 Y131.819 E4.39817
G1 X101.982 Y130.948 E4.45183
G1 X101.042 Y129.779 E4.51993
G1 X100.261 Y128.671 E4.58147
G1 X99.5 Y127.382 E4.64943
G1 X99.004 Y126.418 E4.69865
G1 X98.491 Y125.268 E4.75582
G1 X98.127 Y124.309 E4.80239
G1 X97.768 Y123.186 E4.85592
G1 X97.619 Y122.634 E4.88187
G1 X97.364 Y121.552 E4.93234
G1 X97.177 Y120.438 E4.98363
G1 X97.023 Y119.099 E5.04482
G1 X96.968 Y117.85 E5.10158
G1 X96.984 Y116.596 E5.15851
G1 X97.074 Y115.323 E5.21645
G1 X97.252 Y114.079 E5.2735
G1 X97.452 Y113.051 E5.32105
G1 X97.862 Y111.479 E5.39481
G1 X98.26 Y110.302 E5.45122
G1 X98.765 Y109.077 E5.51137
G1 X99.436 Y107.731 E5.57965
G1 X99.941 Y106.851 E5.62572
G1 X100.596 Y105.839 E5.68044
G1 X101.341 Y104.817 E5.73786
G1 X102.211 Y103.783 E5.79921
G1 X103.095 Y102.858 E5.8573
G0 F6000 X103.467 Y103.258
G1 F600 X104.354 Y102.432 E5.91233
G1 X105.382 Y101.596 E5.97248
G1 X106.336 Y100.911 E6.0258
G1 X107.376 Y100.263 E6.08144
G1 X108.422 Y99.69 E6.13558
G1 X109.407 Y99.222 E6.18509
G1 X110.511 Y98.773 E6.2392
G1 X111.034 Y98.585 E6.26443
G1 X112.023 Y98.268 E6.31158
G1 X113.449 Y97.926 E6.37816
G1 X114.626 Y97.718 E6.43242
G1 X115.62 Y97.594 E6.4779
G1 X116.897 Y97.52 E6.53597
G1 X117.838 Y97.514 E6.5787
G1 X119.274 Y97.582 E6.64396
G1 X120.498 Y97.737 E6.69998
G1 X121.785 Y97.968 E6.75934
G1 X122.966 Y98.273 E6.81472
G1 X124.157 Y98.645 E6.87137
G1 X125.335 Y99.11 E6.92886
G1 X126.225 Y99.517 E6.97329
G1 X126.73 Y99.77 E6.99894
G1 X127.618 Y100.254 E7.04485
G1 X128.691 Y100.937 E7.1026
G1 X129.573 Y101.569 E7.15186
G1 X130.548 Y102.357 E7.20877
G1 X131.486 Y103.219 E7.26661
G1 X132.19 Y103.945 E7.31252
G1 X132.538 Y104.331 E7.33612
G1 X133.233 Y105.161 E7.38527
G1 X134.03 Y106.261 E7.44694
G1 X134.573 Y107.105 E7.4925
G1 X135.193 Y108.185 E7.54904
G1 X135.768 Y109.374 E7.609
G1 X136.227 Y110.512 E7.66471
G1 X136.599 Y111.605 E7.71712
G1 X136.954 Y112.887 E7.77752
G1 X137.184 Y114.024 E7.83018
G1 X137.361 Y115.245 E7.8862
G1 X137.45 Y116.277 E7.93322
G1 X137.477 Y116.821 E7.95795
G1 X137.485 Y117.906 E8.00721
G1 X137.41 Y119.261 E8.06882
G1 X137.324 Y120.054 E8.10504
G1 X137.253 Y120.559 E8.12819
G1 X137.08 Y121.52 E8.17252
G1 X136.856 Y122.489 E8.21767
G1 X136.46 Y123.854 E8.2822
G1 X135.911 Y125.282 E8.35166
G1 X135.493 Y126.204 E8.39762
G1 X134.945 Y127.257 E8.45151
G1 X134.445 Y128.1 E8.49601
G1 X134.146 Y128.563 E8.52103
G1 X133.511 Y129.476 E8.57152
G1 X132.66 Y130.525 E8.63284
G1 X131.796 Y131.47 E8.69098
G1 X131.047 Y132.197 E8.73837
G1 X129.95 Y133.138 E8.80398
G1 X129.21 Y133.699 E8.84614
G1 X128.345 Y134.29 E8.8937
G1 X127.065 Y135.056 E8.96143
G1 X125.895 Y135.646 E9.02092
G1 X124.631 Y136.172 E9.08307
G1 X123.643 Y136.519 E9.13061
G1 X122.54 Y136.842 E9.18279
G1 X121.454 Y137.092 E9.23339
G1 X120.279 Y137.294 E9.28751
G1 X119.039 Y137.428 E9.34414
G1 X117.785 Y137.485 E9.40113
G1 X116.412 Y137.461 E9.46347
G1 X114.965 Y137.333 E9.52942
G1 X113.786 Y137.14 E9.58366
G1 X112.631 Y136.887 E9.63734
G1 X111.598 Y136.597 E9.68605
G1 X110.276 Y136.144 E9.7495
G1 X108.972 Y135.58 E9.814
G1 X107.723 Y134.934 E9.87784
G1 X106.758 Y134.357 E9.92889
G1 X105.881 Y133.765 E9.97692
G1 X104.899 Y133.025 E10.03275
G1 X103.818 Y132.072 E10.09817
G1 X103.183 Y131.449 E10.13856
G1 X102.408 Y130.606 E10.19055
G1 X101.468 Y129.437 E10.25865
G1 X100.731 Y128.393 E10.31667
G1 X99.97 Y127.104 E10.38463
G1 X99.502 Y126.195 E10.43105
G1 X99.001 Y125.074 E10.48679
G1 X98.647 Y124.143 E10.53201
G1 X98.295 Y123.043 E10.58445
G1 X98.15 Y122.508 E10.60961
G1 X97.902 Y121.461 E10.65846
G1 X97.719 Y120.375 E10.70846
G1 X97.568 Y119.075 E10.76788
G1 X97.514 Y117.857 E10.82323
G1 X97.529 Y116.635 E10.87871
G1 X97.619 Y115.362 E10.93665
G1 X97.788 Y114.183 E10.99072
G1 X97.988 Y113.155 E11.03827
G1 X98.379 Y111.654 E11.10869
G1 X98.765 Y110.51 E11.1635
G1 X99.254 Y109.32 E11.22191
G1 X99.91 Y108.003 E11.28871
G1 X100.415 Y107.123 E11.33478
G1 X101.038 Y106.16 E11.38685
G1 X101.759 Y105.169 E11.44249
G1 X102.629 Y104.135 E11.50384
G1 X103.467 Y103.258 E11.55891
G0 F6000 X103.839 Y103.658
G1 F600 X104.726 Y102.832 E11.61393
G1 X105.7 Y102.04 E11.67093
G1 X106.654 Y101.355 E11.72425
G1 X107.638 Y100.742 E11.77688
G1 X108.684 Y100.169 E11.83103
G1 X109.613 Y99.728 E11.87771
G1 X110.696 Y99.287 E11.9308
G1 X111.201 Y99.105 E11.95517
G1 X112.151 Y98.799 E12.00049
G1 X113.544 Y98.464 E12.06553
G1 X114.694 Y98.26 E12.11856
G1 X115.688 Y98.136 E12.16403
G1 X116.9 Y98.066 E12.21915
G1 X117.841 Y98.06 E12.26187
G1 X119.205 Y98.124 E12.32387
G1 X120.429 Y98.279 E12.37988
G1 X121.648 Y98.497 E12.4361
G1 X122.829 Y98.802 E12.49148
G1 X123.957 Y99.153 E12.54511
G1 X125.108 Y99.607 E12.60128
G1 X125.98 Y100.005 E12.6448
G1 X126.469 Y100.25 E12.66963
G1 X127.325 Y100.715 E12.71386
G1 X128.373 Y101.381 E12.77023
G1 X129.23 Y101.994 E12.81807
G1 X130.205 Y102.782 E12.87499
G1 X131.094 Y103.599 E12.9298
G1 X131.784 Y104.311 E12.97481
G1 X132.132 Y104.697 E12.99841
G1 X132.791 Y105.481 E13.04491
G1 X133.571 Y106.557 E13.10524
G1 X134.099 Y107.377 E13.14952
G1 X134.719 Y108.457 E13.20606
G1 X135.262 Y109.578 E13.26261
G1 X135.71 Y110.688 E13.31695
G1 X136.082 Y111.781 E13.36937
G1 X136.419 Y112.995 E13.42657
G1 X136.649 Y114.132 E13.47923
G1 X136.817 Y115.292 E13.53245
G1 X136.905 Y116.304 E13.57857
G1 X136.931 Y116.825 E13.60225
G1 X136.939 Y117.91 E13.65151
G1 X136.867 Y119.202 E13.71026
G1 X136.783 Y119.978 E13.74569
G1 X136.712 Y120.483 E13.76885
G1 X136.548 Y121.397 E13.81101
G1 X136.331 Y122.338 E13.85485
G1 X135.95 Y123.658 E13.91722
G1 X135.401 Y125.086 E13.98668
G1 X134.996 Y125.978 E14.03116
G1 X134.475 Y126.978 E14.08235
G1 X133.975 Y127.821 E14.12685
G1 X133.698 Y128.252 E14.15011
G1 X133.087 Y129.132 E14.19874
G1 X132.236 Y130.181 E14.26007
G1 X131.415 Y131.079 E14.31531
G1 X130.691 Y131.783 E14.36116
G1 X129.62 Y132.703 E14.42526
G1 X128.902 Y133.248 E14.46618
G1 X128.065 Y133.821 E14.51223
G1 X126.785 Y134.587 E14.57995
G1 X125.685 Y135.142 E14.63589
G1 X124.45 Y135.657 E14.69664
G1 X123.49 Y135.995 E14.74285
G1 X122.387 Y136.318 E14.79503
G1 X121.361 Y136.554 E14.84282
G1 X120.22 Y136.751 E14.89539
G1 X118.98 Y136.885 E14.95201
G1 X117.794 Y136.939 E15.00592
G1 X116.46 Y136.917 E15.06649
G1 X115.053 Y136.794 E15.13061
G1 X113.874 Y136.601 E15.18485
G1 X112.778 Y136.361 E15.23579
G1 X111.775 Y136.08 E15.28307
G1 X110.453 Y135.627 E15.34652
G1 X109.223 Y135.095 E15.40736
G1 X108.003 Y134.465 E15.4697
G1 X107.038 Y133.888 E15.52074
G1 X106.209 Y133.328 E15.56616
G1 X105.26 Y132.615 E15.62005
G1 X104.179 Y131.662 E15.68548
G1 X103.585 Y131.079 E15.72327
G1 X102.834 Y130.264 E15.77358
G1 X101.894 Y129.095 E15.84168
G1 X101.177 Y128.078 E15.89818
G1 X100.455 Y126.854 E15.96269
G1 X100 Y125.972 E16.00775
G1 X99.511 Y124.88 E16.06207
G1 X99.167 Y123.977 E16.10594
G1 X98.822 Y122.899 E16.15733
G1 X98.681 Y122.382 E16.18166
G1 X98.433 Y121.335 E16.23051
G1 X98.261 Y120.311 E16.27765
G1 X98.113 Y119.051 E16.33524
G1 X98.06 Y117.863 E16.38923
G1 X98.074 Y116.674 E16.44322
G1 X98.164 Y115.401 E16.50116
G1 X98.324 Y114.287 E16.55225
G1 X98.524 Y113.259 E16.5998
G1 X98.896 Y111.828 E16.66692
G1 X99.27 Y110.717 E16.72014
G1 X99.743 Y109.563 E16.77677
G1 X100.384 Y108.275 E16.84208
G1 X100.889 Y107.395 E16.88815
G1 X101.48 Y106.481 E16.93756
G1 X102.177 Y105.521 E16.99142
G1 X103.047 Y104.487 E17.05277
G1 X103.839 Y103.658 E17.10482
G1 F1200 E16.10482
G0 F6000 X112.39 Y115.949
G1 F1200 E17.10482
G1 F600 X112.989 Y115.949 E17.13202
G1 X112.989 Y119.053 E17.27294
G1 X112.39 Y119.053 E17.30013
G1 X112.39 Y115.949 E17.44106
G1 F1200 E16.44106
G0 F6000 X115.719 Y116.466
G1 F1200 E17.44106
G1 F600 X117.505 Y115.442 E17.53452
G1 X119.284 Y116.476 E17.62794
G1 X119.28 Y118.533 E17.72133
G1 X117.494 Y119.557 E17.8148
G1 X115.715 Y118.523 E17.90821
G1 X115.719 Y116.466 E18.0016
G0 F6000 X116.264 Y116.782
G1 F600 X117.503 Y116.073 E18.06641
G1 X118.737 Y116.79 E18.13121
G1 X118.735 Y118.217 E18.19599
G1 X117.496 Y118.926 E18.2608
G1 X116.262 Y118.209 E18.3256
G1 X116.264 Y116.782 E18.39038
G1 F1200 E17.39038
G0 F6000 X122.01 Y115.946
G1 F1200 E18.39038
G1 F600 X122.609 Y115.946 E18.41758
G1 X122.609 Y119.05 E18.5585
G1 X122.01 Y119.05 E18.58569
G1 X122.01 Y115.946 E18.72661
G1 F1200 E17.72661
G0 F6000 X125.291 Y116.706
G1 F1200 E18.72661
G1 F600 X125.667 Y116.812 E18.74435
G1 X125.696 Y116.818 E18.74569
G1 X126.108 Y116.887 E18.76466
G1 X126.136 Y116.89 E18.76594
G1 X126.845 Y116.935 E18.79819
G1 X126.886 Y116.935 E18.80005
G1 X127.354 Y116.894 E18.82138
G1 X127.398 Y116.999 E18.82655
G1 X126.464 Y117.793 E18.88221
G1 X126.159 Y117.961 E18.89801
G1 X126.041 Y118.008 E18.90378
G1 X125.999 Y118.01 E18.90569
G1 X125.971 Y118.013 E18.90697
G1 X125.306 Y118.115 E18.93751
G1 X125.337 Y117.668 E18.95785
G1 X125.338 Y117.641 E18.95908
G1 X125.317 Y116.921 E18.99178
G1 X125.315 Y116.894 E18.99301
G1 X125.291 Y116.706 E19.00162
G0 F6000 X125.878 Y117.402
G1 F600 X126.004 Y117.424 E19.00742
G1 X125.924 Y117.468 E19.01157
G1 X125.917 Y117.47 E19.0119
G1 X125.888 Y117.473 E19.01322
G1 X125.88 Y117.474 E19.01359
G1 X125.878 Y117.402 E19.01686
G1 F1200 E18.01686
G0 F6000 X118.253 Y117.065
;TYPE:SUPPORT
G1 F1200 E19.01686
G1 F780 X118.25 Y117.934 E19.04569
G1 X117.497 Y118.365 E19.07448
G1 X116.743 Y117.931 E19.10334
G1 X116.746 Y117.062 E19.13217
G1 X117.499 Y116.631 E19.16096
G1 X118.253 Y117.065 E19.18982
G1 F1200 E18.18982
;MESH:Back Ring.stl
G0 F6000 X116.691 Y114.337
G0 X114.815 Y114.678
G0 X112.504 Y114.136
G0 X112.428 Y114.177
;TYPE:WALL-INNER
G1 F1200 E19.18982
G1 F600 X114.037 Y114.177 E19.26287
G1 X114.415 Y114.328 E19.28135
G1 X114.75 Y114.974 E19.31438
G1 X117.174 Y113.587 E19.44118
G1 X117.395 Y113.528 E19.45156
G1 X117.612 Y113.527 E19.46141
G1 X117.842 Y113.586 E19.47219
G1 X120.242 Y114.981 E19.59822
G1 X120.58 Y114.325 E19.63173
G1 X120.961 Y114.172 E19.65037
G1 X122.565 Y114.173 E19.72319
G1 X122.34 Y113.848 E19.74113
G1 X121.955 Y113.387 E19.7684
G1 X121.468 Y112.903 E19.79957
G1 X121.3 Y112.555 E19.81712
G1 X121.362 Y112.176 E19.83455
G1 X121.021 Y112.352 E19.85198
G1 X120.662 Y112.305 E19.86841
G1 X120.007 Y111.978 E19.90165
G1 X119.486 Y111.767 E19.92717
G1 X118.933 Y111.605 E19.95333
G1 X118.359 Y111.492 E19.97989
G1 X117.793 Y111.44 E20.0057
G1 X117.203 Y111.439 E20.03248
G1 X116.638 Y111.492 E20.05824
G1 X116.063 Y111.605 E20.08485
G1 X115.51 Y111.767 E20.11101
G1 X114.989 Y111.978 E20.13653
G1 X114.278 Y112.333 E20.17261
G1 X113.975 Y112.352 E20.18639
G1 X113.634 Y112.176 E20.20381
G1 X113.695 Y112.556 E20.22129
G1 X113.577 Y112.857 E20.23597
G1 X113.044 Y113.379 E20.26984
G1 X112.649 Y113.858 E20.29802
G1 X112.428 Y114.177 E20.31564
G0 F6000 X112.504 Y114.136
G0 X113.498 Y112.398
G0 X112.7 Y110.889
G0 X112.763 Y110.863
G1 F427.7 X112.715 Y110.945 E20.32169
G1 X112.621 Y110.945 E20.32768
G1 X112.573 Y110.863 E20.33373
G1 X112.621 Y110.781 E20.33978
G1 X112.715 Y110.781 E20.34577
G1 F1200 E19.34577
G0 F6000 X112.663 Y110.802
G0 X113.498 Y112.398
G0 X111.735 Y114.576
G0 X110.472 Y119.473
G0 X109.736 Y120.023
G0 X109.731 Y119.957
G1 F1200 E20.34577
G1 F438 X109.639 Y119.957 E20.35149
G1 X109.592 Y120.037 E20.35726
G1 X109.639 Y120.117 E20.36304
G1 X109.731 Y120.117 E20.36876
G1 X109.778 Y120.037 E20.37453
G1 F1200 E19.37453
G0 F6000 X109.761 Y120.007
G0 X110.656 Y120.033
G0 X111.743 Y120.426
G0 X112.503 Y120.864
G0 X112.406 Y120.822
G1 F1200 E20.37453
G1 F600 X112.881 Y121.432 E20.40963
G1 X113.264 Y121.844 E20.43517
G1 X113.71 Y122.235 E20.46209
G1 X114.162 Y122.565 E20.4875
G1 X114.674 Y122.866 E20.51447
G1 X115.195 Y123.11 E20.54059
G1 X115.727 Y123.303 E20.56628
G1 X116.298 Y123.443 E20.59297
G1 X117.055 Y123.567 E20.6278
G1 X117.309 Y123.719 E20.64123
G1 X117.498 Y124.178 E20.66377
G1 X117.687 Y123.719 E20.68631
G1 X117.942 Y123.566 E20.69981
G1 X118.697 Y123.444 E20.73453
G1 X119.262 Y123.303 E20.76097
G1 X119.795 Y123.114 E20.78664
G1 X120.327 Y122.863 E20.81335
G1 X120.814 Y122.574 E20.83906
G1 X121.3 Y122.223 E20.86628
G1 X121.72 Y121.852 E20.89172
G1 X122.126 Y121.415 E20.9188
G1 X122.585 Y120.82 E20.95291
G1 X120.957 Y120.819 E21.02683
G1 X120.581 Y120.668 E21.04522
G1 X120.247 Y120.02 E21.07832
G1 X117.895 Y121.367 E21.20137
G1 X117.679 Y121.453 E21.21193
G1 X117.399 Y121.471 E21.22467
G1 X117.077 Y121.365 E21.24006
