;FLAVOR:Marlin
;TIME:1460
;Filament used: 1.36751m
;Layer height: 0.2
;MINX:94.115
;MINY:102.659
;MINZ:0.2
;MAXX:140.876
;MAXY:132.341
;MAXZ:14
;TARGET_MACHINE.NAME:ELEGOO NEPTUNE 3 Pro
;Generated with Cura_SteamEngine 5.7.2
M140 S105
M105
M190 S105
M104 S250
M105
M109 S250
M82 ;absolute extrusion mode
;ELEGOO NEPTUNE 3 Pro
M220 S100 ;Set the feed speed to 100%
M221 S100 ;Set the flow rate to 100%
G90
G28 ;home
;M420 S1 Z10;Uncomment to enable progressive compensation height of 10mm
G92 E0 ;Reset Extruder
G1 Z0.45 F300
G1 X1.5 Y20 F5000.0 ;Move to start position
G1 Y120.0 F600.0 E15 ;Draw the first line
G1 X0.5 F1000.0 ;Move to side a little
G1 Y20 F600 E30 ;Draw the second line
G92 E0 ;Reset Extruder
G92 E0
G92 E0
G1 F1200 E-1
;LAYER_COUNT:70
;LAYER:0
M106 S38.2
M204 S500
G0 F6000 X95.242 Y108.349 Z0.2
;TYPE:SKIRT
G1 F1200 E0
G1 F600 X94.855 Y108.802 E0.02705
G1 X94.542 Y109.311 E0.05418
G1 X94.314 Y109.861 E0.08121
G1 X94.173 Y110.441 E0.10831
G1 X94.126 Y110.95 E0.13151
G1 X94.115 Y111.639 E0.1628
G1 X94.116 Y113.52 E0.2482
G1 X94.171 Y115.794 E0.35147
G1 X94.173 Y118.514 E0.47495
G1 X94.136 Y119.87 E0.53654
G1 X94.115 Y121.321 E0.60242
G1 X94.117 Y123.974 E0.72287
G1 X94.225 Y124.831 E0.76208
G1 X94.396 Y125.363 E0.78745
G1 X94.679 Y125.937 E0.81651
G1 X95.056 Y126.449 E0.84538
G1 X95.481 Y126.87 E0.87253
G1 X95.965 Y127.218 E0.8996
G1 X96.497 Y127.486 E0.92664
G1 X97.065 Y127.669 E0.95374
G1 X97.57 Y127.753 E0.97698
G1 X100.495 Y128.009 E1.11028
G1 X103.162 Y128.32 E1.23218
G1 X105.871 Y128.714 E1.35647
G1 X108.528 Y129.177 E1.47891
G1 X111.207 Y129.722 E1.60303
G1 X113.854 Y130.339 E1.72643
G1 X116.48 Y131.03 E1.8497
G1 X119.102 Y131.8 E1.97377
G1 X120.606 Y132.263 E2.04521
G1 X121.303 Y132.329 E2.077
G1 X122.05 Y132.341 E2.11092
G1 X129.798 Y132.341 E2.46268
G1 X130.645 Y132.327 E2.50114
G1 X131.194 Y132.277 E2.52616
G1 X131.773 Y132.135 E2.55323
G1 X132.323 Y131.906 E2.58028
G1 X132.831 Y131.593 E2.60737
G1 X133.284 Y131.205 E2.63445
G1 X134.326 Y130.139 E2.70212
G1 X136.863 Y127.655 E2.86332
G1 X137.37 Y127.076 E2.89826
G1 X138.192 Y126.024 E2.95887
G1 X138.6 Y125.397 E2.99283
G1 X138.893 Y124.905 E3.01883
G1 X139.273 Y124.213 E3.05467
G1 X139.617 Y123.481 E3.09139
G1 X139.887 Y122.819 E3.12385
G1 X140.255 Y121.748 E3.17527
G1 X140.565 Y120.546 E3.23162
G1 X140.719 Y119.604 E3.27496
G1 X140.822 Y118.77 E3.31311
G1 X140.876 Y117.679 E3.3627
G1 X140.845 Y116.568 E3.41316
G1 X140.777 Y115.805 E3.44794
G1 X140.605 Y114.669 E3.5001
G1 X140.347 Y113.585 E3.55069
G1 X140.017 Y112.532 E3.60079
G1 X139.748 Y111.833 E3.63479
G1 X139.252 Y110.745 E3.68908
G1 X138.738 Y109.834 E3.73657
G1 X138.164 Y108.958 E3.78411
G1 X137.532 Y108.123 E3.83166
G1 X136.848 Y107.343 E3.87876
G1 X136.093 Y106.58 E3.92749
G1 X135.036 Y105.561 E3.99414
G1 X133.291 Y103.8 E4.1067
G1 X132.858 Y103.422 E4.13279
G1 X132.315 Y103.088 E4.16174
G1 X131.807 Y102.87 E4.18683
G1 X131.185 Y102.719 E4.21589
G1 X130.676 Y102.671 E4.2391
G1 X129.93 Y102.659 E4.27298
G1 X122.367 Y102.659 E4.61634
G1 X121.23 Y102.677 E4.66796
G1 X120.551 Y102.827 E4.69953
G1 X118.158 Y103.556 E4.8131
G1 X115.515 Y104.292 E4.93766
G1 X112.892 Y104.943 E5.06036
G1 X110.205 Y105.53 E5.18523
G1 X107.567 Y106.029 E5.30712
G1 X104.863 Y106.46 E5.43143
G1 X102.188 Y106.811 E5.55391
G1 X99.447 Y107.092 E5.67901
G1 X97.572 Y107.248 E5.76443
G1 X96.801 Y107.399 E5.8001
G1 X96.236 Y107.626 E5.82774
G1 X95.695 Y107.961 E5.85663
G1 X95.242 Y108.349 E5.88371
G0 F6000 X95.653 Y108.708
G1 F600 X96.045 Y108.38 E5.90691
G1 X96.483 Y108.116 E5.93013
G1 X96.958 Y107.925 E5.95337
G1 X97.677 Y107.784 E5.98664
G1 X99.498 Y107.635 E6.06959
G1 X102.244 Y107.354 E6.19491
G1 X104.948 Y106.999 E6.31872
G1 X107.653 Y106.568 E6.44308
G1 X110.323 Y106.063 E6.56645
G1 X113.024 Y105.473 E6.69196
G1 X115.647 Y104.822 E6.81466
G1 X118.304 Y104.082 E6.93988
G1 X120.669 Y103.36 E7.05214
G1 X121.293 Y103.222 E7.08116
G1 X122.376 Y103.205 E7.13033
G1 X129.922 Y103.205 E7.47292
G1 X130.625 Y103.215 E7.50484
G1 X131.134 Y103.263 E7.52805
G1 X131.629 Y103.388 E7.55123
G1 X132.099 Y103.59 E7.57446
G1 X132.532 Y103.862 E7.59767
G1 X132.903 Y104.184 E7.61997
G1 X134.657 Y105.954 E7.7331
G1 X135.705 Y106.964 E7.79918
G1 X136.46 Y107.727 E7.84792
G1 X137.097 Y108.453 E7.89176
G1 X137.708 Y109.258 E7.93765
G1 X138.262 Y110.102 E7.98348
G1 X138.776 Y111.013 E8.03097
G1 X139.238 Y112.029 E8.08164
G1 X139.507 Y112.728 E8.11565
G1 X139.816 Y113.712 E8.16247
G1 X140.065 Y114.751 E8.21098
G1 X140.233 Y115.854 E8.26163
G1 X140.299 Y116.583 E8.29486
G1 X140.33 Y117.694 E8.34532
G1 X140.28 Y118.703 E8.39119
G1 X140.18 Y119.517 E8.42842
G1 X140.036 Y120.41 E8.46949
G1 X139.738 Y121.571 E8.5239
G1 X139.381 Y122.613 E8.57391
G1 X139.111 Y123.275 E8.60637
G1 X138.794 Y123.95 E8.64022
G1 X138.414 Y124.642 E8.67607
G1 X138.142 Y125.099 E8.70021
G1 X137.734 Y125.726 E8.73417
G1 X136.94 Y126.739 E8.79261
G1 X136.481 Y127.265 E8.8243
G1 X133.944 Y129.749 E8.9855
G1 X132.924 Y130.794 E9.0518
G1 X132.539 Y131.131 E9.07502
G1 X132.107 Y131.404 E9.09823
G1 X131.637 Y131.606 E9.12145
G1 X131.142 Y131.733 E9.14465
G1 X130.636 Y131.781 E9.16773
G1 X129.789 Y131.795 E9.20619
G1 X122.058 Y131.795 E9.55717
G1 X121.355 Y131.785 E9.58909
G1 X120.712 Y131.724 E9.61842
G1 X119.263 Y131.278 E9.68725
G1 X116.634 Y130.506 E9.81164
G1 X113.978 Y129.807 E9.93633
G1 X111.331 Y129.19 E10.05973
G1 X108.622 Y128.639 E10.18524
G1 X105.965 Y128.176 E10.30768
G1 X103.236 Y127.779 E10.43288
G1 X100.542 Y127.465 E10.55602
G1 X97.66 Y127.214 E10.68736
G1 X97.155 Y127.13 E10.7106
G1 X96.67 Y126.968 E10.73381
G1 X96.216 Y126.733 E10.75702
G1 X95.804 Y126.43 E10.78024
G1 X95.445 Y126.066 E10.80345
G1 X95.146 Y125.651 E10.82667
G1 X94.916 Y125.195 E10.84986
G1 X94.759 Y124.708 E10.87309
G1 X94.663 Y123.974 E10.9067
G1 X94.661 Y121.329 E11.02678
G1 X94.682 Y119.885 E11.09235
G1 X94.719 Y118.529 E11.15393
G1 X94.717 Y115.794 E11.2781
G1 X94.662 Y113.52 E11.38137
G1 X94.661 Y111.647 E11.46641
G1 X94.67 Y111 E11.49578
G1 X94.717 Y110.491 E11.51899
G1 X94.843 Y109.996 E11.54218
G1 X95.044 Y109.526 E11.56539
G1 X95.317 Y109.093 E11.58863
G1 X95.653 Y108.708 E11.61182
G1 F1200 E10.61182
G0 F6000 X120.854 Y112.579
G1 F1200 E11.61182
G1 F600 X121.294 Y112.156 E11.63954
G1 X121.79 Y111.757 E11.66844
G1 X122.285 Y111.423 E11.69555
G1 X122.8 Y111.135 E11.72233
G1 X123.369 Y110.879 E11.75066
G1 X123.942 Y110.675 E11.77827
G1 X124.53 Y110.522 E11.80586
G1 X125.139 Y110.417 E11.83392
G1 X125.758 Y110.364 E11.86212
G1 X126.352 Y110.366 E11.88909
G1 X126.964 Y110.418 E11.91697
G1 X127.553 Y110.519 E11.9441
G1 X128.153 Y110.675 E11.97225
G1 X128.716 Y110.874 E11.99936
G1 X129.273 Y111.125 E12.0271
G1 X129.823 Y111.43 E12.05565
G1 X130.316 Y111.766 E12.08274
G1 X130.791 Y112.147 E12.11038
G1 X131.233 Y112.566 E12.13803
G1 X131.635 Y113.027 E12.1658
G1 X132.009 Y113.529 E12.19422
G1 X132.318 Y114.029 E12.22091
G1 X132.592 Y114.575 E12.24864
G1 X132.827 Y115.156 E12.27709
G1 X133.005 Y115.74 E12.30481
G1 X133.132 Y116.326 E12.33203
G1 X133.209 Y116.926 E12.3595
G1 X133.236 Y117.539 E12.38736
G1 X133.21 Y118.142 E12.41476
G1 X133.134 Y118.752 E12.44266
G1 X133.003 Y119.357 E12.47077
G1 X132.826 Y119.939 E12.49839
G1 X132.6 Y120.502 E12.52593
G1 X132.328 Y121.045 E12.5535
G1 X132.006 Y121.568 E12.58138
G1 X131.639 Y122.062 E12.60932
G1 X131.249 Y122.507 E12.63619
G1 X130.796 Y122.943 E12.66473
G1 X130.33 Y123.318 E12.69189
G1 X129.815 Y123.667 E12.72013
G1 X129.298 Y123.958 E12.74707
G1 X128.73 Y124.215 E12.77537
G1 X128.163 Y124.416 E12.80268
G1 X127.568 Y124.571 E12.8306
G1 X126.959 Y124.676 E12.85865
G1 X126.34 Y124.729 E12.88686
G1 X125.751 Y124.728 E12.9136
G1 X125.122 Y124.673 E12.94227
G1 X124.543 Y124.575 E12.96893
G1 X123.945 Y124.419 E12.99698
G1 X123.376 Y124.218 E13.02438
G1 X122.826 Y123.971 E13.05175
G1 X122.279 Y123.665 E13.08021
G1 X121.784 Y123.333 E13.10727
G1 X121.294 Y122.936 E13.1359
G1 X120.857 Y122.517 E13.16339
G1 X120.451 Y122.057 E13.19124
G1 X120.102 Y121.585 E13.21789
G1 X119.77 Y121.045 E13.24667
G1 X119.504 Y120.518 E13.27347
G1 X119.274 Y119.947 E13.30142
G1 X119.094 Y119.358 E13.32938
G1 X118.961 Y118.741 E13.35804
G1 X118.887 Y118.164 E13.38445
G1 X118.862 Y117.553 E13.41221
G1 X118.888 Y116.939 E13.44011
G1 X118.966 Y116.334 E13.4678
G1 X119.09 Y115.75 E13.49491
G1 X119.27 Y115.158 E13.523
G1 X119.497 Y114.595 E13.55056
G1 X119.771 Y114.049 E13.57829
G1 X120.102 Y113.508 E13.60709
G1 X120.458 Y113.029 E13.63418
G1 X120.854 Y112.579 E13.6614
G0 F6000 X120.921 Y112.952
G1 F600 X120.905 Y112.969 E13.66246
G1 X120.417 Y113.536 E13.69642
G1 X120.39 Y113.574 E13.69854
G1 X119.919 Y114.36 E13.74014
G1 X119.902 Y114.393 E13.74182
G1 X119.587 Y115.131 E13.77825
G1 X119.577 Y115.158 E13.77956
G1 X119.335 Y115.948 E13.81707
G1 X119.326 Y115.985 E13.8188
G1 X119.176 Y116.926 E13.86206
G1 X119.173 Y116.96 E13.86361
G1 X119.146 Y117.754 E13.89968
G1 X119.148 Y117.796 E13.90159
G1 X119.241 Y118.565 E13.93675
G1 X119.246 Y118.594 E13.93809
G1 X119.459 Y119.506 E13.98061
G1 X119.473 Y119.548 E13.98262
G1 X119.933 Y120.666 E14.03751
G1 X119.953 Y120.705 E14.0395
G1 X120.472 Y121.548 E14.08444
G1 X120.499 Y121.585 E14.08652
G1 X121.066 Y122.229 E14.12547
G1 X121.088 Y122.251 E14.12689
G1 X121.643 Y122.754 E14.16089
G1 X121.669 Y122.775 E14.16241
G1 X122.35 Y123.256 E14.20026
G1 X122.388 Y123.279 E14.20228
G1 X123.155 Y123.652 E14.241
G1 X123.179 Y123.662 E14.24218
G1 X123.818 Y123.899 E14.27312
G1 X123.856 Y123.91 E14.27492
G1 X124.625 Y124.074 E14.31062
G1 X124.732 Y124.067 E14.31548
G1 X125.649 Y124.19 E14.35749
G1 X125.692 Y124.192 E14.35944
G1 X126.537 Y124.171 E14.39782
G1 X126.57 Y124.168 E14.39932
G1 X127.255 Y124.065 E14.43077
G1 X127.354 Y124.08 E14.43532
G1 X128.206 Y123.922 E14.47466
G1 X128.259 Y123.907 E14.47716
G1 X128.862 Y123.662 E14.50671
G1 X128.881 Y123.653 E14.50766
G1 X129.551 Y123.319 E14.54165
G1 X129.592 Y123.294 E14.54383
G1 X130.343 Y122.734 E14.58636
G1 X130.367 Y122.714 E14.58778
G1 X130.945 Y122.173 E14.62372
G1 X130.969 Y122.147 E14.62533
G1 X131.597 Y121.383 E14.67023
G1 X131.618 Y121.354 E14.67185
G1 X132.023 Y120.699 E14.70682
G1 X132.039 Y120.67 E14.70832
G1 X132.409 Y119.872 E14.74825
G1 X132.423 Y119.832 E14.75018
G1 X132.691 Y118.899 E14.79425
G1 X132.7 Y118.857 E14.7962
G1 X132.832 Y117.78 E14.84546
G1 X132.833 Y117.726 E14.84791
G1 X132.763 Y116.823 E14.88903
G1 X132.76 Y116.798 E14.89017
G1 X132.634 Y116.057 E14.9243
G1 X132.628 Y116.028 E14.92564
G1 X132.386 Y115.179 E14.96572
G1 X132.369 Y115.136 E14.96782
G1 X131.985 Y114.331 E15.00832
G1 X131.98 Y114.321 E15.00882
G1 X131.652 Y113.706 E15.04047
G1 X131.625 Y113.665 E15.0427
G1 X131.117 Y113.02 E15.07997
G1 X131.099 Y112.999 E15.08123
G1 X130.569 Y112.454 E15.11574
G1 X130.539 Y112.427 E15.11757
G1 X129.681 Y111.771 E15.16661
G1 X129.638 Y111.744 E15.16891
G1 X129.019 Y111.433 E15.20036
G1 X128.994 Y111.422 E15.2016
G1 X128.438 Y111.207 E15.22867
G1 X128.417 Y111.2 E15.22967
G1 X127.733 Y111 E15.26202
G1 X127.687 Y110.991 E15.26415
G1 X126.232 Y110.825 E15.33064
G1 X126.199 Y110.823 E15.33214
G1 X125.394 Y110.829 E15.36869
G1 X125.353 Y110.832 E15.37055
G1 X124.731 Y110.932 E15.39916
G1 X124.623 Y110.916 E15.40411
G1 X123.861 Y111.057 E15.43929
G1 X123.812 Y111.071 E15.44161
G1 X122.914 Y111.42 E15.48535
G1 X122.876 Y111.438 E15.48726
G1 X122.155 Y111.856 E15.52509
G1 X122.116 Y111.883 E15.52725
G1 X121.411 Y112.475 E15.56904
G1 X121.396 Y112.489 E15.56997
G1 X120.921 Y112.952 E15.60009
G1 F1200 E14.60009
;MESH:pivot.stl
G0 F6000 X118.254 Y114.03
G0 X116.999 Y117.515
G0 X117.089 Y117.519
;TYPE:WALL-INNER
G1 F1200 E15.60009
G1 F600 X117.121 Y116.767 E15.63426
G1 X117.212 Y116.043 E15.66739
G1 X117.383 Y115.263 E15.70364
G1 X117.583 Y114.599 E15.73512
G1 X117.879 Y113.863 E15.77114
G1 X118.24 Y113.149 E15.80746
G1 X118.645 Y112.493 E15.84246
G1 X119.064 Y111.934 E15.87418
G1 X119.569 Y111.357 E15.90899
G1 X120.129 Y110.818 E15.94428
G1 X120.715 Y110.34 E15.97861
G1 X121.369 Y109.9 E16.0144
G1 X122.037 Y109.532 E16.04902
G1 X122.739 Y109.22 E16.0839
G1 X123.456 Y108.967 E16.11842
G1 X124.178 Y108.781 E16.15227
G1 X124.881 Y108.66 E16.18465
G1 X125.718 Y108.589 E16.22279
G1 X126.463 Y108.595 E16.25661
G1 X127.224 Y108.661 E16.29129
G1 X127.958 Y108.793 E16.32515
G1 X128.695 Y108.984 E16.35972
G1 X129.409 Y109.241 E16.39417
G1 X130.062 Y109.534 E16.42666
G1 X130.77 Y109.927 E16.46343
G1 X131.362 Y110.331 E16.49597
G1 X131.992 Y110.84 E16.53274
G1 X132.484 Y111.312 E16.56369
G1 X133.004 Y111.898 E16.59926
G1 X133.458 Y112.502 E16.63356
G1 X133.881 Y113.195 E16.67042
G1 X134.21 Y113.854 E16.70386
G1 X134.487 Y114.529 E16.73699
G1 X134.716 Y115.277 E16.7725
G1 X134.873 Y115.986 E16.80547
G1 X134.978 Y116.785 E16.84206
G1 X135.007 Y117.54 E16.87636
G1 X134.979 Y118.287 E16.9103
G1 X134.885 Y119.041 E16.94479
G1 X134.717 Y119.815 E16.98075
G1 X134.509 Y120.498 E17.01317
G1 X134.224 Y121.213 E17.04811
G1 X133.878 Y121.898 E17.08295
G1 X133.464 Y122.577 E17.11906
G1 X133.015 Y123.179 E17.15315
G1 X132.521 Y123.738 E17.18702
G1 X131.981 Y124.26 E17.22112
G1 X131.382 Y124.743 E17.25605
G1 X130.789 Y125.152 E17.28876
G1 X130.082 Y125.548 E17.32555
G1 X129.367 Y125.87 E17.36115
G1 X128.641 Y126.121 E17.39602
G1 X127.919 Y126.307 E17.42987
G1 X127.143 Y126.441 E17.46563
G1 X126.451 Y126.497 E17.49714
G1 X125.643 Y126.497 E17.53383
G1 X124.931 Y126.437 E17.56627
G1 X124.195 Y126.312 E17.60016
G1 X123.466 Y126.126 E17.63432
G1 X122.745 Y125.872 E17.66902
G1 X121.986 Y125.534 E17.70674
G1 X121.328 Y125.161 E17.74108
G1 X120.74 Y124.768 E17.77319
G1 X120.143 Y124.284 E17.80808
G1 X119.578 Y123.745 E17.84353
G1 X119.095 Y123.198 E17.87666
G1 X118.601 Y122.533 E17.91427
G1 X118.211 Y121.891 E17.94838
G1 X117.885 Y121.238 E17.98151
G1 X117.584 Y120.495 E18.01791
G1 X117.371 Y119.785 E18.05156
G1 X117.215 Y119.062 E18.08514
G1 X117.122 Y118.34 E18.11819
G1 X117.089 Y117.519 E18.15549
G1 F1200 E17.15549
G0 F6000 X116.999 Y117.515
G0 X116.891 Y118.367
G0 X115.491 Y118.544
G0 X115.609 Y119.175
G0 X115.607 Y120.653
G0 X115.301 Y121.065
G0 X98.959 Y121.616
G0 X98.959 Y121.523
G1 F1200 E18.15549
G1 F600 X98.959 Y123.141 E18.22895
G1 X117.12 Y123.141 E19.05346
G1 X117.335 Y123.169 E19.06331
G1 X117.692 Y123.359 E19.08167
G1 X118.163 Y123.968 E19.11662
G1 X118.628 Y124.498 E19.14863
G1 X119.013 Y124.889 E19.17354
G1 X119.454 Y125.282 E19.20036
G1 X119.969 Y125.693 E19.23027
G1 X120.832 Y126.308 E19.27839
G1 X121.496 Y126.987 E19.3215
G1 X121.931 Y127.701 E19.35946
G1 X130.074 Y127.701 E19.72915
G1 X130.269 Y127.345 E19.74758
G1 X130.815 Y126.678 E19.78671
G1 X131.152 Y126.375 E19.80729
G1 X132.105 Y125.707 E19.86013
G1 X132.69 Y125.24 E19.89411
G1 X133.212 Y124.76 E19.92631
G1 X133.689 Y124.258 E19.95774
G1 X134.123 Y123.736 E19.98856
G1 X134.542 Y123.149 E20.02131
G1 X134.904 Y122.564 E20.05254
G1 X135.233 Y121.94 E20.08457
G1 X135.522 Y121.28 E20.11728
G1 X135.755 Y120.631 E20.14858
G1 X135.956 Y119.934 E20.18152
G1 X136.099 Y119.248 E20.21333
G1 X136.194 Y118.551 E20.24527
G1 X136.245 Y117.843 E20.27749
G1 X136.245 Y117.166 E20.30823
G1 X136.191 Y116.418 E20.34228
G1 X136.096 Y115.725 E20.37403
G1 X135.951 Y115.05 E20.40538
G1 X135.752 Y114.35 E20.43842
G1 X135.527 Y113.729 E20.4684
G1 X135.233 Y113.06 E20.50158
G1 X134.916 Y112.454 E20.53263
G1 X134.533 Y111.835 E20.56568
G1 X134.123 Y111.262 E20.59766
G1 X133.688 Y110.742 E20.62844
G1 X133.192 Y110.219 E20.66117
G1 X132.673 Y109.738 E20.69329
G1 X132.114 Y109.294 E20.7257
G1 X131.124 Y108.598 E20.78064
